( Made using CamBam - http://www.cambam.co.uk )
( roland_140_eg 8/28/2015 10:59:31 PM )
( T1 : 0.04 )
( T2 : 0.031 )
( T3 : 0.0 )
( T6 : 0.0465 )
( T70 : 0.07 )
G20 G90 G64 G40
G0 Z0.0625
( T2 : 0.031 )
T2 M6
( .031 Drills )
G17
M3 S1000
G0 X1.8499 Y1.4606
G98
G81 X1.8499 Y1.4606 Z-0.07 R0.0625 F20.0
G81 X1.7507 Y1.6565 Z-0.07
G81 X1.6515 Z-0.07
G81 X1.5523 Z-0.07
G81 Y1.5598 Z-0.07
G81 X1.4531 Z-0.07
G81 X1.5523 Y1.7557 Z-0.07
G81 Y1.954 Z-0.07
G81 X1.4531 Y1.9565 Z-0.07
G81 Y2.0557 Z-0.07
G81 X1.5523 Y2.1549 Z-0.07
G81 X1.654 Y2.2541 Z-0.07
G81 X1.7507 Y2.2516 Z-0.07
G81 Y2.1524 Z-0.07
G81 X1.9491 Y2.1549 Z-0.07
G81 X1.6515 Y2.3508 Z-0.07
G81 X1.5523 Z-0.07
G81 X1.6515 Y2.4525 Z-0.07
G81 Y2.5517 Z-0.07
G81 X1.7507 Z-0.07
G81 Y2.6484 Z-0.07
G81 X1.4531 Y2.6508 Z-0.07
G81 X1.3539 Y2.5517 Z-0.07
G81 X1.2547 Y2.6508 Z-0.07
G81 X1.1556 Y2.75 Z-0.07
G81 Y2.5517 Z-0.07
G81 X1.0564 Z-0.07
G81 X0.9572 Z-0.07
G81 X0.858 Z-0.07
G81 X0.7588 Z-0.07
G81 Y2.45 Z-0.07
G81 X0.6596 Z-0.07
G81 X0.5579 Y2.4525 Z-0.07
G81 X0.4588 Z-0.07
G81 Y2.5517 Z-0.07
G81 X0.5579 Y2.6508 Z-0.07
G81 X0.8555 Z-0.07
G81 X1.0564 Y2.4525 Z-0.07
G81 Y2.2541 Z-0.07
G81 Y2.1549 Z-0.07
G81 Y2.0532 Z-0.07
G81 X1.1556 Y2.0557 Z-0.07
G81 X1.2547 Y2.1549 Z-0.07
G81 X1.3539 Y2.2516 Z-0.07
G81 X1.2547 Y2.3508 Z-0.07
G81 X1.2572 Y2.45 Z-0.07
G81 X1.3539 Y1.954 Z-0.07
G81 Y1.8573 Z-0.07
G81 X1.2547 Y1.6565 Z-0.07
G81 X1.1556 Y1.5573 Z-0.07
G81 X1.0539 Y1.4606 Z-0.07
G81 X0.9572 Y1.5598 Z-0.07
G81 Y1.6589 Z-0.07
G81 X0.858 Z-0.07
G81 X0.7588 Y1.6565 Z-0.07
G81 X0.6596 Y1.6589 Z-0.07
G81 Y1.5598 Z-0.07
G81 X0.5579 Y1.6589 Z-0.07
G81 X0.3596 Z-0.07
G81 X0.4588 Y1.4606 Z-0.07
G81 Y1.3614 Z-0.07
G81 X0.5579 Z-0.07
G81 X0.5604 Y1.2622 Z-0.07
G81 X0.5579 Y1.163 Z-0.07
G81 Y1.0638 Z-0.07
G81 X0.4588 Y1.0613 Z-0.07
G81 Y1.163 Z-0.07
G81 X0.5579 Y0.9621 Z-0.07
G81 X0.7588 Y0.9646 Z-0.07
G81 Y0.8654 Z-0.07
G81 Y0.7638 Z-0.07
G81 X0.9572 Z-0.07
G81 Y0.8654 Z-0.07
G81 Y0.9646 Z-0.07
G81 Y1.0638 Z-0.07
G81 X0.858 Z-0.07
G81 Y1.1605 Z-0.07
G81 Y1.2622 Z-0.07
G81 X0.6596 Y1.3614 Z-0.07
G81 X0.2604 Y1.4581 Z-0.07
G81 X0.1612 Z-0.07
G81 X0.0645 Y1.6589 Z-0.07
G81 X0.062 Y1.8573 Z-0.07
G81 X0.1612 Z-0.07
G81 X0.1587 Y2.1549 Z-0.07
G81 X0.4588 Z-0.07
G81 Y2.2541 Z-0.07
G81 X0.6596 Y2.0557 Z-0.07
G81 Y1.9565 Z-0.07
G81 X0.7588 Z-0.07
G81 X0.858 Z-0.07
G81 X0.9597 Z-0.07
G81 X0.9572 Y1.8573 Z-0.07
G81 X0.7588 Y2.1574 Z-0.07
G81 Y2.2541 Z-0.07
G81 X0.5579 Y1.9565 Z-0.07
G81 X0.4588 Y1.954 Z-0.07
G81 X0.062 Y1.1605 Z-0.07
G81 X0.1612 Y1.0638 Z-0.07
G81 X0.2604 Y0.9621 Z-0.07
G81 X0.6596 Y0.4662 Z-0.07
G81 X0.9547 Z-0.07
G81 X1.0539 Y0.5654 Z-0.07
G81 X1.1556 Z-0.07
G81 X1.2547 Z-0.07
G81 X1.3539 Z-0.07
G81 X1.4531 Y0.367 Z-0.07
G81 Y0.2678 Z-0.07
G81 X1.3539 Z-0.07
G81 X1.2547 Z-0.07
G81 X1.1531 Z-0.07
G81 Y0.1686 Z-0.07
G81 X1.0539 Y0.2653 Z-0.07
G81 X0.9547 Y0.1661 Z-0.07
G81 Y0.0694 Z-0.07
G81 X1.2523 Y0.067 Z-0.07
G81 X1.3539 Y0.0694 Z-0.07
G81 X1.4531 Y0.1686 Z-0.07
G81 X1.649 Y0.0694 Z-0.07
G81 X1.7507 Y0.2678 Z-0.07
G81 X1.7482 Y0.367 Z-0.07
G81 X1.6515 Y0.5654 Z-0.07
G81 Y0.8654 Z-0.07
G81 X1.5523 Z-0.07
G81 Y0.9646 Z-0.07
G81 Y1.0638 Z-0.07
G81 X1.4531 Z-0.07
G81 X1.3539 Z-0.07
G81 X1.2547 Z-0.07
G81 Y0.9646 Z-0.07
G81 X1.3539 Y0.8654 Z-0.07
G81 X1.4531 Z-0.07
G81 X1.6515 Y1.1605 Z-0.07
G81 X1.7507 Y1.163 Z-0.07
G81 X1.8499 Y1.7581 Z-0.07
G81 X1.654 Y1.954 Z-0.07
G81 X1.0564 Y1.163 Z-0.07
G81 X0.6596 Y0.1686 Z-0.07
G80
( .04 Drills )
G0 Z0.0625
( T1 : 0.04 )
T1 M6
M3 S1000
G0 X1.7507 Y2.75
G98
G81 X1.7507 Y2.75 Z-0.07 R0.0625 F20.0
G81 X1.8499 Y2.7525 Z-0.07
G81 X0.2604 Y1.2597 Z-0.07
G81 X0.1612 Y1.2622 Z-0.07
G81 X0.062 Y1.2597 Z-0.07
G81 X0.2604 Y0.4637 Z-0.07
G81 Y0.367 Z-0.07
G81 Y0.2678 Z-0.07
G81 Y0.1686 Z-0.07
G81 Y0.0694 Z-0.07
G81 X0.3596 Z-0.07
G81 Y0.1686 Z-0.07
G81 Y0.2678 Z-0.07
G81 Y0.367 Z-0.07
G81 Y0.4662 Z-0.07
G81 X0.7588 Y0.6646 Z-0.07
G81 X0.853 Y0.6671 Z-0.07
G81 X0.9547 Y0.6646 Z-0.07
G81 X1.7507 Y0.1686 Z-0.07
G81 X1.7532 Y0.0694 Z-0.07
G81 X1.8499 Y0.0719 Z-0.07
G80
( .0465 Drills1 )
G0 Z0.0625
( T6 : 0.0465 )
T6 M6
M3 S1000
G0 X2.0507 Y0.1686
G98
G81 X2.0507 Y0.1686 Z-0.07 R0.0625 F20.0
G81 Y0.2678 Z-0.07
G81 Y0.367 Z-0.07
G81 X2.0483 Y0.4662 Z-0.07
G81 Y0.5654 Z-0.07
G81 X2.0507 Y0.8629 Z-0.07
G81 Y0.9621 Z-0.07
G81 Y1.0613 Z-0.07
G81 X2.0483 Y1.163 Z-0.07
G81 X2.0507 Y1.2597 Z-0.07
G81 X2.0483 Y1.5573 Z-0.07
G81 X2.0507 Y1.6565 Z-0.07
G81 Y1.7557 Z-0.07
G81 Z-0.07
G81 X2.0483 Y1.8573 Z-0.07
G81 X2.0507 Y1.9565 Z-0.07
G81 Y2.2541 Z-0.07
G81 X2.0483 Y2.3533 Z-0.07
G81 X2.0507 Y2.4525 Z-0.07
G81 Y2.5517 Z-0.07
G81 Y2.6508 Z-0.07
G80
( Profile1 )
G0 Z0.125
( T3 : 0.0 )
T3 M6
M3 S1000
G0 X1.5164 Y1.7268
G0 Z0.0423
G1 F10.0 Z-0.004
G1 F25.0 X1.5154 Y1.727
G3 X1.5129 Y1.7274 I-0.0147 J-0.0844
G1 X1.5114 Y1.7276
G1 X1.5115
G1 X1.5097 Y1.7278
G1 X1.5098
G1 X1.5089 Y1.7279
G1 X1.5079 Y1.728
G3 X1.5027 Y1.7284 I-0.0172 J-0.1924
G1 X1.4997 Y1.7285
G1 X1.4981 Y1.7286
G1 X1.4964 Y1.7287
G1 X1.4946 Y1.7288
G1 X1.4927 Y1.7289
G1 X1.4906
G1 X1.4859 Y1.7291
G1 X1.4805 Y1.7292
G1 X1.4743 Y1.7293
G1 X1.4672 Y1.7295
G1 X1.4591 Y1.7296
G1 X1.4499
G1 X1.4393 Y1.7297
G1 X1.4272 Y1.7298
G3 X1.3951 I-0.0453 J-15.1964
G1 X1.3909
G1 X1.3866
G1 X1.3822
G2 X1.3265 Y1.7299 I-0.0054 J21.4876
G1 X1.3264
G1 X1.3185
G1 X1.3094 Y1.73
G1 X1.3091
G1 X1.2986 Y1.7301
G2 X1.2867 Y1.7302 I0.0221 J2.1028
G1 X1.2803 Y1.7303
G2 X1.277 Y1.7304 I0.0134 J0.6094
G1 X1.2753 Y1.7305
G1 X1.2718 Y1.7306
G1 X1.271
G1 X1.2709
G1 X1.2674 Y1.7308
G2 X1.2596 Y1.7312 I0.0104 J0.2556
G2 X1.2556 Y1.7315 I0.0081 J0.1233
G2 X1.2535 Y1.7317 I0.0054 J0.0623
G2 X1.2492 Y1.7323 I0.0097 J0.0867
G2 X1.2446 Y1.7333 I0.0073 J0.0447
G2 X1.2421 Y1.7341 I0.0062 J0.0228
G2 X1.2371 Y1.7371 I0.0066 J0.0172
G2 X1.235 Y1.739 I0.0154 J0.0189
G1 X1.2345 Y1.7395
G2 X1.2344 Y1.7396 I0.0029 J0.0028
G1 X1.2339 Y1.7402
G1 X1.2338
G2 X1.2325 Y1.7419 I0.0119 J0.0108
G2 X1.2306 Y1.7455 I0.0147 J0.0101
G2 X1.2298 Y1.7479 I0.0214 J0.0086
G1 X1.2296 Y1.7484
G1 Y1.7485
G2 X1.2289 Y1.7517 I0.0473 J0.0121
G2 X1.2283 Y1.7559 I0.0631 J0.0116
G1 Y1.7561
G1 X1.2282 Y1.7564
G1 Y1.7567
G1 Y1.7569
G1 X1.2281 Y1.7572
G1 Y1.7575
G2 X1.2276 Y1.7634 I0.1502 J0.0162
G1 Y1.7638
G2 X1.2273 Y1.7672 I0.1408 J0.0106
G1 Y1.7689
G1 Y1.769
G2 X1.2269 Y1.7785 I0.4243 J0.0223
G1 X1.2267 Y1.7839
G1 X1.2266 Y1.7901
G1 X1.2265 Y1.7909
G1 Y1.7942
G1 X1.2264 Y1.8018
G1 Y1.8019
G1 X1.2263 Y1.8106
G1 X1.2262 Y1.8152
G1 X1.2261 Y1.8258
G1 Y1.8379
G1 Y1.8394
G1 X1.226 Y1.846
G1 Y1.853
G1 Y1.8689
G2 Y1.8871 I13.3427 J0.0243
G1 Y1.9357
G1 X1.2259 Y1.9516
G1 Y1.9539
G1 Y1.9565
G1 Y1.9772
G3 X1.2258 Y2.0188 I-19.4622 J-0.0309
G1 Y2.0214
G1 X1.2257 Y2.0337
G1 X1.2256 Y2.0477
G1 Y2.0481
G1 Y2.0485
G3 X1.2254 Y2.0646 I-2.846 J-0.025
G1 Y2.0649
G1 Y2.0669
G1 X1.2252 Y2.0757
G3 Y2.0779 I-0.1424 J-0.0018
G1 X1.2251 Y2.0825
G1 X1.225 Y2.0848
G1 Y2.0872
G1 Y2.0871
G1 X1.2248 Y2.092
G1 Y2.0933
G1 X1.2247 Y2.0945
G1 X1.2246 Y2.097
G1 X1.2245 Y2.0995
G1 Y2.1002
G3 X1.2238 Y2.111 I-0.2797 J-0.0125
G1 X1.2237 Y2.1123
G3 X1.223 Y2.1178 I-0.0989 J-0.0092
G3 X1.2225 Y2.1204 I-0.0522 J-0.0083
G3 X1.2219 Y2.1227 I-0.0165 J-0.0035
G3 X1.2215 Y2.1234 I-0.0047 J-0.0018
G1 Y2.1235
G3 X1.2214 Y2.1236 I-0.0003 J-0.0002
G2 X1.2181 Y2.1271 I0.0141 J0.0167
G2 X1.2155 Y2.1313 I0.0182 J0.014
G2 X1.2144 Y2.1346 I0.0153 J0.0073
G1 X1.2143
G2 X1.214 Y2.137 I0.0107 J0.0026
G3 X1.2139 Y2.138 I-0.0035 J0.0
G3 X1.2137 Y2.1385 I-0.0019 J-0.0005
G2 X1.2106 Y2.1394 I0.0004 J0.0073
G1 X1.2105
G2 X1.2079 Y2.1418 I0.0036 J0.0065
G2 X1.2071 Y2.1434 I0.0088 J0.0057
G1 Y2.1435
G2 X1.2064 Y2.1455 I0.0114 J0.0046
G2 X1.2061 Y2.1479 I0.018 J0.0037
G1 Y2.148
G2 X1.206 Y2.1492 I0.0275 J0.0018
G1 Y2.1493
G2 X1.2062 Y2.1524 I0.031 J0.0002
G1 Y2.1525
G2 X1.2064 Y2.1542 I0.0559 J-0.0059
G1 Y2.1546
G1 X1.2065 Y2.1547
G1 X1.2066 Y2.1555
G2 X1.207 Y2.1577 I0.0333 J-0.0056
G2 X1.2085 Y2.1629 I0.0527 J-0.012
G1 X1.209 Y2.1642
G2 X1.2102 Y2.1673 I0.0523 J-0.0187
G2 X1.2141 Y2.1749 I0.0524 J-0.022
G2 X1.2169 Y2.179 I0.04 J-0.0243
G3 X1.2198 Y2.1831 I-0.0684 J0.053
G3 X1.2206 Y2.1843 I-0.0192 J0.0133
G1 X1.2207 Y2.1844
G3 X1.2231 Y2.1898 I-0.02 J0.0124
G3 X1.2236 Y2.1915 I-0.0354 J0.0109
G3 X1.2245 Y2.1962 I-0.0454 J0.0111
G1 Y2.1963
G3 X1.2249 Y2.1991 I-0.0571 J0.0083
G3 X1.2254 Y2.2069 I-0.1494 J0.0146
G1 X1.2255 Y2.2079
G3 X1.2258 Y2.2188 I-0.4026 J0.0169
G1 Y2.2195
G3 Y2.2224 I-0.1719 J0.0039
G1 Y2.2225
G1 X1.2259 Y2.2256
G1 Y2.2328
G1 Y2.241
G1 Y2.2454
G1 X1.226 Y2.2501
G1 Y2.2551
G3 X1.2258 Y2.2759 I-1.2585 J-0.0009
G1 X1.2257 Y2.2788
G1 X1.2256 Y2.2822
G3 X1.2254 Y2.2912 I-0.7962 J-0.0197
G1 X1.2253 Y2.2937
G1 Y2.2936
G1 X1.2252 Y2.2962
G1 X1.2251 Y2.2975
G1 X1.225 Y2.2989
G1 Y2.2996
G1 X1.2248 Y2.3026
G1 Y2.3025
G1 X1.2247 Y2.3057
G3 X1.2244 Y2.309 I-0.2414 J-0.0152
G1 Y2.3099
G2 X1.2243 Y2.31 I0.004 J0.0003
G3 Y2.3102 I-0.0018 J-0.0001
G2 Y2.3103 I0.004 J0.0005
G1 X1.2242 Y2.3112
G1 Y2.3121
G1 Y2.312
G1 X1.2241 Y2.3129
G1 Y2.313
G3 X1.2237 Y2.3167 I-0.0915 J-0.0082
G1 X1.2236 Y2.3169
G1 X1.2237
G1 X1.2236 Y2.3174
G1 Y2.3173
G1 X1.2235 Y2.3178
G1 Y2.3179
G3 X1.2234 Y2.3187 I-0.0144 J-0.0019
G3 X1.2231 Y2.3202 I-0.0235 J-0.004
G2 X1.2223 Y2.3209 I0.0067 J0.0081
G2 X1.2212 Y2.3221 I0.0164 J0.0166
G2 X1.2193 Y2.3246 I0.0269 J0.0227
G2 X1.2162 Y2.3295 I0.0537 J0.0374
G2 X1.2111 Y2.3395 I0.0948 J0.0545
G2 X1.2083 Y2.3465 I0.092 J0.0411
G1 X1.2082 Y2.3466
G1 Y2.3468
G1 X1.2079 Y2.3477
G2 X1.2066 Y2.3523 I0.0408 J0.0139
G2 X1.2061 Y2.3551 I0.0191 J0.0043
G2 Y2.3553 I0.004 J0.0003
G1 Y2.3558
G2 Y2.356 I0.004 J0.0001
G2 X1.2063 Y2.358 I0.0097 J-0.0001
G2 X1.2067 Y2.3595 I0.0152 J-0.0032
G2 X1.2077 Y2.3621 I0.0262 J-0.0082
G2 X1.2099 Y2.3667 I0.0463 J-0.0196
G1 X1.2106 Y2.3679
G1 Y2.368
G2 X1.2168 Y2.3774 I0.0748 J-0.0427
G1 X1.2169
G3 X1.2192 Y2.3809 I-0.0278 J0.0212
G1 X1.2196 Y2.3815
G3 X1.2218 Y2.386 I-0.0422 J0.024
G3 X1.225 Y2.3956 I-0.0504 J0.0221
G3 X1.2261 Y2.4022 I-0.0485 J0.0114
G3 X1.2262 Y2.4058 I-0.0313 J0.0031
G1 Y2.4063
G3 Y2.4072 I-0.0221 J-0.0008
G3 X1.2259 Y2.4091 I-0.0198 J-0.0015
G1 X1.2258 Y2.4096
G3 X1.2253 Y2.4113 I-0.0084 J-0.0018
G3 X1.225 Y2.4119 I-0.004 J-0.0018
G3 X1.2247 Y2.4122 I-0.0011 J-0.0007
G3 X1.2245 Y2.4123 I-0.0002 J-0.0002
G2 X1.2244 I-0.0001 J0.004
G2 X1.2217 Y2.4127 I0.0001 J0.0086
G2 X1.2195 Y2.4138 I0.0033 J0.0096
G2 X1.2164 Y2.4166 I0.0075 J0.0115
G2 X1.213 Y2.4232 I0.0132 J0.011
G3 X1.2128 Y2.424 I-0.0146 J-0.0038
G3 X1.2126 Y2.4246 I-0.005 J-0.0016
G1 X1.2125
G3 X1.2122 Y2.4252 I-0.0016 J-0.0007
G3 X1.2117 Y2.4255 I-0.0015 J-0.0017
G3 X1.2106 Y2.426 I-0.0029 J-0.0051
G3 X1.2085 Y2.4265 I-0.0055 J-0.017
G3 X1.2072 Y2.4268 I-0.0066 J-0.033
G1 X1.2069
G3 X1.2053 Y2.427 I-0.0048 J-0.0302
G1 X1.2049 Y2.4271
G3 X1.203 Y2.4273 I-0.0089 J-0.081
G1 X1.2019
G3 X1.1965 Y2.4277 I-0.0146 J-0.2041
G3 X1.1934 Y2.4278 I-0.0085 J-0.1854
G3 X1.1851 Y2.428 I-0.0163 J-0.5279
G1 X1.1803
G1 X1.1749 Y2.4281
G1 X1.175
G1 X1.1721
G1 X1.1655
G1 X1.1638
G1 X1.163
G1 X1.1551
G1 X1.151
G3 X1.1305 Y2.428 I-0.0005 J-1.2539
G3 X1.1101 Y2.4274 I0.0105 J-0.7021
G1 X1.1074 Y2.4272
G1 X1.1067
G1 X1.1037 Y2.427
G3 X1.0971 Y2.4265 I0.0129 J-0.2066
G1 X1.0954 Y2.4263
G1 X1.0955
G1 X1.0937 Y2.4261
G1 X1.0938
G1 X1.0928 Y2.426
G1 X1.0929
G1 X1.092 Y2.4259
G0 Z0.125
G0 X1.0917 Y2.383
G0 Z0.0423
G1 F10.0 Z-0.004
G1 F25.0 X1.1632 Y2.3826
G2 X1.1662 Y2.3812 I0.0 J-0.004
G1 X1.1758 Y2.37
G1 X1.1854 Y2.3589
G2 X1.1863 Y2.3563 I-0.003 J-0.0026
G1 X1.1864 Y2.2206
G1 Y2.2006
G1 X1.1865 Y2.1805
G1 Y2.1748
G1 X1.1866 Y2.1595
G3 X1.1867 Y2.1391 I3.6351 J0.0176
G3 X1.1868 Y2.1337 I0.5997 J0.0045
G1 Y2.1323
G3 X1.1869 Y2.1264 I0.917 J0.0117
G1 X1.187 Y2.1202
G1 X1.1871 Y2.1169
G1 X1.1872 Y2.1136
G1 X1.1873 Y2.1102
G1 Y2.1097
G1 Y2.1098
G1 X1.1875 Y2.1062
G1 X1.1877 Y2.1025
G3 X1.1882 Y2.0948 I0.194 J0.0104
G1 X1.1883 Y2.0943
G1 Y2.0944
G1 X1.1885 Y2.0924
G1 X1.1886 Y2.0914
G1 Y2.0915
G1 X1.1887 Y2.091
G3 X1.1893 Y2.087 I0.064 J0.0083
G3 X1.1895 Y2.0862 I0.0163 J0.003
G1 Y2.0861
G3 X1.1906 Y2.0824 I0.0259 J0.0055
G3 X1.1922 Y2.0792 I0.0144 J0.0053
G3 X1.1934 Y2.0775 I0.0204 J0.0136
G2 X1.1972 Y2.0722 I-0.0467 J-0.0371
G1 X1.1973 Y2.072
G1 X1.1974 Y2.0719
G2 X1.1986 Y2.0698 I-0.032 J-0.0196
G2 X1.2 Y2.0668 I-0.0285 J-0.015
G2 X1.2013 Y2.0624 I-0.0238 J-0.0094
G2 X1.2016 Y2.0562 I-0.0226 J-0.0043
G2 X1.2011 Y2.0528 I-0.0272 J0.0022
G2 X1.2001 Y2.0491 I-0.0331 J0.0069
G2 X1.1987 Y2.0452 I-0.0494 J0.0162
G2 X1.1968 Y2.0411 I-0.075 J0.0319
G1 Y2.041
G1 X1.1963 Y2.04
G1 X1.1962
G2 X1.1938 Y2.0354 I-0.1116 J0.057
G1 X1.1932 Y2.0344
G1 X1.1933 Y2.0345
G1 X1.1927 Y2.0335
G3 X1.1919 Y2.0317 I0.0293 J-0.015
G3 X1.1906 Y2.0279 I0.0259 J-0.0111
G3 X1.1899 Y2.0251 I0.0487 J-0.013
G1 X1.1898 Y2.0244
G3 X1.1891 Y2.0203 I0.069 J-0.013
G1 X1.189 Y2.0198
G3 X1.1884 Y2.014 I0.136 J-0.017
G3 X1.1879 Y2.0062 I0.2484 J-0.021
G3 X1.1877 Y2.0017 I0.3505 J-0.0198
G1 Y2.0011
G1 X1.1876 Y2.0005
G3 X1.1872 Y1.9881 I0.81 J-0.0335
G1 Y1.9877
G1 Y1.9873
G1 Y1.9869
G3 X1.1869 Y1.97 I1.6213 J-0.0398
G1 X1.1868 Y1.9655
G1 X1.1867 Y1.9606
G1 X1.1866 Y1.9496
G3 Y1.9482 I0.1945 J-0.0023
G1 X1.1865 Y1.9354
G1 Y1.9208
G1 X1.1864 Y1.9041
G1 Y1.8952
G1 Y1.8748
G1 X1.1863 Y1.8516
G1 Y1.8486
G1 Y1.8216
G1 Y1.8072
G3 Y1.7669 I35.693 J-0.0147
G1 Y1.7643
G1 X1.1864 Y1.7499
G1 Y1.7417
G3 X1.1866 Y1.6763 I13.5596 J0.0061
G1 Y1.6675
G1 X1.1867 Y1.6582
G1 Y1.6579
G1 Y1.6556
G1 X1.1868 Y1.6455
G1 X1.1869 Y1.6403
G1 X1.187 Y1.6376
G1 X1.1871 Y1.6322
G3 X1.1872 Y1.6265 I1.0543 J0.0223
G1 X1.1874 Y1.6207
G3 X1.1879 Y1.6084 I0.5151 J0.0157
G1 X1.188 Y1.6068
G3 X1.1882 Y1.6037 I0.27 J0.016
G1 X1.1883 Y1.6029
G1 Y1.6021
G1 X1.1884 Y1.6013
G1 Y1.6014
G1 X1.1885 Y1.5997
G3 X1.1892 Y1.5933 I0.1355 J0.012
G1 X1.1895 Y1.5917
G3 X1.1901 Y1.5885 I0.0669 J0.0111
G3 X1.192 Y1.5825 I0.0301 J0.0063
G1 X1.1922 Y1.5821
G3 X1.1937 Y1.5792 I0.0343 J0.0159
G1 X1.1938 Y1.5791
G2 X1.1993 Y1.5669 I-0.0691 J-0.0388
G2 X1.2006 Y1.5626 I-0.055 J-0.0197
G2 X1.2019 Y1.5566 I-0.0456 J-0.0128
G2 X1.2022 Y1.5529 I-0.029 J-0.0041
G1 Y1.5528
G2 X1.2021 Y1.5507 I-0.0192 J0.0
G1 Y1.5506
G2 X1.2014 Y1.5479 I-0.0119 J0.0014
G2 X1.2012 Y1.5474 I-0.0038 J0.0014
G1 X1.2008 Y1.5466
G2 X1.2006 Y1.5462 I-0.0035 J0.0019
G2 X1.1961 Y1.5434 I-0.0053 J0.0035
G3 X1.1957 Y1.5431 I0.0031 J-0.0035
G3 X1.1943 Y1.5412 I0.0121 J-0.0109
G3 X1.1919 Y1.5368 I0.0235 J-0.0156
G2 X1.19 Y1.5334 I-0.0206 J0.0092
G2 X1.1878 Y1.5304 I-0.0279 J0.0187
G2 X1.1825 Y1.5254 I-0.0283 J0.024
G2 X1.1783 Y1.5226 I-0.0171 J0.0213
G2 X1.177 Y1.5219 I-0.0087 J0.0164
G3 X1.1742 Y1.5205 I0.0118 J-0.0271
G3 X1.1716 Y1.5189 I0.0112 J-0.0199
G1 Y1.5188
G3 X1.1704 Y1.5177 I0.0054 J-0.0074
G2 X1.1699 Y1.5163 I-0.0048 J0.0009
G2 X1.1688 Y1.515 I-0.0047 J0.0026
G2 X1.1684 Y1.5146 I-0.0027 J0.0029
G1 X1.1677 Y1.5141
G2 X1.1673 Y1.5139 I-0.0023 J0.0032
G2 X1.1651 Y1.513 I-0.0061 J0.0116
G1 Y1.5129
G2 X1.1614 Y1.5121 I-0.0076 J0.025
G2 X1.1546 Y1.5116 I-0.0066 J0.0434
G2 X1.1489 Y1.5122 I0.0001 J0.0283
G2 X1.1435 Y1.5139 I0.0059 J0.0278
G2 X1.1403 Y1.5155 I0.0148 J0.0344
G1 X1.1402
G2 X1.1385 Y1.5165 I0.0337 J0.0594
G1 Y1.5166
G1 X1.1381 Y1.5168
G1 X1.138
G2 X1.1336 Y1.52 I0.0295 J0.0463
G2 X1.1282 Y1.5246 I0.0543 J0.069
G1 X1.1269 Y1.5258
G1 X1.1268 Y1.5259
G1 X1.1262 Y1.5265
G1 X1.1255 Y1.5272
G1 X1.1254
G1 X1.124 Y1.5286
G1 X1.1239 Y1.5287
G1 X1.1228 Y1.5299
G1 X1.1227
G1 X1.1223 Y1.5303
G1 X1.1218 Y1.5309
G1 X1.1215 Y1.5312
G1 X1.1207 Y1.5321
G1 X1.1202 Y1.5326
G1 X1.119 Y1.5339
G2 X1.1144 Y1.5397 I0.0553 J0.049
G1 X1.1143
G2 X1.1116 Y1.544 I0.0433 J0.0309
G2 X1.1087 Y1.5504 I0.0312 J0.0181
G2 X1.1073 Y1.5601 I0.0257 J0.0088
G2 X1.1081 Y1.5657 I0.0282 J-0.0012
G2 X1.1101 Y1.5716 I0.0337 J-0.0084
G2 X1.1134 Y1.5777 I0.0461 J-0.0209
G2 X1.1177 Y1.5839 I0.0664 J-0.0416
G1 X1.1268 Y1.5958
G1 Y1.8085
G1 Y1.8302
G1 X1.1267 Y1.852
G3 Y1.8955 I-19.726 J-0.016
G3 X1.1266 Y1.908 I-4.8354 J-0.0111
G1 X1.1265 Y1.9222
G1 X1.1264 Y1.9384
G1 Y1.9471
G1 X1.1263 Y1.9493
G1 X1.1262 Y1.9587
G1 Y1.9635
G1 X1.1261 Y1.9659
G3 X1.1256 Y1.9884 I-1.6246 J-0.0236
G3 X1.1252 Y2.0003 I-0.7609 J-0.0222
G1 X1.1251 Y2.0033
G1 X1.1249 Y2.0064
G3 X1.1244 Y2.0127 I-0.281 J-0.0178
G1 X1.1243 Y2.0142
G1 X1.1241 Y2.0158
G1 Y2.0157
G1 X1.1239 Y2.0174
G3 X1.1234 Y2.0204 I-0.0482 J-0.0061
G3 X1.1227 Y2.0232 I-0.0216 J-0.0039
G3 X1.1223 Y2.0243 I-0.0079 J-0.0026
G3 X1.1222 Y2.0244 I-0.0004 J-0.0002
G2 X1.1189 Y2.0279 I0.0142 J0.0167
G2 X1.1163 Y2.0321 I0.0182 J0.014
G2 X1.1152 Y2.0354 I0.0153 J0.0073
G2 X1.1149 Y2.0378 I0.0107 J0.0026
G3 X1.1147 Y2.0388 I-0.0035 J0.0
G3 X1.1145 Y2.0393 I-0.0019 J-0.0005
G2 X1.1114 Y2.0402 I0.0004 J0.0073
G1 X1.1113
G2 X1.1087 Y2.0426 I0.0036 J0.0065
G2 X1.1079 Y2.0442 I0.0088 J0.0057
G1 Y2.0443
G2 X1.1072 Y2.0463 I0.0114 J0.0046
G1 Y2.0464
G2 X1.1069 Y2.0487 I0.018 J0.0037
G1 Y2.0488
G2 X1.1068 Y2.05 I0.0275 J0.0018
G1 Y2.0501
G2 X1.107 Y2.0533 I0.031 J0.0002
G2 X1.1072 Y2.055 I0.0559 J-0.0059
G1 X1.1073 Y2.0554
G1 Y2.0555
G1 X1.1074 Y2.0563
G2 X1.1078 Y2.0585 I0.0333 J-0.0056
G2 X1.1093 Y2.0637 I0.0527 J-0.012
G1 X1.1098 Y2.065
G2 X1.111 Y2.0681 I0.0523 J-0.0187
G2 X1.1149 Y2.0757 I0.0524 J-0.022
G2 X1.1177 Y2.0798 I0.04 J-0.0243
G1 X1.1268 Y2.0917
G1 Y2.2117
G1 Y2.3289
G1 X0.9401
G1 X0.9374
G1 X0.9348
G1 X0.9296
G2 X0.9261 I-0.0015 J0.305
G1 X0.9122 Y2.329
G1 X0.9082
G1 X0.9037
G1 X0.8916
G1 X0.8754 Y2.3291
G2 X0.8539 Y2.3292 I0.0487 J9.1737
G1 X0.8481 Y2.3293
G1 X0.835 Y2.3294
G2 X0.7999 Y2.3299 I0.0487 J4.5455
G2 X0.7906 Y2.3301 I0.0207 J1.2021
G1 X0.7858 Y2.3302
G1 X0.7833 Y2.3303
G2 X0.7609 Y2.3311 I0.0267 J1.0687
G1 X0.7608
G1 X0.7594 Y2.3312
G1 X0.7587
G1 X0.7573 Y2.3313
G1 X0.7544 Y2.3315
G1 X0.7536
G1 X0.7522 Y2.3316
G2 X0.7506 Y2.3317 I0.007 J0.1052
G2 X0.7444 Y2.3323 I0.0081 J0.1107
G1 X0.7443 Y2.3324
G1 X0.7435 Y2.3325
G2 X0.7417 Y2.3328 I0.004 J0.0251
G2 X0.7404 Y2.3333 I0.002 J0.0088
G2 X0.7402 I0.0015 J0.0037
G1 X0.74 Y2.3334
G2 X0.7398 Y2.3335 I0.0017 J0.0036
G2 X0.7381 Y2.3345 I0.0123 J0.0226
G2 X0.7364 Y2.3359 I0.0085 J0.0128
G1 X0.7363
G2 X0.7335 Y2.3395 I0.0089 J0.0098
G2 X0.7324 Y2.3421 I0.0149 J0.0079
G2 X0.7315 Y2.3453 I0.0247 J0.0083
G1 Y2.3454
G1 X0.7314 Y2.3461
G1 Y2.3462
G2 X0.7308 Y2.3505 I0.05 J0.0091
G1 Y2.3507
G2 X0.7304 Y2.3562 I0.1044 J0.0102
G1 X0.7303 Y2.3566
G1 Y2.3569
G1 Y2.357
G1 Y2.3584
G1 X0.7302 Y2.36
G1 Y2.3617
G1 X0.7301 Y2.3655
G1 Y2.366
G1 Y2.3665
G1 Y2.367
G1 X0.73 Y2.3691
G2 Y2.3739 I0.5581 J0.006
G1 Y2.3794
G3 Y2.3876 I-0.7484 J0.0002
G1 X0.7299 Y2.3903
G3 X0.7296 Y2.4011 I-0.3037 J-0.0046
G3 X0.729 Y2.4082 I-0.1421 J-0.0077
G3 X0.7285 Y2.4121 I-0.0721 J-0.0079
G3 X0.7275 Y2.4163 I-0.0351 J-0.0057
G3 X0.7268 Y2.4183 I-0.0203 J-0.0059
G1 Y2.4184
G3 X0.7245 Y2.4222 I-0.0118 J-0.0047
G3 X0.7209 Y2.4251 I-0.0113 J-0.0104
G3 X0.7165 Y2.427 I-0.0099 J-0.0167
G3 X0.7132 Y2.4277 I-0.0071 J-0.0237
G3 X0.7087 Y2.4281 I-0.0048 J-0.0308
G1 X0.7081
G3 X0.7019 Y2.4275 I0.0005 J-0.036
G1 X0.7018
G3 X0.6938 Y2.425 I0.0073 J-0.0379
G3 X0.6843 Y2.4192 I0.0151 J-0.0353
G2 X0.6785 Y2.4149 I-0.0363 J0.0428
G2 X0.6721 Y2.4114 I-0.0256 J0.0392
G2 X0.6675 Y2.4096 I-0.0164 J0.0367
G2 X0.6475 Y2.4093 I-0.0105 J0.0336
G2 X0.6421 Y2.4112 I0.0108 J0.0386
G2 X0.6364 Y2.4143 I0.0179 J0.0408
G2 X0.6351 Y2.4151 I0.0405 J0.0646
G2 X0.6292 Y2.4196 I0.0329 J0.049
G1 X0.6285 Y2.4202
G2 X0.6256 Y2.423 I0.0411 J0.0464
G2 X0.6212 Y2.4278 I0.0612 J0.0614
G2 X0.6171 Y2.433 I0.0453 J0.0391
G2 X0.6165 Y2.4339 I0.0159 J0.0112
G1 X0.6161 Y2.4346
G1 X0.616
G2 X0.6149 Y2.4366 I0.0344 J0.0217
G2 X0.6137 Y2.4389 I0.0328 J0.0184
G1 X0.6134 Y2.4395
G1 X0.6132 Y2.4401
G1 X0.6131
G2 X0.611 Y2.4474 I0.0284 J0.0123
G1 Y2.4475
G2 X0.6114 Y2.4579 I0.0271 J0.0042
G2 X0.6132 Y2.4634 I0.0313 J-0.0071
G2 X0.6162 Y2.4691 I0.0388 J-0.0166
G2 X0.6203 Y2.4749 I0.0508 J-0.0315
G1 Y2.475
G1 X0.6208 Y2.4756
G2 X0.6261 Y2.4816 I0.0716 J-0.0585
G1 X0.6262
G1 X0.6275 Y2.483
G2 X0.6334 Y2.4884 I0.0647 J-0.0644
G1 X0.6342 Y2.4891
G2 X0.6418 Y2.4944 I0.038 J-0.0462
G2 X0.6476 Y2.4972 I0.0213 J-0.0362
G2 X0.656 Y2.4994 I0.0125 J-0.0309
G1 X0.6561
G1 X0.6566 Y2.4995
G2 X0.6687 Y2.4982 I0.0028 J-0.0299
G2 X0.675 Y2.4955 I-0.0112 J-0.0348
G1 X0.6757 Y2.4951
G2 X0.682 Y2.4908 I-0.0249 J-0.0436
G3 X0.6853 Y2.4887 I0.015 J0.0193
G3 X0.6889 Y2.487 I0.0154 J0.028
G3 X0.6969 Y2.4847 I0.0163 J0.0414
G3 X0.7024 Y2.4839 I0.0113 J0.0588
G1 X0.7028 Y2.4838
G3 X0.7104 Y2.4836 I0.0054 J0.0593
G3 X0.7205 Y2.4848 I-0.002 J0.0578
G3 X0.726 Y2.4864 I-0.0093 J0.0438
G3 X0.7317 Y2.489 I-0.0111 J0.0319
G3 X0.7344 Y2.4908 I-0.011 J0.0191
G2 X0.7398 Y2.4945 I0.0269 J-0.034
G2 X0.7459 Y2.4972 I0.0188 J-0.033
G2 X0.7592 Y2.4992 I0.0114 J-0.0317
G2 X0.768 Y2.4975 I-0.0021 J-0.0354
G2 X0.7726 Y2.4957 I-0.0131 J-0.0405
G1 X0.7727
G2 X0.775 Y2.4945 I-0.0181 J-0.0392
G2 X0.7775 Y2.4931 I-0.0227 J-0.042
G1 Y2.493
G1 X0.7787 Y2.4923
G2 X0.7812 Y2.4905 I-0.0318 J-0.0478
G2 X0.7838 Y2.4885 I-0.029 J-0.0391
G2 X0.7947 Y2.4755 I-0.0316 J-0.0376
G2 X0.8004 Y2.4593 I-0.04 J-0.0231
G2 X0.8005 Y2.4477 I-0.0423 J-0.0063
G2 X0.7956 Y2.433 I-0.0392 J0.0049
G1 Y2.4329
G3 X0.7954 Y2.4326 I0.0038 J-0.0023
G1 X0.7951 Y2.4321
G3 X0.7947 Y2.4313 I0.0156 J-0.008
G1 X0.7944 Y2.4306
G3 X0.7935 Y2.4281 I0.0285 J-0.0124
G3 X0.7919 Y2.4227 I0.0516 J-0.0178
G3 X0.7916 Y2.4211 I0.0899 J-0.0212
G1 X0.7914 Y2.4202
G3 X0.791 Y2.4182 I0.0997 J-0.0199
G3 X0.7896 Y2.4022 I0.0937 J-0.0163
G1 Y2.3848
G1 X0.9744 Y2.3837
G1 X1.0917 Y2.383
G0 Z0.125
G0 X1.0109 Y2.2876
G0 Z0.0423
G1 F10.0 Z-0.004
G2 F25.0 X1.0079 Y2.2871 I-0.0082 J0.0376
G1 X1.0063 Y2.2869
G1 X1.0059
G1 X1.006
G1 X1.0043 Y2.2867
G1 X1.0044
G1 X1.0036 Y2.2866
G1 X1.002 Y2.2865
G1 X1.0021
G1 X1.0013
G2 X0.9891 Y2.2859 I-0.0204 J0.3101
G1 X0.9864 Y2.2858
G1 X0.9812 Y2.2857
G1 X0.9763 Y2.2856
G1 X0.9757
G1 X0.9712
G1 X0.9626 Y2.2855
G1 X0.9551 Y2.2854
G1 X0.942
G1 X0.9395
G1 X0.9211
G1 X0.9165
G1 X0.9026
G1 X0.8949
G1 X0.8803
G1 X0.8675
G1 X0.8619
G1 X0.8515 Y2.2855
G1 X0.8423
G1 X0.8343 Y2.2856
G1 X0.8272 Y2.2857
G1 X0.8242 Y2.2858
G1 X0.8238
G1 X0.8235
G1 X0.8231
G1 X0.8203
G1 X0.8176 Y2.2859
G1 X0.8152 Y2.286
G1 X0.8146
G1 X0.814
G1 X0.8135 Y2.2861
G1 X0.8129
G1 X0.8124
G1 X0.8118
G2 X0.8076 Y2.2863 I0.0112 J0.2962
G2 X0.8003 Y2.2868 I0.0122 J0.2423
G1 X0.8
G1 X0.7996
G2 X0.797 Y2.2871 I0.0084 J0.0984
G1 X0.7967
G2 X0.7956 Y2.2873 I0.003 J0.0298
G2 X0.7915 Y2.2879 I0.0065 J0.0554
G2 X0.7886 Y2.2886 I0.0058 J0.0315
G2 X0.7866 Y2.2892 I0.006 J0.0217
G2 X0.7839 Y2.2906 I0.0059 J0.0155
G1 X0.7835 Y2.2908
G2 X0.7824 Y2.2916 I0.0169 J0.026
G1 X0.7822 Y2.2917
G2 X0.7812 Y2.2924 I0.0304 J0.0409
G3 X0.7761 Y2.2959 I-0.0262 J-0.0333
G3 X0.766 Y2.2999 I-0.0191 J-0.0332
G3 X0.7496 Y2.3 I-0.0083 J-0.0346
G3 X0.7418 Y2.2972 I0.0081 J-0.035
G3 X0.7349 Y2.2928 I0.0167 J-0.0342
G2 X0.7305 Y2.2901 I-0.0137 J0.0173
G1 X0.7304
G2 X0.7283 Y2.2892 I-0.0103 J0.0221
G2 X0.7261 Y2.2885 I-0.0115 J0.0318
G2 X0.7219 Y2.2875 I-0.0136 J0.0474
G2 X0.714 Y2.2863 I-0.0181 J0.0952
G1 X0.7125 Y2.2862
G2 X0.7011 Y2.2853 I-0.0247 J0.2505
G2 X0.6895 Y2.2848 I-0.0311 J0.5567
G1 X0.6848 Y2.2846
G1 X0.6801 Y2.2845
G1 X0.6756 Y2.2843
G1 X0.6755
G1 X0.6733 Y2.2842
G3 X0.6644 Y2.2837 I0.0083 J-0.2169
G1 X0.6634 Y2.2836
G3 X0.6591 Y2.2831 I0.0069 J-0.0795
G1 X0.6586 Y2.283
G1 X0.6581
G3 X0.654 Y2.2822 I0.0081 J-0.0532
G3 X0.65 Y2.281 I0.0084 J-0.0363
G3 X0.6481 Y2.2802 I0.0088 J-0.0249
G3 X0.6444 Y2.2783 I0.0094 J-0.0216
G3 X0.6387 Y2.2726 I0.0118 J-0.0178
G3 X0.6369 Y2.2696 I0.0212 J-0.0146
G3 X0.6345 Y2.2635 I0.0314 J-0.0156
G3 X0.6332 Y2.2579 I0.0562 J-0.0161
G3 X0.6324 Y2.2527 I0.0862 J-0.016
G3 X0.6319 Y2.2479 I0.1668 J-0.0202
G1 X0.6317 Y2.2457
G1 X0.6316 Y2.2435
G1 X0.6315 Y2.243
G1 X0.6314 Y2.2409
G1 Y2.2399
G1 X0.6313 Y2.2379
G1 X0.6312 Y2.236
G3 X0.631 Y2.2286 I0.3785 J-0.0146
G1 Y2.227
G3 X0.6309 Y2.2254 I0.089 J-0.0024
G1 Y2.2224
G1 X0.6308 Y2.2167
G3 Y2.2118 I0.5252 J-0.0052
G3 Y2.2074 I0.4004 J-0.0032
G1 Y2.1999
G1 Y2.1942
G1 Y2.1772
G1 Y2.0915
G1 X0.6218 Y2.0809
G3 X0.6178 Y2.0752 I0.035 J-0.0292
G3 X0.6153 Y2.0707 I0.0482 J-0.0293
G3 X0.6124 Y2.0635 I0.0465 J-0.0228
G1 Y2.0634
G1 X0.6122 Y2.0625
G1 X0.6121
G1 X0.6119 Y2.0617
G3 X0.6115 Y2.0601 I0.0267 J-0.0072
G3 X0.6111 Y2.0578 I0.0308 J-0.0065
G3 X0.611 Y2.0552 I0.0213 J-0.0027
G3 X0.6113 Y2.0513 I0.0234 J0.0003
G1 X0.6114
G3 X0.613 Y2.0453 I0.0372 J0.0069
G3 X0.6167 Y2.0371 I0.0517 J0.0185
G3 X0.6191 Y2.0332 I0.0459 J0.0254
G3 X0.6204 Y2.0314 I0.0526 J0.036
G1 Y2.0313
G1 X0.6207 Y2.0309
G1 X0.6208
G1 X0.6213 Y2.0303
G1 Y2.0302
G1 X0.6218 Y2.0296
G1 Y2.0295
G2 X0.6257 Y2.0242 I-0.0317 J-0.0269
G2 X0.6296 Y2.0153 I-0.0296 J-0.0181
G2 X0.6305 Y2.0105 I-0.0331 J-0.0091
G2 X0.6308 Y2.0056 I-0.0385 J-0.0049
G2 X0.6303 Y1.9991 I-0.0376 J-0.0001
G2 X0.6273 Y1.9899 I-0.0337 J0.0059
G1 X0.627 Y1.9893
G2 X0.6268 Y1.9889 I-0.0068 J0.0033
G1 X0.6267
G2 X0.6218 Y1.9817 I-0.0362 J0.0195
G3 X0.6171 Y1.9753 I0.0485 J-0.0412
G3 X0.6137 Y1.969 I0.0378 J-0.0247
G3 X0.6116 Y1.9629 I0.0307 J-0.0137
G3 X0.6113 Y1.9513 I0.0278 J-0.0064
G3 X0.6139 Y1.9433 I0.0323 J0.006
G3 X0.6169 Y1.938 I0.0393 J0.0183
G1 X0.6172 Y1.9376
G3 X0.6197 Y1.934 I0.0449 J0.0296
G3 X0.6238 Y1.9292 I0.056 J0.0435
G3 X0.6283 Y1.9247 I0.0685 J0.0634
G1 X0.6294 Y1.9236
G3 X0.6342 Y1.9194 I0.0715 J0.076
G3 X0.6364 Y1.9176 I0.0687 J0.0831
G3 X0.6409 Y1.9145 I0.0377 J0.0484
G1 Y1.9144
G3 X0.6452 Y1.912 I0.0233 J0.0365
G3 X0.6494 Y1.9104 I0.0136 J0.0281
G3 X0.6575 Y1.9092 I0.0076 J0.024
G3 X0.6634 Y1.91 I-0.0008 J0.0273
G3 X0.6675 Y1.9113 I-0.0089 J0.0349
G1 X0.6676
G3 X0.6732 Y1.914 I-0.0182 J0.0463
G3 X0.6758 Y1.9155 I-0.026 J0.0491
G1 X0.6764 Y1.9158
G3 X0.677 Y1.9162 I-0.0086 J0.0147
G1 X0.6784 Y1.917
G3 X0.6854 Y1.9222 I-0.0341 J0.0535
G3 X0.6883 Y1.9249 I-0.0364 J0.0425
G3 X0.6895 Y1.9261 I-0.0437 J0.0441
G1 X0.6896 Y1.9262
G3 X0.6941 Y1.9316 I-0.0366 J0.0347
G3 X0.6998 Y1.9429 I-0.0353 J0.0251
G3 X0.7017 Y1.9522 I-0.0384 J0.0129
G3 X0.7018 Y1.9593 I-0.042 J0.0039
G3 X0.7011 Y1.9645 I-0.0445 J-0.0033
G3 X0.699 Y1.9721 I-0.0503 J-0.0099
G3 X0.6959 Y1.9791 I-0.0551 J-0.0201
G1 X0.6958 Y1.9793
G1 X0.6954 Y1.9801
G2 X0.6942 Y1.9831 I0.033 J0.0152
G2 X0.6925 Y1.9891 I0.0461 J0.0161
G1 Y1.9892
G2 X0.6915 Y1.9947 I0.0747 J0.0159
G2 X0.6908 Y2.0047 I0.0905 J0.0119
G2 Y2.0085 I0.1197 J0.0021
G2 X0.6911 Y2.0151 I0.0859 J-0.0014
G2 X0.6927 Y2.0248 I0.0692 J-0.0061
G2 X0.694 Y2.0293 I0.0444 J-0.0105
G2 X0.6948 Y2.0314 I0.0291 J-0.0104
G2 X0.6958 Y2.0334 I0.0239 J-0.0108
G3 X0.6972 Y2.0359 I-0.0565 J0.0318
G1 Y2.036
G3 X0.7009 Y2.0464 I-0.0402 J0.0201
G3 X0.7012 Y2.063 I-0.042 J0.0091
G3 X0.6991 Y2.0709 I-0.0489 J-0.0086
G3 X0.6959 Y2.0783 I-0.0548 J-0.0196
G2 X0.6954 Y2.0793 I0.0256 J0.013
G2 X0.6946 Y2.0814 I0.0183 J0.0082
G1 X0.6944 Y2.082
G2 X0.6941 Y2.083 I0.0223 J0.0071
G1 X0.6938 Y2.0842
G0 Z0.125
G0 Y2.0841
G0 Z0.0423
G1 F10.0 Z-0.004
G1 F25.0 X0.6936 Y2.0852
G2 X0.6928 Y2.0896 I0.0673 J0.0144
G1 X0.6926 Y2.0907
G2 X0.6917 Y2.0993 I0.1466 J0.0195
G1 X0.6916 Y2.1012
G1 X0.6915 Y2.103
G2 X0.6911 Y2.1102 I0.4059 J0.0244
G1 Y2.1106
G1 X0.691 Y2.1137
G1 X0.6909 Y2.1152
G1 X0.6908 Y2.118
G1 X0.6907 Y2.1233
G1 X0.6906 Y2.128
G1 X0.6905 Y2.1321
G1 Y2.1393
G1 X0.6904 Y2.1447
G1 Y2.1527
G1 Y2.1608
G1 Y2.2298
G1 X0.7027
G1 X0.7031 Y2.2297
G1 X0.7032
G2 X0.7035 I0.0001 J-0.0067
G2 X0.7053 I-0.0024 J-0.1164
G2 X0.7116 Y2.229 I-0.0018 J-0.0451
G2 X0.7203 Y2.2261 I-0.0059 J-0.0319
G1 X0.7209 Y2.2258
G1 X0.7208
G1 X0.7219 Y2.2252
G2 X0.7235 Y2.2243 I-0.0147 J-0.026
G2 X0.7282 Y2.2208 I-0.0244 J-0.0378
G3 X0.734 Y2.2166 I0.0312 J0.0375
G3 X0.7436 Y2.212 I0.0267 J0.0435
G3 X0.7488 Y2.2106 I0.014 J0.0394
G3 X0.7516 Y2.2101 I0.0066 J0.031
G1 X0.7522 Y2.21
G3 X0.7535 Y2.2099 I0.0017 J0.0148
G1 X0.7544
G3 X0.7546 I0.0001 J0.004
G3 X0.7602 Y2.2105 I-0.0004 J0.0332
G3 X0.7625 Y2.2109 I-0.0065 J0.0387
G3 X0.7667 Y2.212 I-0.0145 J0.0637
G3 X0.7806 Y2.2177 I-0.0236 J0.0781
G3 X0.784 Y2.2196 I-0.0281 J0.0542
G1 X0.7841
G1 X0.7852 Y2.2203
G1 X0.7853 Y2.2204
G3 X0.7875 Y2.2219 I-0.0216 J0.0337
G1 X0.7879 Y2.2222
G3 X0.7894 Y2.2234 I-0.0173 J0.0227
G3 X0.7917 Y2.2258 I-0.0113 J0.0131
G3 X0.7927 Y2.2273 I-0.0081 J0.0063
G2 X0.7955 Y2.2276 I0.0077 J-0.0623
G1 X0.7964 Y2.2277
G1 X0.7963
G1 X0.798 Y2.2278
G1 X0.7996 Y2.2279
G1 X0.8028 Y2.2281
G1 X0.8059 Y2.2282
G1 X0.8074 Y2.2283
G1 X0.8089 Y2.2284
G1 X0.8104
G2 X0.8335 Y2.2291 I0.0542 J-1.4798
G1 X0.8422 Y2.2293
G1 X0.8498 Y2.2294
G1 X0.8531
G1 X0.8547 Y2.2295
G1 X0.8562
G1 X0.8569
G1 X0.8598
G1 X0.8625
G1 X0.8675 Y2.2296
G1 X0.8764 Y2.2297
G1 X0.8831
G1 X0.888
G1 X0.8899
G1 X0.8965
G1 X0.903 Y2.2298
G1 X0.932 Y2.2297
G1 X0.9334
G1 X0.9441
G1 X0.9535
G1 X0.9576
G1 X0.9653 Y2.2296
G1 X0.9662
G1 X0.967
G1 X0.9735 Y2.2295
G1 X0.9793 Y2.2294
G1 X0.9818
G1 X0.9865 Y2.2293
G1 X0.9907 Y2.2292
G1 X0.9906
G1 X0.9916 Y2.2291
G2 X0.9986 Y2.2288 I-0.0136 J-0.3874
G1 X0.9989
G1 X0.9992
G2 X1.0018 Y2.2286 I-0.0353 J-0.5551
G1 X1.004 Y2.2284
G2 X1.006 Y2.2282 I-0.0128 J-0.1377
G2 X1.0093 Y2.2278 I-0.0053 J-0.051
G2 X1.0116 Y2.2273 I-0.005 J-0.0294
G1 X1.0119 Y2.2272
G2 X1.0133 Y2.2268 I-0.0026 J-0.0097
G1 Y2.2267
G2 X1.0139 Y2.2264 I-0.0015 J-0.0035
G2 X1.0142 Y2.2261 I-0.0005 J-0.0008
G1 Y2.226
G2 X1.0144 Y2.2257 I-0.0017 J-0.0009
G1 X1.0145 Y2.2254
G3 Y2.2252 I0.0039 J0.0011
G3 X1.0146 Y2.225 I0.0039 J0.0009
G2 Y2.2249 I-0.0018 J-0.0005
G1 Y2.2248
G3 X1.0152 Y2.2231 I0.0205 J0.0052
G3 X1.0159 Y2.2213 I0.0135 J0.0048
G3 X1.0186 Y2.218 I0.009 J0.0046
G1 X1.0187
G3 X1.0217 Y2.2163 I0.0074 J0.0095
G3 X1.0244 Y2.2154 I0.0068 J0.017
G3 X1.0289 Y2.2147 I0.0083 J0.0356
G3 X1.0363 Y2.2142 I0.011 J0.102
G3 X1.0417 Y2.214 I0.0121 J0.3182
G1 X1.0422
G1 X1.0461 Y2.2139
G3 X1.0578 I0.0099 J0.9801
G1 X1.0951
G3 X1.0991 Y2.2179 I0.0 J0.004
G1 Y2.2576
G1 Y2.2972
G3 X1.0951 Y2.3012 I-0.004 J0.0
G1 X1.0578
G1 X1.0527
G1 X1.0516
G1 X1.0505
G3 X1.042 Y2.3011 I0.0014 J-0.5151
G1 X1.0416
G3 X1.0352 Y2.3009 I0.0053 J-0.2644
G1 X1.0351
G1 X1.0339 Y2.3008
G1 X1.0327
G1 X1.0316 Y2.3007
G3 X1.0305 Y2.3006 I0.0035 J-0.0479
G3 X1.0264 Y2.3001 I0.0039 J-0.0482
G3 X1.0231 Y2.2993 I0.0041 J-0.0256
G3 X1.0217 Y2.2988 I0.0038 J-0.0131
G3 X1.0192 Y2.2975 I0.0046 J-0.0117
G3 X1.016 Y2.2939 I0.0058 J-0.0083
G3 X1.0152 Y2.292 I0.0131 J-0.0068
G3 X1.0151 Y2.2919 I0.0038 J-0.0013
G1 X1.0149 Y2.2912
G3 Y2.2911 I0.0038 J-0.0012
G1 X1.0147 Y2.2904
G3 X1.0146 Y2.2902 I0.0039 J-0.0011
G2 X1.0142 Y2.2891 I-0.0059 J0.0014
G2 X1.014 Y2.2888 I-0.0009 J0.0005
G2 X1.0135 Y2.2885 I-0.0016 J0.0019
G1 X1.0134 Y2.2884
G2 X1.0123 Y2.288 I-0.0032 J0.0067
G0 Z0.125
G0 X1.0459 Y2.2003
G0 Z0.0423
G1 F10.0 Z-0.004
G2 F25.0 X1.0495 Y2.2014 I0.0111 J-0.029
G2 X1.0545 Y2.202 I0.0052 J-0.0207
G2 X1.066 Y2.2002 I0.0 J-0.0363
G2 X1.0763 Y2.195 I-0.0128 J-0.0381
G2 X1.0821 Y2.1901 I-0.0264 J-0.0376
G2 X1.0885 Y2.1824 I-0.0348 J-0.0355
G2 X1.0945 Y2.1707 I-0.0452 J-0.0305
G2 X1.0978 Y2.1536 I-0.0492 J-0.0183
G2 X1.0969 Y2.1435 I-0.0477 J-0.0009
G2 X1.0932 Y2.1325 I-0.0433 J0.0086
G3 X1.0909 Y2.127 I0.0402 J-0.0198
G3 X1.0892 Y2.1211 I0.0543 J-0.0184
G3 X1.0884 Y2.117 I0.0697 J-0.0157
G3 X1.0875 Y2.1004 I0.0789 J-0.0128
G3 X1.0888 Y2.0895 I0.0697 J0.0031
G3 X1.0895 Y2.0867 I0.0596 J0.0125
G3 X1.0916 Y2.0806 I0.0421 J0.0108
G1 X1.0919 Y2.0798
G3 X1.0926 Y2.0784 I0.0238 J0.0107
G2 X1.0957 Y2.0714 I-0.0512 J-0.027
G2 X1.0978 Y2.0641 I-0.0484 J-0.0179
G2 X1.0982 Y2.0486 I-0.0431 J-0.0089
G2 X1.0956 Y2.0387 I-0.0482 J0.0075
G1 Y2.0386
G1 X1.0951 Y2.0375
G2 X1.0926 Y2.0321 I-0.0541 J0.0218
G3 X1.0922 Y2.0311 I0.007 J-0.0037
G1 X1.0921 Y2.031
G3 X1.0917 Y2.0298 I0.0119 J-0.0046
G3 X1.0911 Y2.027 I0.0285 J-0.0083
G3 X1.0902 Y2.0208 I0.0751 J-0.0143
G1 X1.09 Y2.019
G3 X1.0895 Y2.0142 I0.1503 J-0.0155
G1 Y2.0141
G3 Y2.0136 I0.0138 J-0.0013
G1 Y2.0135
G1 X1.0894 Y2.0129
G1 X1.0893 Y2.0099
G3 X1.0891 Y2.0065 I0.2639 J-0.0168
G1 Y2.0064
G1 X1.089 Y2.0063
G3 X1.0889 Y2.0024 I0.2567 J-0.0145
G1 Y2.0023
G2 X1.0888 Y2.0021 I-0.004 J0.0001
G2 Y2.002 I-0.004 J0.0001
G2 Y2.0019 I-0.004 J0.0001
G2 Y2.0018 I-0.004 J0.0001
G1 Y2.0017
G1 Y2.0016
G1 X1.0886 Y1.997
G1 X1.0885 Y1.9945
G1 X1.0884 Y1.9889
G1 X1.0883 Y1.9859
G1 X1.0881 Y1.979
G1 X1.088 Y1.9753
G1 X1.0879 Y1.9669
G1 Y1.9648
G1 X1.0878 Y1.9625
G1 X1.0877 Y1.9523
G1 X1.0876 Y1.9406
G1 X1.0875 Y1.9376
G1 X1.0874 Y1.9239
G1 X1.0873 Y1.9081
G1 Y1.8997
G1 Y1.8908
G1 X1.0872 Y1.8812
G1 Y1.871
G1 Y1.8477
G1 Y1.8353
G1 Y1.822
G1 Y1.8079
G1 Y1.7928
G1 Y1.5631
G2 X1.0865 Y1.5609 I-0.004 J0.0
G1 X1.0776 Y1.5472
G1 X1.0687 Y1.5334
G2 X1.0653 Y1.5316 I-0.0034 J0.0022
G1 X1.0306 Y1.5315
G3 X1.0159 Y1.5313 I-0.0005 J-0.5436
G1 X1.0139
G3 X1.0115 Y1.5311 I0.0037 J-0.1077
G3 X1.0054 Y1.5307 I0.0041 J-0.0895
G1 X1.0046 Y1.5306
G1 X1.0044 Y1.5305
G1 X1.0045
G1 X1.0036 Y1.5304
G1 X1.0037
G1 X1.0033
G3 X1.0018 Y1.53 I0.0056 J-0.0307
G1 X1.0009 Y1.5298
G3 X0.9999 Y1.5294 I0.0017 J-0.0057
G2 X0.9992 Y1.5263 I-0.0077 J0.0001
G2 Y1.5262 I-0.0037 J0.0016
G2 X0.997 Y1.5235 I-0.0067 J0.0032
G1 X0.9969
G2 X0.9955 Y1.5226 I-0.0063 J0.0083
G1 X0.9954 Y1.5225
G2 X0.9936 Y1.5218 I-0.0063 J0.0126
G2 X0.9914 Y1.5212 I-0.0066 J0.0198
G2 X0.9888 Y1.5207 I-0.0091 J0.0429
G1 X0.9887
G2 X0.9854 Y1.5203 I-0.0092 J0.064
G1 X0.9846 Y1.5202
G1 X0.9845
G2 X0.98 Y1.5199 I-0.0124 J0.1574
G2 X0.9742 Y1.5197 I-0.01 J0.196
G1 X0.9709 Y1.5196
G1 X0.9691
G1 X0.9673
G1 X0.9672
G1 X0.963
G1 X0.9582
G1 X0.9205
G2 X0.9165 Y1.5236 I0.0 J0.004
G1 Y1.5632
G1 Y1.6029
G2 X0.9205 Y1.6069 I0.004 J0.0
G1 X0.9582
G1 X0.9642
G1 X0.9703
G1 X0.9743 Y1.6068
G2 X0.9767 I-0.0022 J-0.1673
G1 X0.9779 Y1.6067
G1 X0.9807 Y1.6066
G1 X0.9808
G1 X0.9823
G2 X0.9839 Y1.6065 I-0.0048 J-0.0969
G1 X0.9841
G2 X0.988 Y1.6061 I-0.0049 J-0.0746
G1 X0.9881
G1 X0.989 Y1.606
G1 X0.9891
G1 X0.9896 Y1.6059
G2 X0.9919 Y1.6054 I-0.0039 J-0.0255
G1 X0.992
G1 X0.9922 Y1.6053
G2 X0.9951 Y1.6042 I-0.0036 J-0.0138
G1 X0.9952
G2 X0.9968 Y1.6031 I-0.0045 J-0.0085
G2 X0.9985 Y1.6012 I-0.0052 J-0.0061
G1 Y1.6011
G2 X0.9994 Y1.5989 I-0.0075 J-0.0045
G1 X0.9995
G2 X0.9998 Y1.5967 I-0.0112 J-0.0029
G1 Y1.5959
G2 X0.9999 Y1.5958 I-0.004 J-0.0002
G1 Y1.595
G1 Y1.5944
G3 Y1.5939 I0.0487 J0.0021
G1 Y1.5936
G3 X1.0001 Y1.5927 I0.0042 J0.0004
G3 X1.0002 Y1.5925 I0.0011 J0.0003
G3 X1.0003 Y1.5924 I0.0004 J0.0002
G3 X1.0009 Y1.592 I0.0014 J0.0018
G3 X1.0029 Y1.5916 I0.0035 J0.0099
G3 X1.006 Y1.5912 I0.0054 J0.0354
G1 X1.0061
G3 X1.0079 Y1.5911 I0.0036 J0.0534
G1 X1.0089
G1 X1.01
G1 X1.0124 Y1.591
G1 X1.0137
G1 X1.0276
G1 Y1.8035
G1 Y2.0187
G1 X1.0185 Y2.0306
G2 X1.0104 Y2.0445 I0.0527 J0.0396
G2 X1.0086 Y2.0497 I0.0431 J0.0182
G2 X1.0079 Y2.0531 I0.0235 J0.0068
G2 X1.0077 Y2.0552 I0.0144 J0.0021
G2 X1.0079 Y2.0575 I0.0154 J-0.0001
G2 X1.0083 Y2.0595 I0.0269 J-0.0042
G2 X1.0094 Y2.0632 I0.0378 J-0.0094
G2 X1.0123 Y2.0699 I0.0551 J-0.0199
G1 X1.0124 Y2.0701
G2 X1.0148 Y2.0744 I0.0575 J-0.0292
G2 X1.0185 Y2.0798 I0.0511 J-0.0306
G3 X1.0225 Y2.0864 I-0.0315 J0.0238
G3 X1.0236 Y2.0888 I-0.0506 J0.0245
G1 X1.0237 Y2.0891
G3 X1.0268 Y2.0995 I-0.0496 J0.0204
G3 X1.0277 Y2.1067 I-0.0502 J0.0096
G3 Y2.1086 I-0.0756 J0.0027
G1 Y2.1096
G3 X1.0273 Y2.114 I-0.0347 J-0.0007
G3 X1.0262 Y2.1187 I-0.0242 J-0.0034
G3 X1.0252 Y2.1209 I-0.014 J-0.005
G3 X1.0246 Y2.1218 I-0.0093 J-0.005
G1 Y2.1219
G3 X1.023 Y2.1236 I-0.0069 J-0.0047
G2 X1.0197 Y2.1271 I0.0141 J0.0167
G2 X1.0172 Y2.1313 I0.0182 J0.014
G2 X1.016 Y2.1346 I0.0153 J0.0073
G2 X1.0157 Y2.137 I0.0107 J0.0026
G3 X1.0155 Y2.138 I-0.0035 J0.0
G3 X1.0153 Y2.1385 I-0.0019 J-0.0005
G2 X1.0128 Y2.1393 I0.0005 J0.0055
G2 X1.0123 Y2.1397 I0.0021 J0.0034
G1 X1.0117 Y2.1402
G2 X1.0113 Y2.1407 I0.0026 J0.003
G2 X1.0099 Y2.1429 I0.0076 J0.0064
G2 X1.0093 Y2.1441 I0.0133 J0.0064
G1 Y2.1442
G2 X1.0081 Y2.1489 I0.0229 J0.0081
G1 Y2.1494
G2 X1.0079 Y2.1508 I0.0278 J0.0039
G2 X1.0077 Y2.1544 I0.0414 J0.0037
G2 X1.0079 Y2.1571 I0.0205 J-0.0001
G1 X1.008 Y2.1574
G2 X1.0086 Y2.1603 I0.0241 J-0.0036
G2 X1.0104 Y2.1655 I0.0342 J-0.0094
G2 X1.012 Y2.1687 I0.0415 J-0.0184
G1 X1.0122 Y2.1691
G2 X1.0147 Y2.1732 I0.0522 J-0.0287
G2 X1.0184 Y2.1783 I0.0599 J-0.0395
G1 X1.0194 Y2.1796
G1 X1.0195
G2 X1.0255 Y2.1862 I0.0661 J-0.0546
G1 X1.0263 Y2.1869
G2 X1.0357 Y2.1947 I0.0537 J-0.0557
G2 X1.0385 Y2.1965 I0.0421 J-0.0614
G2 X1.0454 Y2.2001 I0.0242 J-0.0388
G2 X1.0459 Y2.2003 I0.0116 J-0.0288
G0 Z0.125
G0 X0.9644 Y2.082
G0 Z0.0423
G1 F10.0 Z-0.004
G2 F25.0 X0.9651 Y2.0815 I-0.0139 J-0.0201
G1 X0.9657 Y2.0811
G1 Y2.081
G2 X0.9705 Y2.0768 I-0.0301 J-0.0389
G2 X0.9784 Y2.0672 I-0.044 J-0.0439
G2 X0.9799 Y2.0648 I-0.049 J-0.0326
G1 X0.9803 Y2.0641
G1 Y2.064
G2 X0.9821 Y2.0607 I-0.0557 J-0.0325
G2 X0.985 Y2.0536 I-0.0399 J-0.02
G2 X0.9862 Y2.0486 I-0.0493 J-0.0148
G1 X0.9863 Y2.048
G2 X0.9868 Y2.0451 I-0.0762 J-0.0138
G1 Y2.0448
G1 Y2.0447
G2 X0.9876 Y2.037 I-0.1002 J-0.0133
G2 X0.9879 Y2.0269 I-0.2271 J-0.0128
G1 Y2.0256
G1 Y2.0243
G1 X0.988 Y2.0229
G1 Y2.02
G3 X0.9882 Y2.0096 I0.2529 J-0.0001
G1 Y2.0089
G3 X0.989 Y1.9979 I0.172 J0.0074
G1 Y1.9978
G3 X0.9901 Y1.9907 I0.1031 J0.0109
G3 X0.9909 Y1.9866 I0.0783 J0.014
G3 X0.9921 Y1.9823 I0.0434 J0.01
G3 X0.9929 Y1.9802 I0.0224 J0.0075
G1 X0.993
G3 X0.9934 Y1.9792 I0.0159 J0.0071
G2 X0.9977 Y1.9685 I-0.049 J-0.0258
G2 X0.9995 Y1.957 I-0.0468 J-0.0133
G2 X0.9991 Y1.9492 I-0.0444 J-0.0015
G2 X0.9963 Y1.939 I-0.042 J0.006
G2 X0.989 Y1.9272 I-0.0406 J0.0167
G2 X0.9834 Y1.9216 I-0.0356 J0.0304
G2 X0.9761 Y1.9165 I-0.0344 J0.0413
G1 X0.976 Y1.9164
G1 X0.9745 Y1.9156
G2 X0.9729 Y1.9147 I-0.0331 J0.0583
G1 X0.9725 Y1.9145
G1 Y1.9144
G1 X0.9713 Y1.9138
G1 X0.9712
G1 X0.9706 Y1.9135
G2 X0.9646 Y1.911 I-0.0234 J0.0468
G1 Y1.9109
G2 X0.9603 Y1.9097 I-0.012 J0.0344
G2 X0.954 Y1.9091 I-0.0058 J0.0265
G2 X0.9457 Y1.9107 I0.0006 J0.0255
G2 X0.9414 Y1.9127 I0.0112 J0.03
G2 X0.9371 Y1.9154 I0.0206 J0.0376
G2 X0.9349 Y1.917 I0.042 J0.0587
G2 X0.9304 Y1.9209 I0.0509 J0.0648
G2 X0.9256 Y1.9254 I0.0846 J0.0934
G1 X0.9244 Y1.9266
G1 X0.9243 Y1.9267
G1 X0.924 Y1.9271
G1 X0.9239
G1 X0.9234 Y1.9276
G1 Y1.9277
G1 X0.9231 Y1.928
G1 X0.9223 Y1.9288
G1 Y1.9289
G1 X0.9218 Y1.9293
G1 Y1.9294
G1 X0.9206 Y1.9307
G2 X0.916 Y1.9365 I0.0553 J0.049
G2 X0.9132 Y1.9408 I0.0433 J0.0309
G2 X0.9103 Y1.9472 I0.0312 J0.0181
G2 X0.9089 Y1.9569 I0.0257 J0.0088
G2 X0.9097 Y1.9625 I0.0282 J-0.0012
G2 X0.9117 Y1.9684 I0.0337 J-0.0084
G2 X0.915 Y1.9744 I0.0461 J-0.0209
G2 X0.9193 Y1.9806 I0.0664 J-0.0416
G3 X0.9206 Y1.9823 I-0.0684 J0.052
G3 X0.9218 Y1.9841 I-0.0486 J0.0349
G3 X0.9239 Y1.9876 I-0.0348 J0.0233
G3 X0.9268 Y1.995 I-0.0284 J0.0153
G3 X0.9277 Y2.0004 I-0.0427 J0.0107
G1 X0.9278
G3 X0.9281 Y2.0037 I-0.0772 J0.0094
G1 Y2.0045
G1 X0.9282 Y2.0063
G1 X0.9283 Y2.0083
G1 Y2.0082
G1 Y2.0087
G3 X0.9284 Y2.0133 I-0.2184 J0.005
G1 Y2.0314
G1 X0.859
G1 X0.7896
G1 Y2.012
G3 X0.7915 Y1.9914 I0.1179 J0.0006
G3 X0.793 Y1.9848 I0.0809 J0.0149
G1 X0.7933 Y1.9839
G3 X0.7945 Y1.9804 I0.032 J0.0092
G1 X0.7947 Y1.9799
G3 X0.7951 Y1.9791 I0.0158 J0.0072
G2 X0.7965 Y1.976 I-0.0475 J-0.0244
G1 X0.7966
G1 X0.797 Y1.975
G1 Y1.9749
G2 X0.7986 Y1.9707 I-0.0661 J-0.0267
G2 X0.8008 Y1.9619 I-0.0616 J-0.0206
G2 X0.8012 Y1.9593 I-0.0462 J-0.0083
G2 X0.8014 Y1.956 I-0.0278 J-0.0034
G2 X0.8013 Y1.9532 I-0.0269 J0.0001
G2 X0.8009 Y1.9507 I-0.0423 J0.0046
G2 X0.7998 Y1.9457 I-0.0539 J0.0091
G2 X0.7966 Y1.9363 I-0.0675 J0.0176
G2 X0.7954 Y1.9336 I-0.04 J0.0168
G1 Y1.9335
G1 X0.7951 Y1.9329
G3 X0.7935 Y1.929 I0.0223 J-0.0113
G3 X0.7923 Y1.9246 I0.0514 J-0.016
G3 X0.7908 Y1.9153 I0.092 J-0.0199
G3 X0.7902 Y1.909 I0.1382 J-0.0164
G1 X0.7901 Y1.9073
G1 X0.79 Y1.9054
G1 Y1.9055
G1 X0.7899 Y1.9035
G1 X0.7898 Y1.9014
G1 Y1.9015
G1 X0.7897 Y1.8992
G3 X0.7896 Y1.8942 I0.2552 J-0.0073
G1 Y1.8914
G1 Y1.8915
G1 Y1.8898
G1 Y1.8893
G1 Y1.8871
G2 X0.7895 Y1.8827 I-0.2875 J0.0007
G1 Y1.8798
G1 X0.7894 Y1.8781
G1 Y1.8779
G2 X0.7892 Y1.8733 I-0.1557 J0.0047
G1 X0.7891 Y1.8721
G1 Y1.872
G1 X0.789 Y1.8708
G1 Y1.8707
G1 X0.7889 Y1.8693
G2 X0.7885 Y1.8661 I-0.0772 J0.0074
G2 X0.7879 Y1.8623 I-0.0559 J0.0079
G2 X0.7842 Y1.8523 I-0.0362 J0.0074
G1 Y1.8522
G2 X0.7811 Y1.8472 I-0.0455 J0.0248
G2 X0.7802 Y1.846 I-0.0289 J0.0196
G1 X0.78 Y1.8457
G2 X0.7791 Y1.8445 I-0.0376 J0.027
G1 X0.7786 Y1.8439
G1 X0.7685 Y1.8306
G2 X0.7653 Y1.829 I-0.0032 J0.0024
G1 X0.5255
G1 X0.2897
G1 Y1.668
G1 Y1.6429
G1 Y1.6179
G1 Y1.6011
G3 Y1.5916 I2.5977 J0.002
G1 X0.2898 Y1.5807
G1 X0.2899 Y1.5682
G1 Y1.565
G1 Y1.5617
G1 Y1.5609
G3 X0.2901 Y1.5456 I2.3299 J0.0226
G1 X0.2902 Y1.5416
G1 X0.2903 Y1.5376
G3 X0.2905 Y1.5289 I0.6401 J0.0151
G1 X0.2906 Y1.5267
G3 X0.2912 Y1.5175 I0.2522 J0.0099
G3 X0.2916 Y1.5128 I0.1265 J0.0099
G1 Y1.5127
G3 X0.2918 Y1.5117 I0.0218 J0.0023
G1 Y1.5116
G3 X0.2921 Y1.5094 I0.0371 J0.0048
G1 Y1.5093
G3 X0.2926 Y1.5072 I0.0218 J0.0039
G3 X0.2932 Y1.5056 I0.0079 J0.0021
G1 X0.2934 Y1.5053
G3 X0.2937 Y1.5051 I0.0005 J0.0003
G3 X0.2945 Y1.5048 I0.0023 J0.0058
G1 X0.2946
G2 X0.2964 Y1.5042 I-0.0058 J-0.0222
G2 X0.2983 Y1.5034 I-0.0042 J-0.0121
G2 X0.302 Y1.5 I-0.0048 J-0.0089
G2 X0.3033 Y1.4974 I-0.0115 J-0.0073
G2 X0.3042 Y1.4942 I-0.0189 J-0.007
G1 X0.3043 Y1.4935
G1 Y1.4934
G2 X0.3049 Y1.4894 I-0.0492 J-0.0087
G1 Y1.489
G1 Y1.4889
G2 X0.3052 Y1.4838 I-0.117 J-0.0101
G1 X0.3053 Y1.4835
G1 Y1.4832
G1 Y1.4831
G1 X0.3054 Y1.4802
G2 X0.3055 Y1.4726 I-0.5225 J-0.0127
G1 Y1.4725
G1 Y1.4682
G1 Y1.4671
G1 Y1.4621
G1 Y1.4574
G1 Y1.4573
G1 Y1.4527
G2 Y1.4495 I-0.1938 J0.0003
G2 X0.3054 Y1.4453 I-0.3227 J0.0035
G1 Y1.4442
G1 Y1.4436
G1 X0.3053 Y1.4424
G2 X0.305 Y1.4357 I-0.1407 J0.0044
G1 X0.3049 Y1.4356
G1 Y1.4348
G1 Y1.4347
G1 X0.3048 Y1.4343
G1 X0.3047 Y1.4334
G2 X0.304 Y1.4289 I-0.0372 J0.0041
G2 X0.3039 Y1.4288 I-0.0039 J0.0009
G1 X0.3038 Y1.4283
G2 X0.3028 Y1.4256 I-0.0173 J0.0048
G2 X0.3007 Y1.4225 I-0.0102 J0.0047
G2 X0.3006 I-0.0029 J0.0028
G2 X0.2971 Y1.4202 I-0.0075 J0.0077
G2 X0.2954 Y1.4196 I-0.0065 J0.0156
G1 X0.2947 Y1.4194
G1 X0.2937 Y1.4191
G3 X0.2931 Y1.4188 I0.0021 J-0.006
G3 X0.2926 Y1.4184 I0.0007 J-0.0015
G3 X0.2922 Y1.4179 I0.002 J-0.0017
G3 X0.2917 Y1.4167 I0.006 J-0.0032
G3 X0.2912 Y1.4145 I0.0206 J-0.0062
G3 X0.2907 Y1.4113 I0.0397 J-0.0074
G3 X0.2904 Y1.4069 I0.1039 J-0.0112
G1 X0.2903 Y1.4066
G1 Y1.4063
G3 X0.29 Y1.4002 I0.2134 J-0.0129
G1 Y1.3998
G1 Y1.3981
G1 Y1.3982
G1 X0.2899 Y1.3964
G1 X0.2898 Y1.3923
G1 Y1.3924
G1 Y1.3913
G1 Y1.3866
G1 X0.2897 Y1.3812
G1 Y1.3783
G1 Y1.3717
G1 Y1.37
G1 Y1.3692
G1 Y1.3613
G1 Y1.3571
G1 Y1.3487
G1 Y1.3403
G1 Y1.3397
G1 Y1.3339
G3 X0.2898 Y1.3307 I0.2886 J0.0009
G1 Y1.3269
G1 Y1.3259
G3 X0.2901 Y1.3156 I0.5314 J0.007
G1 Y1.3142
G1 Y1.3135
G1 Y1.3136
G1 X0.2902 Y1.3121
G3 X0.2906 Y1.3058 I0.1902 J0.0079
G3 X0.2908 Y1.3025 I0.1261 J0.0094
G1 X0.2909 Y1.3017
G1 Y1.3016
G3 X0.2911 Y1.3 I0.0383 J0.0038
G3 X0.2917 Y1.2964 I0.0627 J0.0084
G1 Y1.2963
G1 X0.2918 Y1.2962
G1 Y1.2961
G3 X0.2922 Y1.2943 I0.0371 J0.0076
G3 X0.2953 Y1.287 I0.0238 J0.0058
G1 X0.2959 Y1.2861
G3 X0.2972 Y1.2842 I0.0506 J0.0343
G1 X0.2974 Y1.284
G2 X0.2997 Y1.2807 I-0.0482 J-0.036
G2 X0.3018 Y1.2771 I-0.0323 J-0.0212
G2 X0.3046 Y1.2687 I-0.025 J-0.0131
G2 X0.305 Y1.2629 I-0.0311 J-0.005
G2 X0.3048 Y1.2597 I-0.0454 J0.0008
G2 X0.3044 Y1.2562 I-0.0565 J0.0047
G1 X0.3042 Y1.2544
G1 X0.3041
G2 X0.3007 Y1.2423 I-0.0549 J0.0091
G2 X0.2989 Y1.2385 I-0.0415 J0.0171
G1 Y1.2384
G2 X0.2976 Y1.2363 I-0.0269 J0.0144
G2 X0.2957 Y1.2337 I-0.0159 J0.0102
G2 X0.2941 Y1.2323 I-0.0083 J0.0075
G3 X0.2939 Y1.2321 I0.0005 J-0.0007
G3 X0.2936 Y1.2317 I0.0029 J-0.0022
G3 X0.293 Y1.2301 I0.0078 J-0.0041
G3 X0.2926 Y1.2288 I0.0188 J-0.0059
G3 X0.2922 Y1.2268 I0.0476 J-0.0109
G3 X0.2918 Y1.2242 I0.0588 J-0.0104
G3 X0.2914 Y1.2205 I0.1011 J-0.0131
G3 X0.291 Y1.2155 I0.1387 J-0.0135
G3 X0.2907 Y1.2088 I0.2624 J-0.0176
G1 X0.2906 Y1.2079
G1 Y1.207
G1 Y1.2069
G2 Y1.2068 I-0.004 J0.0001
G1 Y1.2067
G1 Y1.2066
G2 Y1.2065 I-0.004 J0.0001
G2 Y1.2064 I-0.004 J0.0001
G2 X0.2905 Y1.2063 I-0.004 J0.0001
G2 Y1.2061 I-0.004 J0.0001
G2 Y1.206 I-0.004 J0.0001
G2 Y1.2059 I-0.004 J0.0001
G2 Y1.2058 I-0.004 J0.0001
G1 Y1.2057
G1 Y1.2056
G2 Y1.2054 I-0.004 J0.0001
G2 Y1.2053 I-0.004 J0.0001
G2 Y1.2052 I-0.004 J0.0001
G2 Y1.2051 I-0.004 J0.0001
G2 Y1.205 I-0.004 J0.0001
G2 Y1.2048 I-0.004 J0.0001
G2 Y1.2047 I-0.004 J0.0001
G1 Y1.2045
G2 Y1.2043 I-0.004 J0.0001
G2 Y1.2042 I-0.004 J0.0001
G2 Y1.2041 I-0.004 J0.0001
G2 Y1.204 I-0.004 J0.0001
G2 Y1.2039 I-0.004 J0.0001
G2 Y1.2037 I-0.004 J0.0001
G1 X0.2904 Y1.2035
G1 X0.2905 Y1.2036
G1 X0.2903 Y1.1989
G1 X0.2902 Y1.1937
G1 X0.2901 Y1.1877
G1 X0.29 Y1.1808
G1 X0.2899 Y1.1729
G1 X0.2898 Y1.164
G1 X0.2897 Y1.1537
G1 Y1.142
G1 Y1.1286
G1 Y1.1133
G1 Y1.0988
G1 Y1.0844
G1 Y1.0747
G1 Y1.0619
G1 X0.2898 Y1.0545
G1 Y1.0506
G1 X0.2899 Y1.0417
G3 X0.29 Y1.0315 I1.4305 J0.0166
G3 X0.2904 Y1.0198 I0.6838 J0.0124
G1 Y1.0191
G1 X0.2905 Y1.0161
G1 X0.2906 Y1.0146
G1 X0.2907 Y1.0114
G1 X0.2909 Y1.0098
G1 X0.2908 Y1.0099
G1 X0.291 Y1.0082
G3 X0.2913 Y1.0049 I0.1053 J0.0075
G1 Y1.0041
G3 X0.2918 Y1.0008 I0.0884 J0.0092
G3 X0.292 Y0.9991 I0.1698 J0.0258
G3 X0.2927 Y0.9957 I0.0449 J0.0076
G3 X0.2937 Y0.9926 I0.0238 J0.0059
G3 X0.2952 Y0.9896 I0.0174 J0.0069
G3 X0.2974 Y0.9865 I0.0347 J0.0215
G1 Y0.9864
G2 X0.3014 Y0.9792 I-0.0275 J-0.0202
G2 X0.3038 Y0.9714 I-0.038 J-0.0158
G2 X0.3043 Y0.9556 I-0.047 J-0.0093
G2 X0.3016 Y0.9453 I-0.0456 J0.0061
G2 X0.299 Y0.9397 I-0.0364 J0.0139
G2 X0.2947 Y0.9338 I-0.0304 J0.0176
G3 X0.2943 Y0.9332 I0.0021 J-0.0019
G3 X0.2938 Y0.9319 I0.0094 J-0.0045
G3 X0.293 Y0.9287 I0.024 J-0.0075
G1 X0.2929 Y0.9282
G3 X0.2925 Y0.9257 I0.0472 J-0.0084
G1 Y0.9256
G1 X0.2923 Y0.9241
G3 X0.292 Y0.9201 I0.1186 J-0.0135
G1 X0.2919 Y0.919
G1 X0.2918 Y0.9178
G3 X0.2916 Y0.9152 I0.1262 J-0.0096
G1 Y0.9145
G1 X0.2914 Y0.9114
G1 X0.2912 Y0.9078
G3 X0.2909 Y0.8982 I0.5531 J-0.0233
G1 Y0.897
G1 Y0.8957
G1 X0.2908 Y0.8944
G1 Y0.893
G1 Y0.8916
G1 X0.2907 Y0.8901
G1 Y0.8886
G1 Y0.8871
G1 X0.2906 Y0.8838
G1 Y0.8802
G1 X0.2905 Y0.8722
G1 X0.2904 Y0.863
G1 X0.2903 Y0.8524
G1 Y0.8404
G1 Y0.8266
G1 Y0.8231
G1 Y0.8194
G1 Y0.8156
G3 X0.2904 Y0.7753 I21.5081 J0.0247
G1 Y0.7522
G1 X0.2906 Y0.7259
G1 Y0.7118
G1 X0.2916 Y0.4977
G1 X0.3068 Y0.4967
G3 X0.3133 Y0.4965 I0.0069 J0.1055
G3 X0.3195 Y0.4969 I0.0003 J0.0497
G1 X0.3199
G1 X0.3198
G1 X0.3203 Y0.497
G3 X0.3243 Y0.4979 I-0.0039 J0.0272
G3 X0.3293 Y0.5 I-0.0071 J0.0233
G3 X0.332 Y0.5018 I-0.0164 J0.0283
G1 X0.3321
G3 X0.3327 Y0.5023 I-0.0094 J0.0134
G1 X0.3334 Y0.5029
G2 X0.341 Y0.5075 I0.0243 J-0.0311
G2 X0.3494 Y0.5104 I0.0181 J-0.0389
G2 X0.3669 Y0.5109 I0.01 J-0.0429
G2 X0.3781 Y0.5072 I-0.0068 J-0.0394
G2 X0.3839 Y0.5035 I-0.0158 J-0.0312
G3 X0.3875 Y0.5012 I0.0137 J0.0173
G3 X0.3915 Y0.4995 I0.0118 J0.0229
G3 X0.3944 Y0.4987 I0.0137 J0.0429
G3 X0.3985 Y0.4978 I0.0141 J0.0582
G1 X0.3986
G3 X0.3996 Y0.4977 I0.0048 J0.0255
G3 X0.4057 Y0.4969 I0.0175 J0.1114
G3 X0.4092 Y0.4965 I0.0185 J0.1749
G1 X0.4101
G3 X0.4198 Y0.4958 I0.0241 J0.296
G1 X0.4211
G1 X0.4224 Y0.4957
G1 X0.4252 Y0.4956
G1 X0.4266 Y0.4955
G1 X0.4281
G1 X0.4296 Y0.4954
G1 X0.4303
G1 X0.431 Y0.4953
G1 X0.4312
G1 X0.4328
G1 X0.436 Y0.4952
G1 X0.4361
G1 X0.4382 Y0.4951
G2 X0.4469 Y0.4946 I-0.0165 J-0.3994
G2 X0.4527 Y0.4942 I-0.0104 J-0.1711
G2 X0.4605 Y0.4931 I-0.0089 J-0.0997
G2 X0.4652 Y0.4921 I-0.0087 J-0.0516
G1 X0.4663 Y0.4918
G2 X0.4718 Y0.4897 I-0.0087 J-0.0304
G1 X0.4719
G2 X0.4747 Y0.488 I-0.0117 J-0.0227
G2 X0.4803 Y0.4823 I-0.0122 J-0.0174
G2 X0.4822 Y0.4787 I-0.0225 J-0.0147
G2 X0.4837 Y0.4747 I-0.03 J-0.0136
G2 X0.4849 Y0.4704 I-0.0431 J-0.0135
G2 X0.4857 Y0.466 I-0.0783 J-0.0167
G2 X0.4868 Y0.4562 I-0.1441 J-0.0215
G1 X0.487 Y0.4538
G1 Y0.4537
G1 X0.4872 Y0.4512
G1 Y0.451
G1 X0.4873 Y0.4497
G2 X0.4874 Y0.4471 I-0.5301 J-0.0339
G1 X0.4877 Y0.4415
G1 Y0.4414
G1 X0.488 Y0.4355
G1 X0.4898 Y0.3988
G1 X0.9076 Y0.3978
G1 X1.3251 Y0.3968
G1 Y0.4625
G1 Y0.4687
G1 Y0.4707
G1 Y0.479
G1 Y0.4845
G1 Y0.4877
G1 Y0.4885
G3 X1.325 Y0.4971 I-1.1382 J-0.0046
G1 Y0.4982
G1 Y0.4983
G3 Y0.5006 I-0.2143 J-0.0017
G1 Y0.5019
G3 X1.3249 Y0.5031 I-0.0357 J0.0
G1 Y0.5058
G1 X1.3248 Y0.5087
G1 Y0.5094
G1 X1.3247 Y0.5109
G1 X1.3246 Y0.5141
G1 Y0.5143
G1 Y0.5151
G3 X1.324 Y0.5225 I-0.1653 J-0.0082
G3 X1.3236 Y0.5262 I-0.0846 J-0.0085
G1 X1.3234 Y0.5272
G3 X1.3226 Y0.5311 I-0.0386 J-0.0063
G3 X1.3212 Y0.5349 I-0.0226 J-0.006
G3 X1.319 Y0.5387 I-0.0247 J-0.0116
G3 X1.3176 Y0.5407 I-0.0649 J-0.0444
G1 X1.3168 Y0.5417
G1 X1.3169
G1 X1.316 Y0.5428
G2 X1.3129 Y0.547 I0.0979 J0.0749
G1 Y0.5471
G2 X1.31 Y0.5517 I0.0554 J0.0386
G1 X1.3099
G2 X1.3082 Y0.555 I0.0372 J0.0214
G2 X1.3065 Y0.5601 I0.0243 J0.0113
G2 X1.3062 Y0.5616 I0.018 J0.0044
G2 X1.3064 Y0.5696 I0.0215 J0.0035
G2 X1.3076 Y0.5738 I0.0293 J-0.0063
G2 X1.3095 Y0.5782 I0.0423 J-0.016
G2 X1.312 Y0.5827 I0.0679 J-0.0344
G1 X1.3126 Y0.5838
G1 X1.3127
G1 X1.3133 Y0.5849
G1 X1.3134 Y0.585
G2 X1.3149 Y0.5873 I0.3254 J-0.206
G2 X1.3189 Y0.5928 I0.0511 J-0.033
G1 Y0.5929
G1 X1.3195 Y0.5936
G1 X1.3202 Y0.5944
G1 Y0.5945
G2 X1.3222 Y0.5966 I0.0563 J-0.05
G2 X1.3316 Y0.6042 I0.0363 J-0.035
G1 X1.3319 Y0.6044
G2 X1.3393 Y0.6081 I0.0233 J-0.0378
G2 X1.3502 Y0.6106 I0.0142 J-0.0369
G2 X1.3651 Y0.6089 I0.0032 J-0.0382
G2 X1.3729 Y0.6054 I-0.0121 J-0.0382
G2 X1.3807 Y0.5998 I-0.0227 J-0.0394
G2 X1.3825 Y0.5981 I-0.0311 J-0.0346
G1 Y0.598
G2 X1.3895 Y0.5894 I-0.0392 J-0.0391
G2 X1.3925 Y0.5848 I-0.15 J-0.099
G2 X1.3953 Y0.5799 I-0.0826 J-0.0506
G2 X1.397 Y0.5764 I-0.0532 J-0.0283
G2 X1.3989 Y0.5715 I-0.0362 J-0.0165
G2 X1.3996 Y0.5684 I-0.0276 J-0.0082
G2 X1.3995 Y0.5594 I-0.0219 J-0.0041
G2 X1.3979 Y0.5547 I-0.0253 J0.0058
G1 X1.3978 Y0.5546
G2 X1.3952 Y0.5499 I-0.0338 J0.0154
G2 X1.3918 Y0.545 I-0.0508 J0.0328
G3 X1.3898 Y0.5422 I0.0209 J-0.0165
G3 X1.3885 Y0.5393 I0.0149 J-0.0088
G3 X1.3878 Y0.5372 I0.0196 J-0.0073
G3 X1.3871 Y0.5341 I0.0365 J-0.0097
G1 X1.387 Y0.5332
G3 X1.3863 Y0.5285 I0.0725 J-0.012
G3 X1.3858 Y0.5221 I0.1732 J-0.0174
G3 X1.3856 Y0.5184 I0.9962 J-0.0569
G1 Y0.5179
G1 Y0.5174
G1 X1.3855 Y0.5169
G1 Y0.5164
G3 X1.3854 Y0.5143 I0.1551 J-0.0072
G3 X1.3853 Y0.5095 I0.2729 J-0.0112
G1 X1.3852 Y0.5069
G1 Y0.5041
G1 Y0.5038
G3 X1.3851 Y0.5009 I0.1885 J-0.0049
G1 X1.385 Y0.4941
G1 X1.3849 Y0.4863
G1 Y0.4854
G1 Y0.4812
G1 Y0.4767
G1 X1.3848 Y0.4665
G1 Y0.4548
G1 Y0.4518
G1 Y0.4424
G1 Y0.4392
G1 Y0.4266
G1 Y0.4265
G1 X1.3847 Y0.4249
G1 Y0.421
G1 Y0.4166
G1 Y0.4142
G1 Y0.4117
G1 X1.3846 Y0.406
G1 X1.3845 Y0.4029
G1 Y0.4022
G1 Y0.4021
G1 Y0.3988
G2 X1.3844 Y0.3971 I-0.1248 J0.0018
G1 Y0.3953
G2 X1.3841 Y0.3872 I-0.3996 J0.0087
G1 X1.384 Y0.3851
G2 X1.3834 Y0.3755 I-0.2041 J0.009
G1 Y0.3754
G2 X1.3827 Y0.3702 I-0.1061 J0.0103
G2 X1.3815 Y0.3644 I-0.0489 J0.0072
G2 X1.3811 Y0.3629 I-0.0278 J0.0076
G2 X1.3781 Y0.3566 I-0.0257 J0.0082
G2 X1.3761 Y0.3538 I-0.0297 J0.0189
G1 X1.3757 Y0.3532
G1 X1.3756
G1 X1.3674 Y0.3427
G2 X1.3643 Y0.3412 I-0.0031 J0.0025
G1 X0.9076
G1 X0.8529
G1 X0.8347
G1 X0.7618
G1 X0.7133 Y0.3413
G1 X0.6855
G1 X0.6837
G1 X0.6802
G1 X0.665
G1 X0.6304 Y0.3414
G1 X0.6119 Y0.3415
G1 X0.6072
G1 X0.5872 Y0.3416
G1 X0.5768 Y0.3417
G2 X0.5295 Y0.3421 I0.0398 J7.2905
G1 X0.5173 Y0.3423
G1 X0.5111 Y0.3424
G1 X0.5104
G1 X0.5072
G1 X0.5041 Y0.3425
G1 X0.4977 Y0.3426
G1 X0.4944 Y0.3427
G1 X0.4879 Y0.3429
G1 X0.4878
G1 X0.4812 Y0.3431
G1 X0.4778 Y0.3432
G1 X0.4744 Y0.3433
G2 X0.4603 Y0.3441 I0.0156 J0.3955
G2 X0.4531 Y0.3449 I0.0117 J0.1535
G1 X0.453
G1 X0.4521 Y0.345
G1 X0.4512 Y0.3451
G1 X0.4503 Y0.3453
G2 X0.4483 Y0.3456 I0.0073 J0.0444
G2 X0.4473 Y0.3459 I0.0043 J0.0215
G1 X0.4464 Y0.3461
G1 X0.4463
G2 X0.4442 Y0.3468 I0.0052 J0.019
G2 X0.4441 Y0.3469 I0.0015 J0.0037
G1 X0.4436 Y0.3471
G2 X0.441 Y0.3487 I0.0042 J0.0093
G2 X0.4377 Y0.3525 I0.0131 J0.0149
G2 X0.4355 Y0.357 I0.0171 J0.0113
G2 X0.4346 Y0.3599 I0.0299 J0.0106
G2 X0.4343 Y0.3616 I0.0407 J0.01
G2 X0.4339 Y0.3634 I0.0374 J0.0077
G2 X0.4333 Y0.3683 I0.0741 J0.0117
G2 X0.4329 Y0.3745 I0.1309 J0.0124
G1 X0.4328 Y0.3761
G1 Y0.3762
G1 X0.4327 Y0.3779
G1 Y0.3798
G1 X0.4326 Y0.3817
G1 Y0.3818
G1 Y0.3839
G2 X0.4324 Y0.395 I0.8219 J0.0146
G1 Y0.4013
G1 Y0.4404
G1 X0.4162
G3 X0.4119 Y0.4403 I-0.0006 J-0.106
G3 X0.4077 Y0.4401 I0.0028 J-0.0899
G3 X0.4066 Y0.44 I0.0014 J-0.021
G3 X0.4035 Y0.4396 I0.0054 J-0.0534
G1 X0.4027 Y0.4394
G1 X0.4028
G1 X0.4018 Y0.4393
G3 X0.3976 Y0.4381 I0.006 J-0.0294
G3 X0.3922 Y0.4354 I0.0098 J-0.0267
G1 X0.3915 Y0.435
G1 X0.3916
G1 X0.3912 Y0.4348
G3 X0.3882 Y0.4326 I0.0238 J-0.0359
G1 X0.3874 Y0.4319
G1 Y0.432
G1 X0.3866 Y0.4313
G1 X0.3862 Y0.431
G2 X0.3821 Y0.4277 I-0.0564 J0.0666
G2 X0.3776 Y0.4247 I-0.0265 J0.0352
G1 X0.3775
G2 X0.3761 Y0.4239 I-0.0167 J0.0299
G1 X0.376
G1 X0.3753 Y0.4236
G2 X0.3707 Y0.4219 I-0.0104 J0.0222
G2 X0.3644 Y0.4212 I-0.0066 J0.0276
G1 X0.3637
G2 X0.3602 Y0.4213 I0.0002 J0.0491
G2 X0.3563 Y0.4217 I0.0056 J0.0738
G1 X0.3554 Y0.4218
G1 X0.3553
G2 X0.3482 Y0.4234 I0.0069 J0.049
G2 X0.3415 Y0.4257 I0.0184 J0.0632
G2 X0.3396 Y0.4265 I0.0207 J0.0504
G1 X0.3386 Y0.427
G2 X0.3334 Y0.4298 I0.0221 J0.0469
G1 X0.3328 Y0.4302
G1 X0.3327
G2 X0.3314 Y0.4312 I0.0258 J0.0388
G1 X0.3313
G2 X0.3299 Y0.4323 I0.0198 J0.0269
G2 X0.3291 Y0.433 I0.0134 J0.0161
G1 X0.3289 Y0.4332
G3 X0.321 Y0.4383 I-0.0176 J-0.0187
G3 X0.3117 Y0.4402 I-0.0101 J-0.0252
G3 X0.3052 Y0.4398 I-0.001 J-0.0317
G3 X0.2969 Y0.4372 I0.0064 J-0.0354
G3 X0.287 Y0.431 I0.0171 J-0.0381
G2 X0.284 Y0.4285 I-0.0675 J0.0801
G1 X0.2836 Y0.4282
G2 X0.2798 Y0.4256 I-0.032 J0.0418
G2 X0.277 Y0.424 I-0.0184 J0.0292
G2 X0.2728 Y0.4223 I-0.0114 J0.0223
G2 X0.267 Y0.4212 I-0.0075 J0.0251
G2 X0.2638 I-0.0026 J0.0403
G1 X0.2637
G1 X0.2634
G1 X0.2633
G1 X0.2626
G1 X0.2625
G2 X0.2588 Y0.4215 I0.0028 J0.0606
G1 X0.2579 Y0.4216
G1 X0.256 Y0.4218
G1 X0.2559
G2 X0.2503 Y0.4229 I0.0073 J0.0536
G2 X0.2448 Y0.4247 I0.0122 J0.0485
G2 X0.2345 Y0.43 I0.0169 J0.0447
G2 X0.2194 Y0.4475 I0.0264 J0.0382
G2 X0.215 Y0.4624 I0.0391 J0.0195
G2 X0.2183 Y0.4831 I0.0404 J0.0043
G2 X0.2247 Y0.4933 I0.0389 J-0.0173
G1 X0.2341 Y0.5045
G1 Y0.7172
G1 Y0.7521
G1 X0.234 Y0.787
G1 Y0.8103
G1 Y0.8165
G1 Y0.8231
G1 X0.2339 Y0.8383
G3 X0.2336 Y0.8786 I-4.1251 J-0.0131
G1 Y0.8811
G1 X0.2335 Y0.8837
G1 X0.2334 Y0.8891
G1 X0.2333 Y0.8946
G3 X0.2331 Y0.9003 I-0.452 J-0.0097
G3 X0.2326 Y0.9124 I-0.4989 J-0.0148
G1 Y0.9132
G1 X0.2324 Y0.9163
G1 Y0.9162
G1 X0.2323 Y0.9178
G1 X0.2321 Y0.9193
G1 X0.2322
G1 X0.232 Y0.9209
G1 Y0.9208
G1 Y0.9212
G1 X0.2319 Y0.922
G3 X0.2315 Y0.9251 I-0.1135 J-0.013
G3 X0.2312 Y0.9266 I-0.044 J-0.0065
G1 X0.2311 Y0.9274
G3 X0.2304 Y0.9301 I-0.0221 J-0.0042
G3 X0.2299 Y0.9312 I-0.0076 J-0.0024
G1 Y0.9313
G3 X0.2288 Y0.9327 I-0.0036 J-0.0017
G3 X0.2277 Y0.9335 I-0.0094 J-0.0117
G2 X0.2251 Y0.9356 I0.0095 J0.0144
G2 X0.223 Y0.9379 I0.0166 J0.017
G1 Y0.938
G1 X0.2225 Y0.9386
G2 X0.2192 Y0.9444 I0.0258 J0.0184
G2 X0.2185 Y0.9462 I0.0269 J0.0121
G1 X0.2183 Y0.9466
G2 X0.2168 Y0.9514 I0.0434 J0.0161
G2 X0.2156 Y0.9578 I0.0557 J0.014
G1 Y0.9579
G1 X0.2154 Y0.9595
G1 X0.2153 Y0.9601
G1 X0.2152 Y0.9608
G1 Y0.9613
G1 X0.2151 Y0.9624
G2 X0.2149 Y0.9673 I0.0479 J0.0044
G2 X0.2151 Y0.9706 I0.0366 J-0.0006
G2 X0.216 Y0.9752 I0.0258 J-0.003
G1 Y0.9753
G2 X0.2185 Y0.9809 I0.0261 J-0.0082
G1 X0.2189 Y0.9815
G1 Y0.9816
G2 X0.2208 Y0.9844 I0.0352 J-0.0214
G1 X0.2213 Y0.9851
G1 X0.2218 Y0.9858
G1 X0.2219
G2 X0.2243 Y0.9889 I0.0795 J-0.0613
G1 X0.2247 Y0.9893
G1 X0.2341 Y1.0005
G1 Y1.1142
G1 Y1.1164
G1 Y1.1185
G1 Y1.1227
G1 Y1.1312
G1 X0.234 Y1.1481
G1 Y1.1594
G1 Y1.1598
G1 Y1.1663
G1 X0.2339 Y1.1737
G1 Y1.1822
G1 Y1.1827
G1 X0.2338 Y1.1872
G3 X0.2336 Y1.1976 I-0.9879 J-0.0122
G1 Y1.1977
G3 X0.2335 Y1.2032 I-0.4213 J-0.0086
G3 X0.2329 Y1.2157 I-0.2901 J-0.008
G1 X0.2328 Y1.2165
G3 X0.2325 Y1.2197 I-0.1214 J-0.0097
G3 X0.2321 Y1.2229 I-0.0885 J-0.0098
G3 X0.2318 Y1.2244 I-0.0439 J-0.0067
G1 X0.2317 Y1.2249
G3 X0.231 Y1.2278 I-0.0225 J-0.0044
G3 X0.2304 Y1.229 I-0.0095 J-0.0034
G3 X0.229 Y1.2309 I-0.0054 J-0.0027
G3 X0.2277 Y1.2318 I-0.0089 J-0.0102
G1 Y1.2319
G1 X0.2275 Y1.232
G2 X0.2239 Y1.2353 I0.0118 J0.0164
G1 X0.2235 Y1.2358
G2 X0.2206 Y1.2401 I0.023 J0.0186
G2 X0.2199 Y1.2413 I0.0353 J0.0197
G2 X0.2184 Y1.2448 I0.0331 J0.0169
G1 X0.2182 Y1.2452
G1 Y1.2453
G1 X0.218 Y1.2457
G1 X0.2179 Y1.2462
G1 X0.2178
G2 X0.2163 Y1.2514 I0.0441 J0.0156
G2 X0.2157 Y1.2544 I0.059 J0.0132
G2 X0.2155 Y1.256 I0.0493 J0.0082
G1 X0.2153 Y1.2576
G1 Y1.2577
G2 X0.2151 Y1.2593 I0.0964 J0.0112
G2 X0.215 Y1.2604 I0.0462 J0.0047
G2 X0.2148 Y1.2651 I0.0442 J0.0039
G1 X0.2149 Y1.2657
G2 X0.2152 Y1.2692 I0.0281 J-0.0009
G2 X0.2164 Y1.2739 I0.0257 J-0.0041
G2 X0.2192 Y1.2795 I0.0278 J-0.0103
G2 X0.22 Y1.2808 I0.0516 J-0.0325
G1 X0.2202 Y1.2811
G1 Y1.2812
G1 X0.2207 Y1.2818
G2 X0.2217 Y1.2832 I0.0574 J-0.041
G1 X0.2222 Y1.2839
G1 X0.2223
G2 X0.2234 Y1.2854 I0.0533 J-0.0411
G1 X0.2246 Y1.2868
G1 X0.2247 Y1.2869
G1 X0.2252 Y1.2875
G1 X0.2257 Y1.2881
G1 X0.2267 Y1.2893
G1 X0.2274 Y1.2902
G3 X0.2296 Y1.2933 I-0.0236 J0.0187
G3 X0.2301 Y1.2942 I-0.0161 J0.0096
G3 X0.2312 Y1.2968 I-0.0191 J0.0099
G3 X0.2322 Y1.3005 I-0.0265 J0.0093
G1 Y1.3006
G3 X0.2326 Y1.3028 I-0.0331 J0.0071
G3 X0.2333 Y1.3093 I-0.084 J0.0123
G3 X0.2335 Y1.313 I-0.1614 J0.0118
G1 X0.2336 Y1.314
G1 Y1.315
G1 X0.2337 Y1.3172
G3 X0.2339 Y1.3221 I-0.3375 J0.0116
G1 Y1.3248
G3 X0.234 Y1.3308 I-0.6314 J0.011
G1 Y1.334
G1 Y1.3374
G1 Y1.3452
G1 X0.2341 Y1.3541
G1 Y1.3589
G1 X0.234 Y1.3687
G1 Y1.3786
G1 Y1.3852
G3 X0.2339 Y1.3939 I-0.8644 J-0.0071
G1 Y1.394
G3 X0.2335 Y1.4055 I-0.3267 J-0.0053
G3 X0.2329 Y1.412 I-0.1033 J-0.0055
G3 X0.2327 Y1.4135 I-0.0265 J-0.0029
G3 X0.232 Y1.4166 I-0.023 J-0.0034
G3 X0.2316 Y1.4178 I-0.0068 J-0.002
G3 X0.2311 Y1.4185 I-0.0027 J-0.0013
G3 X0.2306 Y1.4188 I-0.0012 J-0.0012
G3 X0.23 Y1.4191 I-0.0024 J-0.0051
G3 X0.2291 Y1.4193 I-0.0048 J-0.0147
G2 X0.2274 Y1.4199 I0.0058 J0.0222
G2 X0.2254 Y1.4208 I0.0042 J0.0121
G2 X0.2217 Y1.4241 I0.0048 J0.0089
G1 Y1.4242
G2 X0.2204 Y1.4267 I0.0115 J0.0073
G2 X0.2195 Y1.4299 I0.0189 J0.007
G1 X0.2194 Y1.4306
G1 Y1.4307
G2 X0.2189 Y1.4347 I0.0492 J0.0087
G1 X0.2188 Y1.4352
G2 X0.2185 Y1.4403 I0.117 J0.0101
G1 Y1.4406
G1 Y1.441
G1 X0.2184 Y1.4439
G2 X0.2182 Y1.4516 I0.5225 J0.0127
G1 Y1.4559
G1 Y1.457
G1 Y1.4621
G1 Y1.4667
G1 Y1.4668
G1 Y1.4714
G2 Y1.4746 I0.1938 J-0.0003
G2 X0.2183 Y1.4788 I0.3227 J-0.0035
G1 Y1.4799
G1 X0.2184 Y1.4805
G1 Y1.4817
G2 X0.2188 Y1.4885 I0.1407 J-0.0044
G1 X0.2189 Y1.4893
G1 Y1.4894
G1 Y1.4898
G1 X0.219 Y1.4907
G2 X0.2198 Y1.4952 I0.0372 J-0.0041
G2 Y1.4953 I0.0039 J-0.0009
G1 X0.2199 Y1.4958
G2 X0.2209 Y1.4985 I0.0173 J-0.0048
G2 X0.223 Y1.5016 I0.0102 J-0.0047
G2 X0.2231 I0.0029 J-0.0028
G2 X0.2266 Y1.5039 I0.0075 J-0.0077
G2 X0.2283 Y1.5045 I0.0065 J-0.0156
G1 X0.2284 Y1.5046
G1 X0.229 Y1.5048
G2 X0.2292 I0.0011 J-0.0039
G3 X0.2293 Y1.505 I-0.0028 J0.0014
G1 X0.2295 Y1.5054
G3 X0.2298 Y1.5064 I-0.0145 J0.0049
G1 X0.23 Y1.5072
G3 X0.2303 Y1.5091 I-0.0439 J0.0091
G1 X0.2305 Y1.5104
G3 X0.2309 Y1.5135 I-0.0724 J0.0102
G1 X0.2311 Y1.5154
G3 X0.2314 Y1.5203 I-0.1853 J0.0166
G1 X0.2316 Y1.5232
G1 X0.2317 Y1.5247
G3 X0.2321 Y1.5328 I-0.5671 J0.0298
G3 Y1.5349 I-0.1357 J0.0061
G1 X0.2322 Y1.5372
G3 X0.2324 Y1.5425 I-0.4649 J0.0171
G1 X0.2325 Y1.5453
G1 Y1.5483
G1 Y1.5482
G1 X0.2327 Y1.5551
G1 Y1.5559
G1 Y1.5568
G1 Y1.5577
G1 X0.2328 Y1.5586
G3 X0.2329 Y1.5669 I-1.385 J0.0288
G1 Y1.568
G1 X0.233 Y1.5725
G3 X0.2333 Y1.5964 I-4.26 J0.063
G1 Y1.6028
G1 X0.2335 Y1.6174
G1 X0.2336 Y1.6341
G1 X0.2337 Y1.6532
G1 Y1.6581
G1 Y1.6632
G1 X0.2338 Y1.6864
G1 Y1.6988
G1 X0.2339 Y1.7271
G1 Y1.7422
G1 Y1.75
G1 X0.234 Y1.7856
G1 Y1.7948
G1 Y1.8043
G1 Y1.8141
G1 Y1.8242
G1 Y1.8293
G1 Y1.8762
G1 Y1.9299
G1 Y1.9367
G1 X0.2341 Y2.082
G1 Y2.661
G2 X0.2354 Y2.664 I0.004 J0.0
G1 X0.2437 Y2.6715
G2 X0.2506 Y2.6758 I0.0139 J-0.0148
G1 X0.2515 Y2.6761
G1 X0.2516
G2 X0.2543 Y2.6769 I0.0106 J-0.0327
G2 X0.2579 Y2.6776 I0.0119 J-0.0501
G2 X0.2599 Y2.6779 I0.0085 J-0.0484
G1 X0.2609 Y2.678
G1 X0.262 Y2.6782
G1 X0.2632 Y2.6783
G2 X0.2694 Y2.6789 I0.0216 J-0.2051
G1 X0.2698
G1 X0.2702
G1 X0.2706 Y2.679
G1 X0.271
G1 X0.2714
G1 X0.2718 Y2.6791
G1 X0.2719
G2 X0.2757 Y2.6793 I0.0332 J-0.5274
G2 X0.2778 Y2.6794 I0.0057 J-0.0897
G1 X0.2799 Y2.6795
G1 X0.28
G1 X0.2849 Y2.6797
G1 X0.2876 Y2.6798
G1 X0.2936 Y2.68
G1 X0.2968 Y2.6801
G1 X0.3042 Y2.6802
G1 X0.3061 Y2.6803
G1 X0.3147 Y2.6804
G1 X0.3193 Y2.6805
G2 X0.3439 Y2.6808 I0.0827 J-5.6417
G1 X0.3579 Y2.6809
G1 X0.3739 Y2.6811
G1 X0.3922 Y2.6812
G1 X0.4066 Y2.6813
G1 X0.421 Y2.6815
G1 X0.4306 Y2.6816
G1 X0.4434 Y2.6817
G1 X0.445
G3 X0.4626 Y2.682 I-0.0359 J3.1748
G1 X0.4727 Y2.6822
G1 X0.478 Y2.6823
G3 X0.4903 Y2.6826 I-0.0544 J2.3799
G3 X0.5042 Y2.6831 I-0.0264 J0.895
G1 X0.5078 Y2.6833
G3 X0.5154 Y2.6838 I-0.0165 J0.3065
G1 X0.5173 Y2.6839
G1 X0.5174 Y2.684
G3 X0.5182 I-0.002 J0.0265
G1 X0.5202 Y2.6842
G1 X0.5207 Y2.6843
G3 X0.5246 Y2.6848 I-0.009 J0.0804
G3 X0.5284 Y2.6856 I-0.0056 J0.0355
G1 X0.5288 Y2.6858
G3 X0.5303 Y2.6863 I-0.0033 J0.0108
G1 X0.5307 Y2.6865
G3 X0.5312 Y2.687 I-0.0008 J0.0014
G2 X0.5332 Y2.689 I0.0098 J-0.0076
G2 X0.5352 Y2.6904 I0.0121 J-0.0149
G2 X0.5392 Y2.6925 I0.0168 J-0.0268
G2 X0.5418 Y2.6936 I0.0222 J-0.0496
G1 X0.5425 Y2.6939
G2 X0.554 Y2.6968 I0.0192 J-0.0528
G2 X0.569 Y2.696 I0.0055 J-0.0397
G2 X0.5826 Y2.6897 I-0.0096 J-0.0386
G2 X0.59 Y2.683 I-0.025 J-0.0349
G2 X0.5971 Y2.6721 I-0.036 J-0.0313
G2 X0.5998 Y2.6652 I-0.047 J-0.0222
G2 X0.6017 Y2.657 I-0.054 J-0.0167
G1 X0.6018 Y2.656
G2 X0.602 Y2.6546 I-0.1493 J-0.0203
G1 X0.6022 Y2.6533
G1 X0.6023 Y2.6524
G2 X0.6026 Y2.6486 I-0.0645 J-0.0076
G1 X0.6027 Y2.6476
G1 Y2.6475
G2 Y2.6445 I-0.0382 J-0.0014
G2 X0.6021 Y2.6402 I-0.0227 J0.0009
G2 X0.5999 Y2.6347 I-0.02 J0.0048
G2 X0.5981 Y2.632 I-0.0227 J0.0127
G2 X0.5972 Y2.6307 I-0.039 J0.0285
G2 X0.5949 Y2.628 I-0.0442 J0.035
G2 X0.5947 Y2.6278 I-0.0035 J0.0029
G1 X0.5934 Y2.6264
G1 X0.5921 Y2.625
G2 X0.589 Y2.6218 I-0.1597 J0.1541
G2 X0.5831 Y2.6166 I-0.0511 J0.051
G2 X0.5765 Y2.612 I-0.0351 J0.0437
G2 X0.5716 Y2.6095 I-0.0233 J0.0398
G2 X0.5687 Y2.6084 I-0.0149 J0.034
G2 X0.5604 Y2.6065 I-0.0118 J0.0339
G2 X0.5489 Y2.6074 I-0.0033 J0.0344
G2 X0.5427 Y2.6094 I0.0091 J0.0377
G2 X0.5363 Y2.6128 I0.0175 J0.0412
G2 X0.5297 Y2.6176 I0.0308 J0.0488
G1 X0.519 Y2.6266
G1 X0.4041 Y2.6256
G1 X0.2916 Y2.6246
G1 Y2.5551
G1 Y2.4857
G1 X0.3584 Y2.4846
G1 X0.3729 Y2.4844
G3 X0.3874 Y2.4843 I0.0434 J3.4315
G1 X0.3915
G1 X0.3926
G3 X0.3948 Y2.4842 I0.0014 J0.1469
G1 X0.4 Y2.4843
G1 X0.4028
G1 X0.4057
G3 X0.4124 Y2.4845 I-0.0048 J0.311
G3 X0.42 Y2.485 I-0.0058 J0.1576
G3 X0.4238 Y2.4854 I-0.0057 J0.0671
G1 X0.4239
G3 X0.4278 Y2.4862 I-0.0057 J0.0406
G3 X0.4316 Y2.4874 I-0.0049 J0.0206
G3 X0.4352 Y2.4896 I-0.0087 J0.0189
G1 X0.4363 Y2.4904
G1 X0.4362 Y2.4903
G1 X0.4367 Y2.4907
G2 X0.4421 Y2.4943 I0.0246 J-0.0311
G2 X0.448 Y2.497 I0.0181 J-0.0324
G2 X0.4608 Y2.499 I0.012 J-0.0344
G2 X0.4694 Y2.4978 I-0.0009 J-0.0381
G2 X0.4799 Y2.4934 I-0.0102 J-0.0394
G2 X0.4913 Y2.4838 I-0.0228 J-0.0385
G2 X0.4962 Y2.4768 I-0.0365 J-0.0309
G2 X0.5002 Y2.4681 I-0.044 J-0.0254
G2 X0.5026 Y2.4576 I-0.0512 J-0.0177
G2 X0.5028 Y2.4562 I-0.1493 J-0.0203
G1 X0.503 Y2.4549
G1 X0.5031 Y2.454
G2 X0.5034 Y2.4503 I-0.0645 J-0.0076
G1 Y2.4502
G1 X0.5035 Y2.4492
G2 Y2.4462 I-0.0382 J-0.0014
G2 X0.5029 Y2.4419 I-0.0227 J0.0009
G1 Y2.4418
G2 X0.5007 Y2.4363 I-0.02 J0.0048
G2 X0.4989 Y2.4336 I-0.0227 J0.0127
G2 X0.498 Y2.4324 I-0.039 J0.0285
G1 Y2.4323
G2 X0.4957 Y2.4297 I-0.0442 J0.035
G2 X0.4955 Y2.4294 I-0.0035 J0.0029
G1 X0.4943 Y2.4281
G1 X0.4942 Y2.428
G1 X0.4929 Y2.4266
G2 X0.4898 Y2.4235 I-0.1597 J0.1541
G2 X0.485 Y2.4191 I-0.052 J0.0519
G2 X0.4832 Y2.4177 I-0.0408 J0.0489
G2 X0.4758 Y2.4128 I-0.033 J0.042
G2 X0.4703 Y2.4103 I-0.0202 J0.0371
G2 X0.4623 Y2.4083 I-0.0129 J0.0345
G2 X0.4513 Y2.4086 I-0.0045 J0.0339
G1 X0.4512
G2 X0.4452 Y2.4104 I0.0073 J0.0373
G2 X0.4388 Y2.4134 I0.0153 J0.0407
G1 X0.4386 Y2.4135
G2 X0.4321 Y2.418 I0.027 J0.0466
G2 X0.4305 Y2.4193 I0.0317 J0.0405
G1 X0.4292 Y2.4203
G3 X0.428 Y2.4213 I-0.0273 J-0.0322
G3 X0.4256 Y2.4231 I-0.0241 J-0.0295
G3 X0.4207 Y2.4256 I-0.0105 J-0.0151
G3 X0.4169 Y2.4265 I-0.0083 J-0.0259
G1 X0.4164 Y2.4266
G3 X0.4107 Y2.4272 I-0.0104 J-0.0662
G3 X0.4028 Y2.4276 I-0.0116 J-0.1652
G3 X0.3982 Y2.4277 I-0.0076 J-0.3003
G1 X0.3976
G1 X0.397
G1 X0.3971
G1 X0.3945
G1 X0.3919
G1 X0.3912
G1 X0.385
G1 X0.3779 Y2.4276
G1 X0.3698 Y2.4275
G1 X0.3693
G1 X0.36 Y2.4273
G1 X0.3595
G1 X0.3545 Y2.4272
G1 X0.2916 Y2.4262
G1 X0.2906 Y2.1574
G1 X0.2896 Y1.8886
G1 X0.5098
G1 X0.73
G1 Y1.9029
G3 X0.7298 Y1.9095 I-0.0757 J0.0004
G3 X0.7288 Y1.9157 I-0.0429 J-0.0033
G3 X0.7276 Y1.9197 I-0.03 J-0.0069
G3 X0.7267 Y1.9218 I-0.029 J-0.011
G3 X0.7235 Y1.9272 I-0.0307 J-0.0146
G3 X0.7212 Y1.9302 I-0.0413 J-0.0298
G1 X0.7211
G2 Y1.9303 I0.003 J0.0026
G2 X0.721 Y1.9304 I0.003 J0.0026
G1 X0.7205 Y1.931
G1 X0.7204 Y1.9311
G1 X0.72 Y1.9317
G1 X0.7199
G1 X0.7196 Y1.9322
G2 X0.7183 Y1.934 I0.0513 J0.0378
G2 X0.7159 Y1.9379 I0.0435 J0.0293
G2 X0.7122 Y1.9461 I0.048 J0.0267
G2 X0.7105 Y1.9521 I0.0356 J0.0129
G2 X0.7102 Y1.956 I0.023 J0.0042
G1 Y1.9561
G2 X0.7103 Y1.9586 I0.0215 J-0.0002
G2 X0.7107 Y1.9609 I0.0312 J-0.0041
G2 X0.7111 Y1.9625 I0.027 J-0.0056
G1 X0.7113 Y1.9633
G1 Y1.9634
G1 X0.7116 Y1.9642
G1 Y1.9643
G2 X0.7145 Y1.9715 I0.0494 J-0.0156
G2 X0.717 Y1.976 I0.0507 J-0.0248
G2 X0.721 Y1.9817 I0.039 J-0.0235
G1 X0.7214 Y1.9821
G1 X0.7215 Y1.9822
G3 X0.7217 Y1.9825 I-0.0057 J0.005
G1 X0.7218 Y1.9826
G1 X0.722 Y1.9829
G1 Y1.9828
G1 X0.723 Y1.9841
G3 X0.7247 Y1.9863 I-0.0265 J0.0215
G1 X0.7248 Y1.9865
G3 X0.7272 Y1.9914 I-0.0165 J0.0112
G3 X0.7282 Y1.9951 I-0.0289 J0.0095
G1 Y1.9954
G1 Y1.9953
G1 X0.7284 Y1.9965
G1 Y1.9964
G1 X0.7285 Y1.997
G3 X0.7292 Y2.0031 I-0.0851 J0.0126
G3 X0.7296 Y2.0115 I-0.1901 J0.0144
G1 X0.7297 Y2.0138
G3 X0.7298 Y2.019 I-0.3641 J0.0109
G1 Y2.0196
G1 Y2.0203
G1 X0.7299 Y2.0232
G1 Y2.0231
G1 Y2.0297
G1 X0.73 Y2.0371
G1 Y2.0455
G1 Y2.0552
G1 Y2.0635
G1 Y2.0718
G1 Y2.0724
G3 X0.7299 Y2.0895 I-1.4489 J-0.0024
G3 X0.7296 Y2.1008 I-0.4321 J-0.0057
G1 Y2.1009
G3 X0.7295 Y2.1022 I-0.0421 J-0.0012
G1 Y2.1023
G3 X0.7291 Y2.1088 I-0.1549 J-0.0071
G1 X0.7289 Y2.1105
G3 X0.7284 Y2.114 I-0.0621 J-0.0067
G1 X0.7283 Y2.1149
G3 X0.7274 Y2.1183 I-0.0298 J-0.0053
G3 X0.7261 Y2.1217 I-0.0208 J-0.0063
G3 X0.724 Y2.1251 I-0.0204 J-0.0105
G3 X0.7226 Y2.1269 I-0.0612 J-0.0463
G3 X0.721 Y2.1287 I-0.0595 J-0.0478
G1 Y2.1288
G1 X0.7201 Y2.1299
G1 X0.72 Y2.13
G1 X0.7191 Y2.1311
G1 Y2.1312
G1 X0.7188 Y2.1315
G2 X0.7167 Y2.1345 I0.0435 J0.0333
G2 X0.7131 Y2.1409 I0.0381 J0.0257
G2 X0.7113 Y2.1456 I0.031 J0.0144
G2 X0.7101 Y2.1525 I0.0282 J0.0084
G2 X0.7111 Y2.1617 I0.029 J0.0015
G2 X0.7129 Y2.1666 I0.0335 J-0.0093
G2 X0.7157 Y2.1718 I0.0388 J-0.0175
G2 X0.7173 Y2.1743 I0.0488 J-0.0307
G1 X0.7174
G1 X0.7178 Y2.1749
G2 X0.7221 Y2.1802 I0.0563 J-0.0414
G2 X0.7274 Y2.1857 I0.067 J-0.06
G2 X0.7321 Y2.1899 I0.0816 J-0.0853
G1 X0.7328 Y2.1905
G2 X0.7386 Y2.195 I0.0535 J-0.0632
G2 X0.7429 Y2.1977 I0.0288 J-0.0408
G2 X0.7492 Y2.2005 I0.0185 J-0.0324
G2 X0.7532 Y2.2016 I0.0098 J-0.029
G2 X0.758 Y2.202 I0.0048 J-0.0256
G2 X0.7616 Y2.2019 I0.0 J-0.0374
G2 X0.7653 Y2.2013 I-0.0029 J-0.0303
G2 X0.768 Y2.2005 I-0.0043 J-0.0198
G2 X0.7695 Y2.1999 I-0.0064 J-0.017
G2 X0.7715 Y2.1985 I-0.0042 J-0.0087
G1 X0.7716
G2 X0.7728 Y2.1971 I-0.0045 J-0.0052
G2 X0.7733 Y2.1961 I-0.0033 J-0.0022
G1 X0.7735 Y2.1953
G2 X0.7737 Y2.1945 I-0.0038 J-0.0012
G3 X0.7742 Y2.1942 I0.001 J0.0013
G1 X0.7743
G3 X0.775 Y2.1941 I0.0007 J0.0028
G1 X0.7751
G2 X0.7808 Y2.193 I0.0 J-0.0163
G2 X0.7857 Y2.1903 I-0.0069 J-0.018
G2 X0.7883 Y2.188 I-0.014 J-0.0186
G2 X0.7912 Y2.1845 I-0.0225 J-0.0219
G2 X0.7943 Y2.1796 I-0.0304 J-0.022
G2 X0.7971 Y2.1727 I-0.0438 J-0.0224
G2 X0.7994 Y2.1633 I-0.055 J-0.0183
G2 X0.8 Y2.1506 I-0.057 J-0.009
G2 X0.799 Y2.1434 I-0.0487 J0.0031
G2 X0.798 Y2.1396 I-0.0428 J0.0093
G2 X0.7965 Y2.1355 I-0.0344 J0.0106
G2 X0.7955 Y2.1336 I-0.0452 J0.0204
G3 X0.7944 Y2.1311 I0.0241 J-0.0122
G3 X0.7935 Y2.1284 I0.0488 J-0.0186
G1 X0.7934 Y2.128
G3 X0.7918 Y2.122 I0.0675 J-0.0208
G3 X0.7899 Y2.1095 I0.0953 J-0.0209
G1 X0.7898 Y2.1091
G1 X0.7897 Y2.1073
G3 X0.7896 Y2.1035 I0.0614 J-0.0041
G1 Y2.103
G1 Y2.087
G1 X0.8679 Y2.0869
G1 X0.8781
G1 X0.8882
G1 X0.895 Y2.0868
G1 X0.904 Y2.0867
G2 X0.916 Y2.0865 I-0.0558 J-4.156
G1 X0.9176
G1 X0.9192
G1 X0.9226 Y2.0864
G1 X0.9304 Y2.0862
G2 X0.9394 Y2.086 I-0.0205 J-0.8542
G1 X0.9417 Y2.0859
G2 X0.9466 Y2.0857 I-0.0796 J-2.0312
G2 X0.9492 Y2.0855 I-0.0135 J-0.3081
G1 X0.9495
G2 X0.955 Y2.0852 I-0.0087 J-0.1768
G2 X0.9581 Y2.0848 I-0.0029 J-0.0402
G2 X0.9583 I-0.0006 J-0.004
G1 X0.959 Y2.0847
G2 X0.9593 Y2.0846 I-0.0008 J-0.0039
G2 X0.9625 Y2.0832 I-0.0041 J-0.014
G2 X0.9644 Y2.082 I-0.012 J-0.0213
G0 Z0.125
G0 X0.885 Y1.9909
G0 Z0.0423
G1 F10.0 Z-0.004
G3 F25.0 X0.8807 Y1.9939 I-0.0166 J-0.0191
G3 X0.8778 Y1.9952 I-0.0076 J-0.0136
G3 X0.8743 Y1.9957 I-0.0036 J-0.011
G1 X0.8742
G2 X0.8735 Y1.9958 I0.0 J0.0029
G1 X0.8734
G2 X0.8729 Y1.9961 I0.0004 J0.0016
G3 X0.8727 Y1.9969 I-0.004 J-0.0004
G1 X0.8725 Y1.9977
G3 X0.872 Y1.9987 I-0.0038 J-0.0012
G3 X0.8708 Y2.0001 I-0.0057 J-0.0038
G1 X0.8707 Y2.0002
G3 X0.8687 Y2.0015 I-0.0063 J-0.0074
G3 X0.8672 Y2.0021 I-0.0079 J-0.0164
G1 X0.8671
G3 X0.8645 Y2.0029 I-0.0069 J-0.019
G3 X0.8608 Y2.0035 I-0.0066 J-0.0297
G3 X0.8572 Y2.0037 I-0.0036 J-0.0372
G1 X0.8571
G3 X0.8547 Y2.0035 I0.0002 J-0.0251
G3 X0.8501 Y2.0026 I0.0031 J-0.0276
G3 X0.8461 Y2.0013 I0.0103 J-0.0363
G3 X0.8426 Y1.9997 I0.0165 J-0.0408
G3 X0.8366 Y1.9961 I0.0266 J-0.0518
G1 X0.8365
G1 X0.8354 Y1.9952
G1 X0.8353
G3 X0.8263 Y1.9877 I0.0436 J-0.0611
G3 X0.8256 Y1.9869 I0.0623 J-0.0635
G3 X0.8199 Y1.9805 I0.0548 J-0.0544
G3 X0.8179 Y1.9779 I0.0507 J-0.0403
G1 X0.8171 Y1.9768
G3 X0.8143 Y1.9722 I0.0478 J-0.033
G3 X0.8124 Y1.9686 I0.0415 J-0.0234
G3 X0.8103 Y1.9627 I0.035 J-0.0161
G3 X0.8099 Y1.9611 I0.0259 J-0.007
G3 X0.8094 Y1.956 I0.024 J-0.0051
G3 X0.8096 Y1.9513 I0.0376 J-0.0002
G3 X0.8119 Y1.943 I0.0282 J0.0034
G3 X0.8134 Y1.9402 I0.031 J0.0142
G3 X0.8164 Y1.9358 I0.0364 J0.0213
G3 X0.8188 Y1.9328 I0.0499 J0.0383
G1 X0.8197 Y1.9317
G1 X0.8198
G3 X0.8232 Y1.9281 I0.0835 J0.0759
G1 X0.8236 Y1.9277
G1 X0.8251 Y1.9262
G1 X0.8266 Y1.9247
G1 X0.8269 Y1.9245
G3 X0.8273 Y1.9241 I0.0108 J0.0111
G3 X0.8324 Y1.9195 I0.0929 J0.0986
G1 X0.8327 Y1.9193
G3 X0.8331 Y1.919 I0.0066 J0.0075
G3 X0.8379 Y1.9153 I0.0441 J0.0529
G1 X0.838
G1 X0.8385 Y1.9149
G3 X0.8434 Y1.9121 I0.0229 J0.034
G3 X0.8481 Y1.9102 I0.0133 J0.0272
G3 X0.8573 Y1.9094 I0.0068 J0.0235
G3 X0.8606 Y1.9099 I-0.0026 J0.0273
G3 X0.866 Y1.9116 I-0.0078 J0.0346
G3 X0.8679 Y1.9124 I-0.0165 J0.0421
G1 X0.8686 Y1.9127
G1 X0.8687
G1 X0.869 Y1.9129
G1 X0.8691
G1 X0.8704 Y1.9136
G1 X0.8705
G3 X0.8717 Y1.9142 I-0.0225 J0.0449
G1 Y1.9143
G3 X0.8738 Y1.9154 I-0.0539 J0.1
G3 X0.8798 Y1.9191 I-0.0607 J0.1052
G3 X0.8905 Y1.9287 I-0.026 J0.0399
G3 X0.8964 Y1.9379 I-0.0338 J0.0278
G3 X0.9004 Y1.9537 I-0.039 J0.0183
G3 X0.8984 Y1.9698 I-0.0456 J0.0026
G3 X0.8951 Y1.9778 I-0.0454 J-0.0141
G3 X0.8917 Y1.9833 I-0.0455 J-0.024
G3 X0.8909 Y1.9844 I-0.0216 J-0.0148
G1 X0.8906 Y1.9848
G3 X0.8877 Y1.9883 I-0.0339 J-0.0257
G3 X0.8852 Y1.9907 I-0.0253 J-0.0236
G3 X0.885 Y1.9909 I-0.0168 J-0.0189
G0 Z0.125
G0 X0.9406 Y1.8998
G0 Z0.0423
G1 F10.0 Z-0.004
G2 F25.0 X0.9467 Y1.9028 I0.0183 J-0.03
G2 X0.9562 Y1.9045 I0.0094 J-0.0257
G2 X0.96 Y1.9043 I0.0 J-0.0387
G2 X0.9638 Y1.9037 I-0.003 J-0.0309
G2 X0.9643 Y1.9036 I-0.0012 J-0.0059
G1 X0.9647 Y1.9035
G1 Y1.9034
G2 X0.9678 Y1.9023 I-0.0045 J-0.017
G2 X0.9698 Y1.901 I-0.0043 J-0.009
G1 X0.9699
G2 X0.9711 Y1.8996 I-0.0046 J-0.0053
G2 X0.9716 Y1.8986 I-0.0033 J-0.0023
G1 X0.9719 Y1.8977
G2 X0.9721 Y1.8969 I-0.0038 J-0.0012
G3 X0.9726 Y1.8966 I0.001 J0.0013
G1 X0.9727
G3 X0.9734 Y1.8965 I0.0007 J0.0028
G2 X0.9794 Y1.8954 I0.0 J-0.0163
G2 X0.9845 Y1.8925 I-0.0072 J-0.018
G2 X0.9872 Y1.89 I-0.0149 J-0.0189
G2 X0.9901 Y1.8863 I-0.0217 J-0.0204
G2 X0.9931 Y1.8811 I-0.0339 J-0.023
G2 X0.9959 Y1.8739 I-0.0451 J-0.0218
G2 X0.998 Y1.8641 I-0.0576 J-0.0176
G2 X0.9983 Y1.8508 I-0.0585 J-0.0078
G2 X0.997 Y1.8433 I-0.0511 J0.0049
G2 X0.994 Y1.835 I-0.0405 J0.0101
G3 X0.9918 Y1.8294 I0.0295 J-0.0146
G3 X0.9905 Y1.8233 I0.0521 J-0.0148
G1 X0.9903 Y1.8225
G1 X0.9902 Y1.8216
G3 X0.9896 Y1.8168 I0.0995 J-0.0149
G3 X0.989 Y1.8102 I0.2131 J-0.0214
G1 X0.9889 Y1.8084
G3 X0.9888 Y1.8066 I0.0665 J-0.0048
G2 Y1.8065 I-0.004 J0.0002
G1 Y1.8064
G1 Y1.8063
G3 X0.9884 Y1.7961 I0.4763 J-0.0245
G1 X0.9883 Y1.7934
G3 X0.9882 Y1.7872 I0.4913 J-0.0136
G3 X0.9881 Y1.7801 I0.5951 J-0.012
G1 X0.988 Y1.7763
G3 Y1.7676 I1.3486 J-0.0123
G1 Y1.7576
G1 Y1.7535
G1 Y1.7494
G1 Y1.7491
G3 Y1.7406 I1.1346 J0.0016
G1 Y1.7382
G1 Y1.7376
G1 X0.9881 Y1.7347
G1 Y1.7314
G1 Y1.7312
G1 X0.9882 Y1.7274
G1 Y1.7275
G1 X0.9883 Y1.7231
G3 X0.9887 Y1.7117 I0.4931 J0.0109
G3 X0.989 Y1.7052 I0.2672 J0.0117
G1 X0.9891 Y1.7036
G1 Y1.7035
G3 X0.9899 Y1.696 I0.1427 J0.0101
G1 X0.9901 Y1.6941
G1 X0.9903 Y1.6931
G3 X0.991 Y1.6891 I0.0762 J0.0119
G1 X0.9911 Y1.6886
G3 X0.9923 Y1.6844 I0.0431 J0.0096
G3 X0.994 Y1.6803 I0.0299 J0.0099
G2 X0.9962 Y1.6747 I-0.0345 J-0.0172
G2 X0.9977 Y1.6689 I-0.0454 J-0.0144
G2 X0.9985 Y1.6572 I-0.0547 J-0.0098
G2 X0.9978 Y1.6495 I-0.0613 J0.0019
G2 X0.9953 Y1.6395 I-0.0569 J0.0089
G2 X0.993 Y1.6339 I-0.0477 J0.0167
G2 X0.9893 Y1.6279 I-0.0342 J0.0166
G2 X0.9868 Y1.6249 I-0.0245 J0.0183
G2 X0.9834 Y1.6221 I-0.0165 J0.0159
G2 X0.9791 Y1.6198 I-0.0111 J0.0157
G1 X0.979 Y1.6197
G2 X0.9734 Y1.6187 I-0.0057 J0.0155
G3 X0.9726 Y1.6186 I0.0 J-0.0028
G3 X0.9721 Y1.6184 I0.0005 J-0.0017
G2 X0.9713 Y1.6159 I-0.0055 J0.0004
G2 X0.9709 Y1.6154 I-0.0034 J0.0021
G1 X0.9704 Y1.6148
G2 X0.9699 Y1.6143 I-0.003 J0.0026
G2 X0.9677 Y1.6129 I-0.0064 J0.0076
G2 X0.9664 Y1.6124 I-0.0064 J0.0133
G2 X0.9617 Y1.6112 I-0.0081 J0.0229
G1 X0.9612 Y1.6111
G2 X0.9598 Y1.611 I-0.0039 J0.0278
G2 X0.9562 Y1.6108 I-0.0037 J0.0414
G2 X0.9506 Y1.6114 I0.0001 J0.0283
G1 X0.9505
G2 X0.9451 Y1.6131 I0.0059 J0.0278
G2 X0.9419 Y1.6147 I0.0148 J0.0344
G1 X0.9418
G2 X0.9401 Y1.6157 I0.0337 J0.0594
G1 X0.9397 Y1.616
G2 X0.9352 Y1.6192 I0.0295 J0.0463
G2 X0.9298 Y1.6238 I0.0543 J0.069
G1 X0.9285 Y1.625
G1 X0.9278 Y1.6257
G1 X0.9271 Y1.6264
G1 X0.9256 Y1.6278
G1 Y1.6279
G1 X0.9244 Y1.6291
G1 X0.9243
G1 X0.924 Y1.6295
G1 X0.9239
G1 X0.9234 Y1.6301
G1 X0.9231 Y1.6304
G1 X0.9223 Y1.6313
G1 X0.9218 Y1.6318
G1 X0.9206 Y1.6331
G2 X0.916 Y1.6389 I0.0553 J0.049
G2 X0.9132 Y1.6432 I0.0433 J0.0309
G2 X0.9103 Y1.6496 I0.0312 J0.0181
G2 X0.9089 Y1.6593 I0.0257 J0.0088
G2 X0.9097 Y1.6649 I0.0282 J-0.0012
G2 X0.9117 Y1.6708 I0.0337 J-0.0084
G2 X0.915 Y1.6769 I0.0461 J-0.0209
G2 X0.9193 Y1.6831 I0.0664 J-0.0416
G3 X0.922 Y1.6868 I-0.0538 J0.0409
G3 X0.9242 Y1.6907 I-0.0365 J0.0237
G3 X0.9271 Y1.699 I-0.0312 J0.0157
G3 X0.928 Y1.705 I-0.0477 J0.0103
G3 X0.9283 Y1.7085 I-0.0694 J0.0065
G1 Y1.7086
G1 Y1.7087
G1 Y1.7086
G1 Y1.7106
G1 X0.9284 Y1.7127
G3 Y1.7137 I-0.04 J0.0007
G1 Y1.7298
G1 X0.7598
G1 X0.5912
G1 Y1.7125
G3 X0.5915 Y1.7051 I0.0942 J0.0004
G3 X0.5924 Y1.6977 I0.1034 J0.0084
G3 X0.5932 Y1.6928 I0.0884 J0.0131
G1 X0.5933
G3 X0.5948 Y1.6865 I0.0707 J0.0141
G3 X0.596 Y1.6831 I0.0403 J0.0121
G3 X0.5967 Y1.6816 I0.0165 J0.0066
G2 X0.6005 Y1.6726 I-0.0525 J-0.0277
G2 X0.6027 Y1.663 I-0.0475 J-0.0158
G2 X0.603 Y1.6563 I-0.0417 J-0.0052
G2 X0.6017 Y1.6474 I-0.0401 J0.0013
G2 X0.5969 Y1.6364 I-0.0387 J0.0102
G2 X0.5929 Y1.6309 I-0.0382 J0.024
G2 X0.5874 Y1.6255 I-0.0369 J0.032
G1 X0.5867 Y1.6249
G1 X0.5866
G2 X0.5794 Y1.6199 I-0.0367 J0.0453
G1 X0.5774 Y1.6187
G1 X0.5754 Y1.6176
G1 X0.5753 Y1.6175
G1 X0.574 Y1.6168
G1 X0.5739
G1 X0.5732 Y1.6164
G1 X0.5731
G1 X0.573 Y1.6163
G2 X0.5719 Y1.6157 I-0.0137 J0.0255
G1 X0.5715 Y1.6155
G1 X0.5714
G1 X0.5703 Y1.6149
G2 X0.567 Y1.6135 I-0.0266 J0.057
G1 X0.5669
G1 X0.5665 Y1.6133
G2 X0.5615 Y1.6118 I-0.0118 J0.0309
G1 X0.5614
G1 X0.5608 Y1.6117
G2 X0.5575 Y1.6114 I-0.004 J0.0234
G2 X0.5536 Y1.6116 I-0.0005 J0.021
G2 X0.5494 Y1.6127 I0.0036 J0.0226
G2 X0.5451 Y1.6147 I0.0112 J0.0306
G2 X0.5408 Y1.6173 I0.0254 J0.0471
G2 X0.5397 Y1.618 I0.0271 J0.0413
G2 X0.5351 Y1.6213 I0.0678 J0.0981
G1 X0.5348 Y1.6215
G1 Y1.6216
G3 X0.532 Y1.6236 I-0.061 J-0.0789
G1 Y1.6237
G3 X0.5293 Y1.6255 I-0.022 J-0.0302
G1 X0.5292
G3 X0.5236 Y1.628 I-0.0122 J-0.02
G3 X0.5193 Y1.6289 I-0.0104 J-0.0357
G1 Y1.629
G1 X0.519
G3 X0.5129 Y1.6297 I-0.0121 J-0.0745
G1 X0.512 Y1.6298
G1 X0.5121
G1 X0.5112 Y1.6299
G3 X0.5021 Y1.6303 I-0.0151 J-0.2184
G1 X0.5016
G1 X0.4991 Y1.6304
G3 X0.4934 Y1.6305 I-0.0171 J-0.7449
G1 X0.4927
G1 X0.492
G1 X0.4889 Y1.6306
G1 X0.4855
G1 X0.4856
G1 X0.478
G1 X0.4693
G1 X0.4594
G1 X0.4483
G1 X0.4446
G1 X0.4396
G1 X0.4397
G1 X0.433
G1 X0.4331
G1 X0.4293 Y1.6305
G1 X0.4273
G1 X0.4268
G1 X0.4221 Y1.6304
G3 X0.421 I0.0002 J-0.0333
G1 X0.4209
G3 X0.4184 Y1.6303 I0.0049 J-0.2448
G1 X0.4157
G1 X0.415 Y1.6302
G3 X0.4087 Y1.6299 I0.0096 J-0.2555
G3 X0.4017 Y1.6293 I0.0068 J-0.1109
G1 X0.4013 Y1.6292
G1 X0.4012
G3 X0.4005 Y1.6291 I0.0016 J-0.0136
G1 X0.4004
G1 X0.3995 Y1.6289
G3 X0.3978 Y1.6286 I0.0053 J-0.0343
G1 X0.3968 Y1.6284
G1 X0.3969
G1 X0.3959 Y1.6282
G3 X0.3923 Y1.6271 I0.008 J-0.0324
G3 X0.3914 Y1.6268 I0.0066 J-0.0178
G1 Y1.6267
G3 X0.3877 Y1.6249 I0.0122 J-0.029
G3 X0.3836 Y1.6223 I0.0393 J-0.0667
G1 X0.3833 Y1.6221
G1 X0.3823 Y1.6214
G2 X0.3774 Y1.6183 I-0.0647 J0.0943
G2 X0.3723 Y1.6154 I-0.0363 J0.0584
G1 X0.3722 Y1.6153
G2 X0.3685 Y1.6137 I-0.0223 J0.0442
G1 Y1.6136
G2 X0.3675 Y1.6133 I-0.0204 J0.052
G2 X0.3615 Y1.6117 I-0.01 J0.0268
G2 X0.3528 Y1.6123 I-0.003 J0.0222
G2 X0.3482 Y1.6139 I0.0068 J0.0259
G2 X0.346 Y1.6151 I0.0132 J0.0286
G2 X0.3414 Y1.618 I0.0228 J0.0404
G2 X0.3367 Y1.6218 I0.0471 J0.0644
G1 X0.3366
G1 X0.3355 Y1.6227
G2 X0.3331 Y1.6249 I0.0615 J0.0711
G1 X0.3319 Y1.626
G1 X0.3307 Y1.6272
G1 X0.3292 Y1.6286
G1 X0.3291 Y1.6287
G1 X0.3277 Y1.6301
G1 X0.3276
G1 X0.3272 Y1.6306
G2 X0.3238 Y1.6341 I0.0801 J0.0795
G1 Y1.6342
G1 X0.3229 Y1.6352
G2 X0.3204 Y1.6382 I0.0474 J0.0413
G2 X0.3174 Y1.6426 I0.0334 J0.0257
G2 X0.316 Y1.6454 I0.0295 J0.0169
G1 Y1.6455
G2 X0.3137 Y1.6537 I0.0259 J0.0117
G2 X0.3134 Y1.6584 I0.0373 J0.0045
G2 X0.3136 Y1.662 I0.037 J0.0002
G2 X0.3141 Y1.6657 I0.0328 J-0.003
G2 X0.3166 Y1.6728 I0.0275 J-0.0058
G2 X0.3191 Y1.677 I0.0321 J-0.0166
G2 X0.323 Y1.6818 I0.0447 J-0.0313
G1 X0.324 Y1.683
G1 X0.3246 Y1.6836
G1 X0.3258 Y1.6849
G1 X0.3264 Y1.6855
G1 X0.3277 Y1.6869
G2 X0.3292 Y1.6883 I0.1081 J-0.1083
G1 X0.3295 Y1.6886
G1 X0.3296
G1 X0.3299 Y1.689
G1 X0.3303 Y1.6894
G1 X0.3307 Y1.6897
G1 Y1.6898
G1 X0.3322 Y1.6911
G1 Y1.6912
G1 X0.3337 Y1.6925
G2 X0.3368 Y1.6953 I0.0996 J-0.1112
G2 X0.339 Y1.697 I0.0573 J-0.0683
G1 X0.3391 Y1.6971
G1 X0.3403 Y1.698
G2 X0.3439 Y1.7005 I0.0351 J-0.0468
G2 X0.3492 Y1.7034 I0.0206 J-0.0321
G1 X0.3493
G2 X0.3527 Y1.7046 I0.0112 J-0.026
G2 X0.3628 Y1.7052 I0.0063 J-0.0217
G2 X0.3683 Y1.7036 I-0.0049 J-0.0276
G2 X0.3738 Y1.7009 I-0.0155 J-0.0388
G2 X0.3794 Y1.6973 I-0.0347 J-0.0596
G1 X0.3804 Y1.6966
G1 X0.3807 Y1.6964
G1 X0.3812 Y1.6961
G1 X0.3811
G1 X0.3818 Y1.6957
G3 X0.3825 Y1.6953 I0.0109 J0.0174
G1 X0.3826 Y1.6952
G3 X0.383 Y1.695 I0.0133 J0.0231
G1 X0.3833 Y1.6949
G3 X0.3872 Y1.6932 I0.0106 J0.0199
G1 X0.3873
G3 X0.3902 Y1.6924 I0.009 J0.0294
G1 X0.3906
G1 X0.3905
G1 X0.3914 Y1.6922
G3 X0.3961 Y1.6916 I0.0112 J0.0655
G3 X0.4025 Y1.6911 I0.013 J0.1343
G1 X0.4033
G1 X0.4042 Y1.691
G1 X0.4051
G1 X0.406
G1 X0.407 Y1.6909
G3 X0.4114 Y1.6908 I0.0264 J0.9945
G3 X0.423 Y1.6907 I0.0104 J0.601
G1 X0.4234
G1 X0.4301 Y1.6908
G1 X0.4319
G1 X0.4398
G3 X0.4609 Y1.6911 I-0.0391 J3.7267
G1 X0.5297 Y1.6922
G1 X0.5308 Y1.7285
G1 Y1.7295
G1 Y1.7306
G1 Y1.7313
G1 X0.5309 Y1.734
G1 X0.5311 Y1.7396
G1 X0.5313 Y1.7433
G1 X0.5314 Y1.7454
G2 X0.5317 Y1.7511 I0.3809 J-0.02
G1 X0.5318 Y1.7526
G1 X0.532 Y1.7542
G2 X0.5324 Y1.758 I0.1288 J-0.0112
G2 X0.533 Y1.7623 I0.0714 J-0.008
G2 X0.5341 Y1.7674 I0.0449 J-0.0075
G2 X0.5351 Y1.7702 I0.0313 J-0.0094
G2 X0.5388 Y1.7763 I0.0205 J-0.0083
G1 X0.5389 Y1.7764
G2 X0.5414 Y1.779 I0.0228 J-0.0199
G2 X0.5438 Y1.7808 I0.013 J-0.0141
G2 X0.5439 Y1.7809 I0.0022 J-0.0033
G1 X0.5446 Y1.7813
G2 X0.5447 Y1.7814 I0.0021 J-0.0034
G2 X0.5484 Y1.783 I0.0103 J-0.0185
G1 X0.5493 Y1.7833
G2 X0.5494 I0.0012 J-0.0038
G1 X0.5504 Y1.7836
G2 X0.5505 I0.0011 J-0.0039
G1 X0.5511 Y1.7838
G2 X0.5543 Y1.7844 I0.0118 J-0.0496
G2 X0.5584 Y1.785 I0.0128 J-0.0729
G1 X0.5589 Y1.7851
G2 X0.5644 Y1.7857 I0.017 J-0.1426
G2 X0.5717 Y1.7862 I0.0238 J-0.2916
G1 X0.5758 Y1.7864
G2 X0.5868 Y1.7868 I0.0391 J-0.8443
G1 X0.5882 Y1.7869
G1 X0.5897
G1 X0.5963 Y1.7871
G1 X0.6039 Y1.7873
G1 X0.6079
G1 X0.6171 Y1.7875
G1 X0.6172
G1 X0.6277 Y1.7876
G1 X0.6397 Y1.7878
G1 X0.6534 Y1.7879
G1 X0.657 Y1.788
G1 X0.6645
G1 X0.6646
G1 X0.6818 Y1.7882
G1 X0.6863
G1 X0.7066 Y1.7883
G1 X0.7175 Y1.7884
G1 X0.7423 Y1.7886
G1 X0.9284 Y1.7897
G1 Y1.8037
G3 X0.9283 Y1.8071 I-0.0965 J-0.0003
G1 Y1.8076
G3 X0.9282 Y1.8088 I-0.0292 J-0.0012
G1 Y1.8089
G3 X0.9276 Y1.8139 I-0.0495 J-0.0032
G3 X0.9248 Y1.8233 I-0.0372 J-0.0061
G3 X0.9215 Y1.8291 I-0.0387 J-0.0179
G3 X0.9193 Y1.8322 I-0.052 J-0.0347
G2 X0.9164 Y1.8363 I0.0644 J0.0494
G2 X0.9137 Y1.8406 I0.0524 J0.0355
G2 X0.9121 Y1.8436 I0.0427 J0.0241
G2 X0.9104 Y1.848 I0.0327 J0.0157
G2 X0.909 Y1.8544 I0.0288 J0.0095
G2 X0.9096 Y1.8633 I0.0263 J0.0026
G2 X0.9112 Y1.868 I0.0308 J-0.0077
G2 X0.9117 Y1.8692 I0.0329 J-0.0139
G2 X0.9145 Y1.8741 I0.0387 J-0.0182
G2 X0.9161 Y1.8766 I0.0435 J-0.0279
G1 X0.9165 Y1.8771
G1 X0.9166 Y1.8772
G1 X0.9174 Y1.8783
G1 X0.9175 Y1.8784
G2 X0.9219 Y1.8835 I0.0691 J-0.0541
G2 X0.9243 Y1.8861 I0.0822 J-0.0752
G1 Y1.8862
G1 X0.9256 Y1.8874
G2 X0.9306 Y1.8923 I0.1057 J-0.1058
G2 X0.9361 Y1.8968 I0.0556 J-0.0613
G1 X0.9362
G1 X0.9363 Y1.897
G2 X0.9404 Y1.8998 I0.0332 J-0.0446
G2 X0.9406 I0.0184 J-0.0299
G0 Z0.125
G0 X0.8975 Y1.7063
G0 Z0.0423
G1 F10.0 Z-0.004
G3 F25.0 X0.8966 Y1.7064 I-0.0009 J-0.0039
G1 X0.8579 Y1.7052
G1 X0.8192 Y1.7041
G3 X0.8153 Y1.7002 I0.0001 J-0.004
G1 X0.8142 Y1.6615
G1 X0.813 Y1.6229
G3 X0.817 Y1.6187 I0.004 J-0.0001
G1 X0.8569
G1 X0.8967
G3 X0.9007 Y1.6227 I0.0 J0.004
G1 Y1.6626
G1 Y1.7024
G3 X0.8975 Y1.7063 I-0.004 J0.0
G0 Z0.125
G0 X0.7992 Y1.6724
G0 Z0.0423
G1 F10.0 Z-0.004
G3 F25.0 X0.7965 Y1.6785 I-0.0376 J-0.013
G3 X0.7928 Y1.6842 I-0.0367 J-0.02
G3 X0.7858 Y1.6914 I-0.0379 J-0.0296
G3 X0.7778 Y1.697 I-0.0375 J-0.0445
G1 X0.7775 Y1.6972
G3 X0.777 Y1.6975 I-0.0044 J-0.007
G3 X0.7742 Y1.6991 I-0.0864 J-0.1486
G3 X0.7728 Y1.6998 I-0.0272 J-0.0483
G1 X0.7722 Y1.7002
G1 X0.7715 Y1.7005
G3 X0.766 Y1.703 I-0.0289 J-0.0556
G1 X0.7657 Y1.7032
G3 X0.7631 Y1.7041 I-0.0143 J-0.0366
G3 X0.7579 Y1.7052 I-0.0091 J-0.0287
G3 X0.7482 Y1.7043 I-0.0028 J-0.0223
G3 X0.745 Y1.7031 I0.0086 J-0.0267
G1 X0.7449
G3 X0.7399 Y1.7002 I0.016 J-0.0337
G3 X0.7382 Y1.699 I0.0544 J-0.0793
G1 Y1.6989
G1 X0.7375 Y1.6984
G1 X0.7374
G3 X0.7348 Y1.6963 I0.0544 J-0.0716
G3 X0.731 Y1.6931 I0.0669 J-0.081
G1 X0.7292 Y1.6914
G3 X0.7283 Y1.6906 I0.1195 J-0.1287
G1 X0.7275 Y1.6897
G3 X0.7221 Y1.6843 I0.0617 J-0.0655
G3 X0.7178 Y1.679 I0.052 J-0.0467
G1 Y1.6789
G1 X0.7174 Y1.6784
G1 X0.7173 Y1.6783
G3 X0.7157 Y1.6758 I0.0471 J-0.0332
G3 X0.7129 Y1.6707 I0.036 J-0.0226
G3 X0.7111 Y1.6658 I0.0317 J-0.0142
G3 X0.7101 Y1.6565 I0.028 J-0.0078
G3 X0.7113 Y1.6497 I0.0294 J0.0016
G3 X0.7131 Y1.6449 I0.0328 J0.0096
G3 X0.7167 Y1.6385 I0.0417 J0.0193
G3 X0.7188 Y1.6356 I0.0456 J0.0303
G1 X0.7191 Y1.6352
G1 X0.72 Y1.634
G1 X0.7201
G1 X0.721 Y1.6328
G1 X0.73 Y1.6221
G1 Y1.5365
G3 Y1.5247 I3.2953 J-0.0042
G1 Y1.5234
G1 Y1.5222
G1 Y1.5197
G1 Y1.5196
G1 Y1.51
G1 X0.7301 Y1.5015
G1 Y1.4978
G1 Y1.4977
G1 X0.7302 Y1.4908
G1 Y1.4892
G3 X0.7304 Y1.4774 I1.0637 J0.0148
G1 Y1.4773
G1 X0.7306 Y1.4729
G1 X0.7307 Y1.4709
G3 X0.7308 Y1.4672 I0.5589 J0.0239
G3 X0.7309 Y1.4655 I0.0826 J0.0037
G1 Y1.4652
G1 X0.731 Y1.4648
G1 Y1.4644
G1 Y1.464
G1 Y1.4637
G3 X0.7312 Y1.4608 I0.212 J0.0145
G3 X0.7315 Y1.4583 I0.1333 J0.0112
G1 X0.7316 Y1.4572
G1 X0.7317 Y1.4567
G3 Y1.4561 I0.0111 J0.0011
G1 X0.7318 Y1.4557
G3 X0.7324 Y1.4518 I0.0585 J0.0076
G1 Y1.4517
G1 X0.7326 Y1.4511
G1 Y1.451
G1 X0.7327 Y1.4504
G3 X0.7335 Y1.4476 I0.0265 J0.0061
G3 X0.7343 Y1.4456 I0.0217 J0.0074
G1 X0.7344 Y1.4455
G3 X0.7362 Y1.4425 I0.016 J0.0074
G1 Y1.4424
G3 X0.7373 Y1.4411 I0.0148 J0.0113
G3 X0.7386 Y1.4398 I0.0121 J0.0111
G3 X0.7411 Y1.438 I0.0099 J0.0109
G3 X0.7424 Y1.4373 I0.0082 J0.0142
G1 X0.7425
G3 X0.745 Y1.4364 I0.0099 J0.022
G1 Y1.4363
G3 X0.7497 Y1.4352 I0.011 J0.0352
G1 X0.7502 Y1.4351
G1 X0.7503
G1 X0.7508 Y1.435
G3 X0.753 Y1.4347 I0.0118 J0.0716
G1 X0.754 Y1.4346
G1 Y1.4345
G3 X0.7623 Y1.4338 I0.0191 J0.1621
G1 X0.7628 Y1.4337
G3 X0.7667 Y1.4335 I0.0132 J0.1871
G1 X0.7703 Y1.4333
G1 X0.7704
G1 X0.7739 Y1.4332
G1 X0.7757 Y1.4331
G1 X0.7791 Y1.433
G1 X0.7807
G3 X0.8067 Y1.4325 I0.0387 J1.4843
G1 X0.8079
G3 X0.8461 Y1.4323 I0.0481 J5.4129
G1 X0.8652
G1 X0.8658
G1 X0.8844
G1 X1.0188
G1 X1.0308 Y1.4232
G3 X1.0363 Y1.4193 I0.0465 J0.0607
G3 X1.0389 Y1.4177 I0.0246 J0.0384
G3 X1.0442 Y1.4152 I0.0215 J0.0384
G3 X1.0466 Y1.4144 I0.0162 J0.042
G1 X1.0467
G3 X1.0515 Y1.4133 I0.0096 J0.0309
G3 X1.0603 Y1.4134 I0.004 J0.0277
G3 X1.0666 Y1.4152 I-0.0054 J0.0309
G3 X1.0708 Y1.4171 I-0.0144 J0.0367
G3 X1.0766 Y1.4208 I-0.0263 J0.0487
G1 X1.0767
G1 X1.0779 Y1.4217
G1 X1.078
G3 X1.0819 Y1.4248 I-0.0576 J0.077
G1 X1.0837 Y1.4263
G1 X1.0853 Y1.4278
G1 X1.0854
G1 X1.0861 Y1.4285
G3 X1.0891 Y1.4314 I-0.0418 J0.0462
G3 X1.0916 Y1.4343 I-0.0234 J0.0226
G3 X1.0951 Y1.4406 I-0.0186 J0.0142
G1 Y1.4407
G1 X1.0953 Y1.4412
G1 Y1.4413
G3 X1.0964 Y1.4461 I-0.0283 J0.009
G1 X1.0965 Y1.4469
G1 Y1.447
G3 X1.0968 Y1.4502 I-0.0522 J0.0066
G3 X1.0969 Y1.4514 I-0.0313 J0.0025
G1 Y1.4519
G3 X1.0971 Y1.4595 I-0.1622 J0.0067
G3 X1.097 Y1.4634 I-0.1111 J0.0005
G1 Y1.4642
G1 Y1.4643
G3 X1.0968 Y1.4676 I-0.0898 J-0.0029
G3 X1.0966 Y1.4706 I-0.0555 J-0.0035
G1 X1.0965 Y1.4708
G3 Y1.4713 I-0.0071 J-0.0006
G3 X1.0956 Y1.4763 I-0.0502 J-0.0061
G3 X1.0944 Y1.4802 I-0.0321 J-0.0073
G3 X1.0917 Y1.4859 I-0.0257 J-0.0092
G1 X1.0916
G3 X1.0877 Y1.4907 I-0.0249 J-0.0164
G3 X1.0819 Y1.4954 I-0.0252 J-0.0255
G3 X1.0762 Y1.4984 I-0.0224 J-0.0346
G3 X1.0657 Y1.5017 I-0.0199 J-0.045
G3 X1.0494 Y1.5024 I-0.0104 J-0.053
G3 X1.0474 Y1.5021 I0.0083 J-0.0708
G1 X1.0473
G3 X1.0438 Y1.5015 I0.0089 J-0.0571
G3 X1.0335 Y1.4978 I0.01 J-0.0448
G2 X1.0302 Y1.4965 I-0.0109 J0.0216
G2 X1.0267 Y1.4955 I-0.011 J0.0328
G1 X1.0262 Y1.4954
G1 X1.0263
G1 X1.0254 Y1.4952
G2 X1.0218 Y1.4946 I-0.015 J0.0758
G2 X1.0147 Y1.4938 I-0.0173 J0.1177
G1 X1.013 Y1.4936
G2 X0.9995 Y1.4928 I-0.027 J0.3477
G1 X0.9965 Y1.4927
G1 X0.9958
G1 X0.9944 Y1.4926
G1 X0.993
G1 X0.9902 Y1.4925
G1 X0.9848 Y1.4924
G1 X0.9798 Y1.4923
G1 X0.9774 Y1.4922
G2 X0.9752 I-0.0031 J0.1239
G1 X0.9751
G1 X0.9662 Y1.4921
G1 X0.9663
G1 X0.9643
G1 X0.9605 Y1.492
G1 X0.9535
G1 X0.9473 Y1.4919
G2 X0.904 Y1.4918 I-0.0382 J7.9097
G1 X0.7896
G1 Y1.5568
G1 Y1.5669
G2 X0.7897 Y1.5757 I2.0077 J-0.0075
G1 Y1.5776
G1 Y1.5795
G1 Y1.5813
G1 Y1.5831
G2 X0.7898 Y1.5864 I0.2662 J-0.0023
G1 Y1.5865
G2 X0.7901 Y1.5992 I0.7591 J-0.012
G1 X0.7902 Y1.6016
G1 Y1.6015
G1 X0.7903 Y1.6038
G2 Y1.6048 I0.0319 J-0.0009
G2 X0.7908 Y1.6129 I0.3132 J-0.0138
G1 Y1.6136
G2 X0.7913 Y1.6194 I0.1954 J-0.0146
G1 X0.7916 Y1.6216
G1 Y1.6215
G1 X0.7919 Y1.6235
G1 X0.7918 Y1.6234
G1 X0.7921 Y1.6251
G2 X0.7933 Y1.6305 I0.0543 J-0.0087
G2 X0.7936 Y1.6318 I0.0244 J-0.0065
G2 X0.7951 Y1.6353 I0.0211 J-0.0065
G1 X0.7953 Y1.6358
G3 X0.7987 Y1.6438 I-0.0541 J0.0278
G3 X0.8007 Y1.6513 I-0.0476 J0.0164
G3 X0.8014 Y1.6581 I-0.0437 J0.008
G3 X0.7999 Y1.6701 I-0.0408 J0.0011
G3 X0.7992 Y1.6724 I-0.0383 J-0.0107
G0 Z0.125
G0 X0.7977 Y1.393
G0 Z0.0423
G1 F10.0 Z-0.004
G3 F25.0 X0.8354 Y1.3929 I0.0692 J13.1027
G2 X0.8356 I0.0 J-0.004
G2 X0.8357 I0.0001 J-0.004
G1 X0.836
G2 X0.8362 I0.0 J-0.004
G2 X0.8365 I0.0001 J-0.004
G2 X0.8368 I0.0001 J-0.004
G2 X0.837 I0.0001 J-0.004
G1 X0.8373
G2 X0.8374 I0.0 J-0.004
G2 X0.8378 I0.0001 J-0.004
G2 X0.8381 I0.0001 J-0.004
G2 X0.8382 I0.0001 J-0.004
G1 X0.8385
G2 X0.8387 I0.0 J-0.004
G2 X0.839 I0.0001 J-0.004
G2 X0.8393 I0.0001 J-0.004
G2 X0.8395 I0.0001 J-0.004
G1 X0.8398
G2 X0.84 I0.0 J-0.004
G2 X0.8403 I0.0002 J-0.004
G2 X0.8406 I0.0002 J-0.004
G2 X0.8408 I0.0002 J-0.004
G1 X0.8411
G2 X0.8413 I0.0 J-0.004
G2 X0.8416 I0.0002 J-0.004
G2 X0.8419 I0.0002 J-0.004
G2 X0.8421 I0.0002 J-0.004
G1 X0.8424
G1 X0.8661 Y1.3928
G1 X0.8787
G1 X0.9076
G1 X1.1268 Y1.3927
G1 Y1.4296
G1 Y1.4705
G2 X1.1289 Y1.474 I0.004 J0.0
G1 X1.1451 Y1.4827
G1 X1.1614 Y1.4914
G2 X1.1633 Y1.4918 I0.0019 J-0.0035
G1 X1.4912 Y1.492
G1 X1.5267
G1 X1.5621
G1 X1.5669
G1 X1.5719 Y1.4921
G1 X1.5988
G1 X1.6347 Y1.4922
G1 X1.6393
G1 X1.6417
G1 X1.6632 Y1.4923
G1 X1.6878 Y1.4924
G1 X1.6941
G1 X1.6973 Y1.4925
G1 X1.7111 Y1.4926
G1 X1.7257 Y1.4927
G1 X1.7294
G1 X1.7371 Y1.4928
G1 X1.745 Y1.4929
G1 X1.7532 Y1.493
G1 X1.7553 Y1.4931
G1 X1.7638 Y1.4932
G1 X1.764
G1 X1.7643
G1 X1.7731 Y1.4934
G1 X1.7753
G3 X1.7798 Y1.4935 I-0.0255 J1.1388
G1 X1.7821 Y1.4936
G3 X1.7914 Y1.4939 I-0.0313 J1.1743
G3 X1.8011 Y1.4943 I-0.0402 J1.1163
G1 X1.8023
G1 X1.8047 Y1.4945
G1 X1.8072 Y1.4946
G3 X1.8172 Y1.4954 I-0.0146 J0.2531
G3 X1.8196 Y1.4957 I-0.0081 J0.0827
G1 X1.8197
G3 X1.8245 Y1.4964 I-0.0061 J0.0522
G3 X1.8265 Y1.497 I-0.0032 J0.0153
G3 X1.8271 Y1.4973 I-0.0011 J0.0031
G2 X1.8324 Y1.5 I0.0276 J-0.0481
G2 X1.838 Y1.502 I0.0197 J-0.0446
G2 X1.842 Y1.503 I0.0117 J-0.0383
G2 X1.8583 Y1.5029 I0.0079 J-0.0383
G1 X1.8584
G2 X1.8686 Y1.4991 I-0.0092 J-0.0405
G2 X1.8738 Y1.4959 I-0.0233 J-0.0442
G2 X1.8792 Y1.4916 I-0.032 J-0.0458
G2 X1.8819 Y1.4891 I-0.0453 J-0.0505
G2 X1.8854 Y1.4854 I-0.0675 J-0.0674
G1 X1.8865 Y1.4841
G2 X1.8907 Y1.4786 I-0.0448 J-0.0386
G2 X1.8932 Y1.4745 I-0.0351 J-0.0239
G2 X1.8957 Y1.4685 I-0.0311 J-0.0165
G2 X1.8966 Y1.4648 I-0.0278 J-0.0085
G2 X1.8963 Y1.4544 I-0.0265 J-0.0044
G2 X1.8945 Y1.4488 I-0.0302 J0.0068
G2 X1.8931 Y1.4461 I-0.0354 J0.0152
G2 X1.8896 Y1.4403 I-0.0425 J0.0226
G2 X1.8874 Y1.4375 I-0.0532 J0.0385
G2 X1.8822 Y1.4317 I-0.0671 J0.0549
G2 X1.8793 Y1.4288 I-0.0727 J0.0709
G2 X1.8746 Y1.4246 I-0.0817 J0.0853
G1 Y1.4245
G1 X1.8739 Y1.424
G2 X1.8681 Y1.4195 I-0.0535 J0.0632
G2 X1.8639 Y1.4168 I-0.0287 J0.0408
G2 X1.8575 Y1.4139 I-0.0185 J0.0324
G2 X1.8535 Y1.4129 I-0.0097 J0.0289
G2 X1.8487 Y1.4124 I-0.0048 J0.0256
G2 X1.8451 Y1.4126 I0.0 J0.0372
G2 X1.8414 Y1.4132 I0.0029 J0.0302
G2 X1.8387 Y1.4139 I0.0043 J0.0198
G1 Y1.414
G2 X1.8372 Y1.4146 I0.0064 J0.017
G2 X1.8352 Y1.4159 I0.0042 J0.0087
G1 X1.8351 Y1.416
G2 X1.8339 Y1.4174 I0.0045 J0.0052
G2 X1.8334 Y1.4184 I0.0033 J0.0022
G1 X1.8332 Y1.4192
G2 X1.833 Y1.42 I0.0038 J0.0012
G3 X1.8316 Y1.4204 I-0.0014 J-0.0024
G1 X1.8315
G2 X1.8296 Y1.4205 I0.0001 J0.0103
G2 X1.828 Y1.4209 I0.0022 J0.0123
G1 Y1.421
G2 X1.8253 Y1.422 I0.0061 J0.0187
G1 Y1.4221
G2 X1.8207 Y1.4251 I0.0109 J0.0215
G2 X1.8182 Y1.4276 I0.0138 J0.0165
G3 X1.8175 Y1.4279 I-0.0019 J-0.0036
G1 X1.8172 Y1.428
G3 X1.8147 Y1.4286 I-0.0065 J-0.022
G1 X1.8143
G1 X1.8134 Y1.4288
G3 X1.8111 Y1.4291 I-0.0083 J-0.0525
G1 X1.811
G1 X1.8109
G3 X1.8011 Y1.4299 I-0.0204 J-0.1807
G1 X1.8008 Y1.43
G1 X1.7979 Y1.4301
G1 X1.7946 Y1.4303
G3 X1.7857 Y1.4307 I-0.0273 J-0.5715
G1 X1.7856
G1 X1.7855
G2 X1.7854 I0.0001 J0.004
G2 X1.7852 I0.0001 J0.004
G2 X1.7851 I0.0001 J0.004
G2 X1.785 I0.0001 J0.004
G2 X1.7848 I0.0001 J0.004
G1 X1.7847
G1 X1.7846
G1 X1.7845
G2 X1.7844 I0.0001 J0.004
G2 X1.7842 I0.0001 J0.004
G2 X1.7841 I0.0001 J0.004
G2 X1.7839 I0.0001 J0.004
G2 X1.7838 I0.0001 J0.004
G1 X1.7837
G1 X1.7836
G1 X1.7811 Y1.4308
G1 X1.7784 Y1.4309
G1 X1.7723 Y1.431
G1 X1.7653 Y1.4312
G1 X1.7635
G1 X1.7616 Y1.4313
G1 X1.7597
G1 X1.7577
G1 X1.7557 Y1.4314
G1 X1.7536
G1 X1.7514
G1 X1.7414 Y1.4316
G1 X1.73 Y1.4317
G1 X1.727
G1 X1.7263
G1 X1.7261
G1 X1.7198 Y1.4318
G1 X1.713
G3 X1.6975 Y1.4319 I-0.0376 J-4.5986
G1 X1.6893 Y1.432
G1 X1.6704 Y1.4321
G1 X1.6489
G1 X1.6433
G1 X1.6376
G1 X1.6114 Y1.4322
G1 X1.6046
G1 X1.5976
G1 X1.5904
G1 X1.5574 Y1.4323
G1 X1.5398
G1 X1.4996
G1 X1.1869
G1 X1.1857 Y1.3949
G1 X1.1856 Y1.3919
G3 Y1.389 I0.1452 J-0.0034
G3 Y1.3831 I0.3356 J-0.0024
G1 Y1.3791
G1 X1.1857 Y1.3738
G2 X1.1856 Y1.3665 I-0.1379 J-0.0017
G1 Y1.3664
G1 Y1.3655
G1 X1.1855 Y1.3645
G1 Y1.364
G2 X1.1852 Y1.3618 I-0.0407 J0.003
G2 X1.1842 Y1.3566 I-0.036 J0.0042
G2 X1.1833 Y1.3538 I-0.0263 J0.0072
G2 X1.1827 Y1.3524 I-0.0251 J0.0102
G2 X1.1783 Y1.3463 I-0.0189 J0.009
G2 X1.1752 Y1.3438 I-0.0155 J0.016
G2 X1.1717 Y1.3418 I-0.0172 J0.0255
G1 X1.1709 Y1.3414
G1 X1.1708
G2 X1.1669 Y1.3398 I-0.0181 J0.0397
G2 X1.1627 Y1.3385 I-0.0178 J0.0513
G1 X1.1622 Y1.3384
G1 X1.1617 Y1.3383
G1 X1.1616
G2 X1.1571 Y1.3373 I-0.0212 J0.0862
G1 X1.156 Y1.3371
G2 X1.1549 Y1.3369 I-0.0126 J0.0675
G1 X1.1543 Y1.3368
G2 X1.1439 Y1.3354 I-0.027 J0.1646
G2 X1.1323 Y1.3344 I-0.0298 J0.2921
G1 X1.1293 Y1.3343
G2 X1.1161 Y1.3337 I-0.0361 J0.6532
G1 X1.1127 Y1.3336
G1 X1.1093 Y1.3335
G2 X1.1075 Y1.3334 I-0.0033 J0.0904
G1 X1.104 Y1.3333
G1 X1.1022
G1 X1.1021
G1 X1.0985 Y1.3332
G1 X1.0984
G2 X1.0618 Y1.3329 I-0.0403 J2.5088
G2 X1.0594 I-0.0016 J0.1952
G1 X1.0497
G1 X1.0393
G2 X1.0161 I0.0132 J14.9374
G1 X0.99 Y1.333
G1 X0.9832
G1 X0.9528 Y1.3331
G1 X0.9366
G1 X0.9283
G3 X0.8518 Y1.333 I-0.006 J-44.2517
G1 X0.8263
G1 X0.8195 Y1.3329
G1 X0.804
G1 X0.7862 Y1.3328
G1 X0.7768 Y1.3327
G1 X0.7667 Y1.3326
G1 X0.7615 Y1.3325
G1 X0.7503 Y1.3324
G1 X0.7446 Y1.3323
G3 X0.7184 Y1.3316 I0.0203 J-1.292
G1 X0.7151 Y1.3315
G1 X0.7147
G1 X0.7113 Y1.3313
G3 X0.7045 Y1.3309 I0.0135 J-0.2791
G1 X0.7044
G3 X0.701 Y1.3306 I0.0134 J-0.1875
G1 X0.7001 Y1.3305
G1 X0.6983 Y1.3304
G3 X0.6949 Y1.3299 I0.0068 J-0.066
G3 X0.6916 Y1.3293 I0.0057 J-0.0384
G3 X0.6902 Y1.3289 I0.0027 J-0.0115
G1 Y1.3288
G3 X0.6895 Y1.3286 I0.0013 J-0.0036
G1 X0.6893 Y1.3283
G2 X0.6859 Y1.3252 I-0.0165 J0.0143
G2 X0.6818 Y1.3227 I-0.014 J0.0182
G2 X0.6785 Y1.3215 I-0.0073 J0.0153
G1 X0.6784
G2 X0.676 Y1.3212 I-0.0026 J0.0107
G3 X0.675 Y1.321 I0.0 J-0.0035
G3 X0.6745 Y1.3208 I0.0005 J-0.0019
G2 X0.6738 Y1.3185 I-0.0054 J0.0004
G2 X0.6735 Y1.318 I-0.0035 J0.002
G1 X0.673 Y1.3174
G2 X0.6726 Y1.317 I-0.0031 J0.0025
G2 X0.6704 Y1.3155 I-0.0062 J0.0067
G2 X0.667 Y1.3142 I-0.0075 J0.015
G2 X0.6649 Y1.3137 I-0.0069 J0.0264
G1 X0.6648
G1 X0.6643
G1 Y1.3136
G1 X0.6637
G2 X0.6623 Y1.3134 I-0.0038 J0.0266
G2 X0.6588 Y1.3132 I-0.0036 J0.0388
G2 X0.6515 Y1.3143 I0.0001 J0.0266
G2 X0.645 Y1.3169 I0.0095 J0.0331
G2 X0.6411 Y1.3192 I0.0232 J0.0441
G2 X0.6363 Y1.3226 I0.0349 J0.0539
G2 X0.6351 Y1.3236 I0.0268 J0.0349
G1 X0.6345 Y1.324
G1 Y1.3241
G2 X0.6282 Y1.3296 I0.0715 J0.0865
G1 X0.6276 Y1.3302
G1 X0.627 Y1.3308
G1 X0.6258 Y1.332
G1 X0.6257 Y1.3321
G2 X0.6233 Y1.3347 I0.0579 J0.0577
G2 X0.6187 Y1.3402 I0.0563 J0.0517
G2 X0.6159 Y1.3442 I0.0432 J0.0325
G2 X0.6128 Y1.3502 I0.0346 J0.0215
G1 Y1.3503
G1 X0.6125 Y1.351
G2 Y1.3511 I0.0037 J0.0015
G1 X0.6122 Y1.3519
G2 X0.6111 Y1.3561 I0.0278 J0.0096
G2 X0.6114 Y1.3678 I0.0265 J0.0051
G2 X0.6136 Y1.3739 I0.0311 J-0.0078
G2 X0.6152 Y1.3769 I0.0389 J-0.0187
G2 X0.6172 Y1.3799 I0.0389 J-0.0227
G2 X0.6221 Y1.3861 I0.0531 J-0.037
G1 Y1.3862
G1 X0.6227 Y1.3869
G1 X0.6228
G2 X0.6256 Y1.3899 I0.082 J-0.0756
G2 X0.635 Y1.3975 I0.0407 J-0.0405
G2 X0.646 Y1.4028 I0.0262 J-0.04
G2 X0.6541 Y1.4046 I0.0128 J-0.0384
G2 X0.6653 Y1.4042 I0.0042 J-0.0359
G2 X0.6791 Y1.3979 I-0.0067 J-0.0332
G3 X0.6794 Y1.3978 I0.001 J0.0013
G1 Y1.3977
G3 X0.68 Y1.3975 I0.0024 J0.0046
G3 X0.6815 Y1.397 I0.0053 J0.0138
G1 X0.682 Y1.3969
G3 X0.6861 Y1.3961 I0.0103 J0.0439
G1 X0.6875 Y1.3959
G1 X0.6874
G1 X0.6881 Y1.3958
G3 X0.6917 Y1.3955 I0.0145 J0.1201
G3 X0.6967 Y1.3951 I0.0246 J0.2772
G3 X0.7033 Y1.3947 I0.0202 J0.2846
G2 X0.7034 I-0.0002 J-0.004
G2 X0.7035 I-0.0001 J-0.004
G2 X0.7036 Y1.3946 I-0.0001 J-0.004
G2 X0.7038 I-0.0001 J-0.004
G1 X0.7039
G3 X0.713 Y1.3943 I0.0412 J0.872
G3 X0.7251 Y1.3939 I0.0386 J1.1006
G1 X0.7252
G2 X0.7254 I0.0 J-0.004
G2 X0.7256 I0.0 J-0.004
G2 X0.7257 I0.0 J-0.004
G1 X0.7258
G1 X0.7262
G1 X0.7266
G1 X0.727
G1 X0.7274 Y1.3938
G1 X0.7291
G1 X0.729
G1 X0.7365 Y1.3937
G1 X0.7385 Y1.3936
G1 X0.7405
G1 X0.7425
G1 X0.752 Y1.3934
G1 X0.7627 Y1.3933
G1 X0.7655
G1 X0.7684 Y1.3932
G1 X0.7713
G1 X0.7849 Y1.3931
G1 X0.7884
G1 X0.792
G1 X0.7957 Y1.393
G3 X0.7977 I0.0712 J13.1027
G0 Z0.125
G0 X0.8016 Y1.2942
G0 Z0.0423
G1 F10.0 Z-0.004
G2 F25.0 X0.7881 Y1.2938 I-0.029 J0.7339
G1 X0.7828 Y1.2937
G2 X0.7641 Y1.2935 I-0.0257 J1.5855
G1 X0.7594
G1 X0.7524
G1 X0.7454
G1 X0.7399
G3 X0.7347 Y1.2934 I-0.0008 J-0.5216
G1 X0.7323
G1 X0.73
G1 X0.7299
G1 X0.7277
G1 X0.7233
G1 X0.7191 Y1.2933
G1 X0.7153
G1 X0.7116 Y1.2932
G1 X0.7082 Y1.2931
G1 X0.705
G1 X0.702 Y1.293
G1 X0.6992 Y1.2929
G1 X0.6966 Y1.2928
G3 X0.6867 Y1.2924 I0.0165 J-0.5471
G3 X0.6792 Y1.292 I0.0177 J-0.3927
G1 X0.6765 Y1.2918
G1 X0.6764
G1 X0.674 Y1.2917
G3 X0.6718 Y1.2915 I0.0085 J-0.1134
G3 X0.6642 Y1.2906 I0.0112 J-0.1321
G1 X0.6637 Y1.2905
G3 X0.6601 Y1.2899 I0.0097 J-0.0634
G1 X0.66 Y1.2898
G3 X0.6581 Y1.2894 I0.0088 J-0.0379
G3 X0.658 Y1.2893 I0.0011 J-0.0038
G1 X0.6576 Y1.2892
G3 X0.6557 Y1.2884 I0.0033 J-0.0107
G2 X0.6549 Y1.288 I-0.0182 J0.0344
G1 X0.6548
G1 X0.654 Y1.2875
G2 X0.641 Y1.2811 I-0.2166 J0.4216
