( Made using CamBam - http://www.cambam.co.uk )
( roland_140_eg_clone_panel 9/1/2015 5:59:55 PM )
( T3 : 3.175 )
G21 G90 G64 G40
G0 Z3.0
( T3 : 3.175 )
T3 M6
( mounting )
G17
M3 S1000
G0 X6.6104 Y2.9957
G0 Z3.0
G0 X6.6229 Y2.9957
G0 Z0.5
G1 F1000.0 Z0.0
G2 F2000.0 X6.6041 Y2.9849 Z-0.0333 I-0.0125 J0.0
G2 Y3.0065 Z-0.0667 I0.0062 J0.0108
G2 X6.6229 Y2.9957 Z-0.1 I0.0063 J-0.0108
G2 X6.6041 Y2.9849 Z-0.1333 I-0.0125 J0.0
G2 Y3.0065 Z-0.1667 I0.0062 J0.0108
G2 X6.6229 Y2.9957 Z-0.2 I0.0063 J-0.0108
G2 X6.6041 Y2.9849 Z-0.2333 I-0.0125 J0.0
G2 Y3.0065 Z-0.2667 I0.0062 J0.0108
G2 X6.6229 Y2.9957 Z-0.3 I0.0063 J-0.0108
G2 X6.6041 Y2.9849 Z-0.3333 I-0.0125 J0.0
G2 Y3.0065 Z-0.3667 I0.0063 J0.0108
G2 X6.6229 Y2.9957 Z-0.4 I0.0062 J-0.0108
G2 X6.6041 Y2.9849 Z-0.4333 I-0.0125 J0.0
G2 Y3.0065 Z-0.4667 I0.0063 J0.0108
G2 X6.6229 Y2.9957 Z-0.5 I0.0062 J-0.0108
G2 X6.6041 Y2.9849 Z-0.5333 I-0.0125 J0.0
G2 Y3.0065 Z-0.5667 I0.0063 J0.0108
G2 X6.6229 Y2.9957 Z-0.6 I0.0062 J-0.0108
G2 X6.6041 Y2.9849 Z-0.6333 I-0.0125 J0.0
G2 Y3.0065 Z-0.6667 I0.0062 J0.0108
G2 X6.6229 Y2.9957 Z-0.7 I0.0063 J-0.0108
G2 X6.6041 Y2.9849 Z-0.7333 I-0.0125 J0.0
G2 Y3.0065 Z-0.7667 I0.0062 J0.0108
G2 X6.6229 Y2.9957 Z-0.8 I0.0063 J-0.0108
G2 X6.6041 Y2.9849 Z-0.8333 I-0.0125 J0.0
G2 Y3.0065 Z-0.8667 I0.0062 J0.0108
G2 X6.6229 Y2.9957 Z-0.9 I0.0063 J-0.0108
G2 X6.6041 Y2.9849 Z-0.9333 I-0.0125 J0.0
G2 Y3.0065 Z-0.9667 I0.0062 J0.0108
G2 X6.6229 Y2.9957 Z-1.0 I0.0063 J-0.0108
G2 X6.6041 Y2.9849 Z-1.0333 I-0.0125 J0.0
G2 Y3.0065 Z-1.0667 I0.0062 J0.0108
G2 X6.6229 Y2.9957 Z-1.1 I0.0063 J-0.0108
G2 X6.6041 Y2.9849 Z-1.1333 I-0.0125 J0.0
G2 Y3.0065 Z-1.1667 I0.0062 J0.0108
G2 X6.6229 Y2.9957 Z-1.2 I0.0063 J-0.0108
G2 X6.6041 Y2.9849 Z-1.2333 I-0.0125 J0.0
G2 Y3.0065 Z-1.2667 I0.0062 J0.0108
G2 X6.6229 Y2.9957 Z-1.3 I0.0063 J-0.0108
G2 X6.6041 Y2.9849 Z-1.3333 I-0.0125 J0.0
G2 Y3.0065 Z-1.3667 I0.0062 J0.0108
G2 X6.6229 Y2.9957 Z-1.4 I0.0063 J-0.0108
G2 X6.6041 Y2.9849 Z-1.4333 I-0.0125 J0.0
G2 Y3.0065 Z-1.4667 I0.0062 J0.0108
G2 X6.6229 Y2.9957 Z-1.5 I0.0063 J-0.0108
G2 X6.6041 Y2.9849 Z-1.5333 I-0.0125 J0.0
G2 Y3.0065 Z-1.5667 I0.0062 J0.0108
G2 X6.6229 Y2.9957 Z-1.6 I0.0063 J-0.0108
G2 X6.6041 Y2.9849 Z-1.6333 I-0.0125 J0.0
G2 Y3.0065 Z-1.6667 I0.0062 J0.0108
G2 X6.6229 Y2.9957 Z-1.7 I0.0063 J-0.0108
G2 X6.6041 Y2.9849 Z-1.7333 I-0.0125 J0.0
G2 Y3.0065 Z-1.7667 I0.0062 J0.0108
G2 X6.6229 Y2.9957 Z-1.8 I0.0063 J-0.0108
G2 X6.6041 Y2.9849 Z-1.8333 I-0.0125 J0.0
G2 Y3.0065 Z-1.8667 I0.0062 J0.0108
G2 X6.6229 Y2.9957 Z-1.9 I0.0063 J-0.0108
G2 X6.6041 Y2.9849 Z-1.9333 I-0.0125 J0.0
G2 Y3.0065 Z-1.9667 I0.0062 J0.0108
G2 X6.6229 Y2.9957 Z-2.0 I0.0063 J-0.0108
G2 X6.6041 Y2.9849 Z-2.0333 I-0.0125 J0.0
G2 Y3.0065 Z-2.0667 I0.0062 J0.0108
G2 X6.6229 Y2.9957 Z-2.1 I0.0063 J-0.0108
G2 X6.6041 Y2.9849 Z-2.1333 I-0.0125 J0.0
G2 Y3.0065 Z-2.1667 I0.0062 J0.0108
G2 X6.6229 Y2.9957 Z-2.2 I0.0063 J-0.0108
G2 X6.6041 Y2.9849 Z-2.2333 I-0.0125 J0.0
G2 Y3.0065 Z-2.2667 I0.0062 J0.0108
G2 X6.6229 Y2.9957 Z-2.3 I0.0063 J-0.0108
G2 X6.6041 Y2.9849 Z-2.3333 I-0.0125 J0.0
G2 Y3.0065 Z-2.3667 I0.0063 J0.0108
G2 X6.6229 Y2.9957 Z-2.4 I0.0062 J-0.0108
G2 X6.6041 Y2.9849 Z-2.4333 I-0.0125 J0.0
G2 Y3.0065 Z-2.4667 I0.0063 J0.0108
G2 X6.6229 Y2.9957 Z-2.5 I0.0062 J-0.0108
G2 X6.6041 Y2.9849 Z-2.5333 I-0.0125 J0.0
G2 Y3.0065 Z-2.5667 I0.0063 J0.0108
G2 X6.6229 Y2.9957 Z-2.6 I0.0062 J-0.0108
G2 X6.6041 Y2.9849 Z-2.6333 I-0.0125 J0.0
G2 Y3.0065 Z-2.6667 I0.0063 J0.0108
G2 X6.6229 Y2.9957 Z-2.7 I0.0062 J-0.0108
G2 X6.6041 Y2.9849 Z-2.7333 I-0.0125 J0.0
G2 Y3.0065 Z-2.7667 I0.0063 J0.0108
G2 X6.6229 Y2.9957 Z-2.8 I0.0062 J-0.0108
G2 X6.6041 Y2.9849 Z-2.8333 I-0.0125 J0.0
G2 Y3.0065 Z-2.8667 I0.0063 J0.0108
G2 X6.6229 Y2.9957 Z-2.9 I0.0062 J-0.0108
G2 X6.6041 Y2.9849 Z-2.9333 I-0.0125 J0.0
G2 Y3.0065 Z-2.9667 I0.0063 J0.0108
G2 X6.6229 Y2.9957 Z-3.0 I0.0062 J-0.0108
G2 X6.6041 Y2.9849 Z-3.0333 I-0.0125 J0.0
G2 Y3.0065 Z-3.0667 I0.0063 J0.0108
G2 X6.6229 Y2.9957 Z-3.1 I0.0062 J-0.0108
G2 X6.6041 Y2.9849 Z-3.1333 I-0.0125 J0.0
G2 Y3.0065 Z-3.1667 I0.0063 J0.0108
G2 X6.6229 Y2.9957 Z-3.2 I0.0062 J-0.0108
G2 X6.6041 Y2.9849 I-0.0125 J0.0
G2 Y3.0065 I0.0063 J0.0108
G2 X6.6229 Y2.9957 I0.0062 J-0.0108
G0 Z3.0
G0 X8.8925 Y14.168
G0 Z0.5
G1 F1000.0 Z0.0
G2 F2000.0 X8.8738 Y14.1571 Z-0.0333 I-0.0125 J0.0
G2 Y14.1788 Z-0.0667 I0.0062 J0.0108
G2 X8.8925 Y14.168 Z-0.1 I0.0062 J-0.0108
G2 X8.8738 Y14.1571 Z-0.1333 I-0.0125 J0.0
G2 Y14.1788 Z-0.1667 I0.0062 J0.0108
G2 X8.8925 Y14.168 Z-0.2 I0.0062 J-0.0108
G2 X8.8738 Y14.1571 Z-0.2333 I-0.0125 J0.0
G2 Y14.1788 Z-0.2667 I0.0062 J0.0108
G2 X8.8925 Y14.168 Z-0.3 I0.0062 J-0.0108
G2 X8.8738 Y14.1571 Z-0.3333 I-0.0125 J0.0
G2 Y14.1788 Z-0.3667 I0.0062 J0.0108
G2 X8.8925 Y14.168 Z-0.4 I0.0062 J-0.0108
G2 X8.8738 Y14.1571 Z-0.4333 I-0.0125 J0.0
G2 Y14.1788 Z-0.4667 I0.0062 J0.0108
G2 X8.8925 Y14.168 Z-0.5 I0.0062 J-0.0108
G2 X8.8738 Y14.1571 Z-0.5333 I-0.0125 J0.0
G2 Y14.1788 Z-0.5667 I0.0062 J0.0108
G2 X8.8925 Y14.168 Z-0.6 I0.0062 J-0.0108
G2 X8.8738 Y14.1571 Z-0.6333 I-0.0125 J0.0
G2 Y14.1788 Z-0.6667 I0.0062 J0.0108
G2 X8.8925 Y14.168 Z-0.7 I0.0062 J-0.0108
G2 X8.8738 Y14.1571 Z-0.7333 I-0.0125 J0.0
G2 Y14.1788 Z-0.7667 I0.0062 J0.0108
G2 X8.8925 Y14.168 Z-0.8 I0.0062 J-0.0108
G2 X8.8738 Y14.1571 Z-0.8333 I-0.0125 J0.0
G2 Y14.1788 Z-0.8667 I0.0062 J0.0108
G2 X8.8925 Y14.168 Z-0.9 I0.0062 J-0.0108
G2 X8.8738 Y14.1571 Z-0.9333 I-0.0125 J0.0
G2 Y14.1788 Z-0.9667 I0.0062 J0.0108
G2 X8.8925 Y14.168 Z-1.0 I0.0062 J-0.0108
G2 X8.8738 Y14.1571 Z-1.0333 I-0.0125 J0.0
G2 Y14.1788 Z-1.0667 I0.0062 J0.0108
G2 X8.8925 Y14.168 Z-1.1 I0.0062 J-0.0108
G2 X8.8738 Y14.1571 Z-1.1333 I-0.0125 J0.0
G2 Y14.1788 Z-1.1667 I0.0062 J0.0108
G2 X8.8925 Y14.168 Z-1.2 I0.0063 J-0.0108
G2 X8.8738 Y14.1571 Z-1.2333 I-0.0125 J0.0
G2 Y14.1788 Z-1.2667 I0.0062 J0.0108
G2 X8.8925 Y14.168 Z-1.3 I0.0063 J-0.0108
G2 X8.8738 Y14.1571 Z-1.3333 I-0.0125 J0.0
G2 Y14.1788 Z-1.3667 I0.0062 J0.0108
G2 X8.8925 Y14.168 Z-1.4 I0.0063 J-0.0108
G2 X8.8738 Y14.1571 Z-1.4333 I-0.0125 J0.0
G2 Y14.1788 Z-1.4667 I0.0062 J0.0108
G2 X8.8925 Y14.168 Z-1.5 I0.0063 J-0.0108
G2 X8.8738 Y14.1571 Z-1.5333 I-0.0125 J0.0
G2 Y14.1788 Z-1.5667 I0.0062 J0.0108
G2 X8.8925 Y14.168 Z-1.6 I0.0063 J-0.0108
G2 X8.8738 Y14.1571 Z-1.6333 I-0.0125 J0.0
G2 Y14.1788 Z-1.6667 I0.0062 J0.0108
G2 X8.8925 Y14.168 Z-1.7 I0.0063 J-0.0108
G2 X8.8738 Y14.1571 Z-1.7333 I-0.0125 J0.0
G2 Y14.1788 Z-1.7667 I0.0062 J0.0108
G2 X8.8925 Y14.168 Z-1.8 I0.0063 J-0.0108
G2 X8.8738 Y14.1571 Z-1.8333 I-0.0125 J0.0
G2 Y14.1788 Z-1.8667 I0.0062 J0.0108
G2 X8.8925 Y14.168 Z-1.9 I0.0063 J-0.0108
G2 X8.8738 Y14.1571 Z-1.9333 I-0.0125 J0.0
G2 Y14.1788 Z-1.9667 I0.0062 J0.0108
G2 X8.8925 Y14.168 Z-2.0 I0.0063 J-0.0108
G2 X8.8738 Y14.1571 Z-2.0333 I-0.0125 J0.0
G2 Y14.1788 Z-2.0667 I0.0062 J0.0108
G2 X8.8925 Y14.168 Z-2.1 I0.0063 J-0.0108
G2 X8.8738 Y14.1571 Z-2.1333 I-0.0125 J0.0
G2 Y14.1788 Z-2.1667 I0.0062 J0.0108
G2 X8.8925 Y14.168 Z-2.2 I0.0063 J-0.0108
G2 X8.8738 Y14.1571 Z-2.2333 I-0.0125 J0.0
G2 Y14.1788 Z-2.2667 I0.0062 J0.0108
G2 X8.8925 Y14.168 Z-2.3 I0.0062 J-0.0108
G2 X8.8738 Y14.1571 Z-2.3333 I-0.0125 J0.0
G2 Y14.1788 Z-2.3667 I0.0062 J0.0108
G2 X8.8925 Y14.168 Z-2.4 I0.0062 J-0.0108
G2 X8.8738 Y14.1571 Z-2.4333 I-0.0125 J0.0
G2 Y14.1788 Z-2.4667 I0.0062 J0.0108
G2 X8.8925 Y14.168 Z-2.5 I0.0062 J-0.0108
G2 X8.8738 Y14.1571 Z-2.5333 I-0.0125 J0.0
G2 Y14.1788 Z-2.5667 I0.0063 J0.0108
G2 X8.8925 Y14.168 Z-2.6 I0.0062 J-0.0108
G2 X8.8738 Y14.1571 Z-2.6333 I-0.0125 J0.0
G2 Y14.1788 Z-2.6667 I0.0063 J0.0108
G2 X8.8925 Y14.168 Z-2.7 I0.0062 J-0.0108
G2 X8.8738 Y14.1571 Z-2.7333 I-0.0125 J0.0
G2 Y14.1788 Z-2.7667 I0.0063 J0.0108
G2 X8.8925 Y14.168 Z-2.8 I0.0062 J-0.0108
G2 X8.8738 Y14.1571 Z-2.8333 I-0.0125 J0.0
G2 Y14.1788 Z-2.8667 I0.0063 J0.0108
G2 X8.8925 Y14.168 Z-2.9 I0.0062 J-0.0108
G2 X8.8738 Y14.1571 Z-2.9333 I-0.0125 J0.0
G2 Y14.1788 Z-2.9667 I0.0063 J0.0108
G2 X8.8925 Y14.168 Z-3.0 I0.0062 J-0.0108
G2 X8.8738 Y14.1571 Z-3.0333 I-0.0125 J0.0
G2 Y14.1788 Z-3.0667 I0.0063 J0.0108
G2 X8.8925 Y14.168 Z-3.1 I0.0062 J-0.0108
G2 X8.8738 Y14.1571 Z-3.1333 I-0.0125 J0.0
G2 Y14.1788 Z-3.1667 I0.0063 J0.0108
G2 X8.8925 Y14.168 Z-3.2 I0.0062 J-0.0108
G2 X8.8738 Y14.1571 I-0.0125 J0.0
G2 Y14.1788 I0.0063 J0.0108
G2 X8.8925 Y14.168 I0.0062 J-0.0108
G0 Z3.0
G0 X23.2607
G0 Z0.5
G1 F1000.0 Z0.0
G2 F2000.0 X23.2419 Y14.1571 Z-0.0333 I-0.0125 J0.0
G2 Y14.1788 Z-0.0667 I0.0063 J0.0108
G2 X23.2607 Y14.168 Z-0.1 I0.0063 J-0.0108
G2 X23.2419 Y14.1571 Z-0.1333 I-0.0125 J0.0
G2 Y14.1788 Z-0.1667 I0.0063 J0.0108
G2 X23.2607 Y14.168 Z-0.2 I0.0063 J-0.0108
G2 X23.2419 Y14.1571 Z-0.2333 I-0.0125 J0.0
G2 Y14.1788 Z-0.2667 I0.0063 J0.0108
G2 X23.2607 Y14.168 Z-0.3 I0.0063 J-0.0108
G2 X23.2419 Y14.1571 Z-0.3333 I-0.0125 J0.0
G2 Y14.1788 Z-0.3667 I0.0063 J0.0108
G2 X23.2607 Y14.168 Z-0.4 I0.0063 J-0.0108
G2 X23.2419 Y14.1571 Z-0.4333 I-0.0125 J0.0
G2 Y14.1788 Z-0.4667 I0.0063 J0.0108
G2 X23.2607 Y14.168 Z-0.5 I0.0063 J-0.0108
G2 X23.2419 Y14.1571 Z-0.5333 I-0.0125 J0.0
G2 Y14.1788 Z-0.5667 I0.0063 J0.0108
G2 X23.2607 Y14.168 Z-0.6 I0.0063 J-0.0108
G2 X23.2419 Y14.1571 Z-0.6333 I-0.0125 J0.0
G2 Y14.1788 Z-0.6667 I0.0063 J0.0108
G2 X23.2607 Y14.168 Z-0.7 I0.0063 J-0.0108
G2 X23.2419 Y14.1571 Z-0.7333 I-0.0125 J0.0
G2 Y14.1788 Z-0.7667 I0.0063 J0.0108
G2 X23.2607 Y14.168 Z-0.8 I0.0063 J-0.0108
G2 X23.2419 Y14.1571 Z-0.8333 I-0.0125 J0.0
G2 Y14.1788 Z-0.8667 I0.0063 J0.0108
G2 X23.2607 Y14.168 Z-0.9 I0.0063 J-0.0108
G2 X23.2419 Y14.1571 Z-0.9333 I-0.0125 J0.0
G2 Y14.1788 Z-0.9667 I0.0063 J0.0108
G2 X23.2607 Y14.168 Z-1.0 I0.0063 J-0.0108
G2 X23.2419 Y14.1571 Z-1.0333 I-0.0125 J0.0
G2 Y14.1788 Z-1.0667 I0.0063 J0.0108
G2 X23.2607 Y14.168 Z-1.1 I0.0063 J-0.0108
G2 X23.2419 Y14.1571 Z-1.1333 I-0.0125 J0.0
G2 Y14.1788 Z-1.1667 I0.0063 J0.0108
G2 X23.2607 Y14.168 Z-1.2 I0.0063 J-0.0108
G2 X23.2419 Y14.1571 Z-1.2333 I-0.0125 J0.0
G2 Y14.1788 Z-1.2667 I0.0062 J0.0108
G2 X23.2607 Y14.168 Z-1.3 I0.0063 J-0.0108
G2 X23.2419 Y14.1571 Z-1.3333 I-0.0125 J0.0
G2 Y14.1788 Z-1.3667 I0.0062 J0.0108
G2 X23.2607 Y14.168 Z-1.4 I0.0063 J-0.0108
G2 X23.2419 Y14.1571 Z-1.4333 I-0.0125 J0.0
G2 Y14.1788 Z-1.4667 I0.0062 J0.0108
G2 X23.2607 Y14.168 Z-1.5 I0.0063 J-0.0108
G2 X23.2419 Y14.1571 Z-1.5333 I-0.0125 J0.0
G2 Y14.1788 Z-1.5667 I0.0062 J0.0108
G2 X23.2607 Y14.168 Z-1.6 I0.0063 J-0.0108
G2 X23.2419 Y14.1571 Z-1.6333 I-0.0125 J0.0
G2 Y14.1788 Z-1.6667 I0.0062 J0.0108
G2 X23.2607 Y14.168 Z-1.7 I0.0063 J-0.0108
G2 X23.2419 Y14.1571 Z-1.7333 I-0.0125 J0.0
G2 Y14.1788 Z-1.7667 I0.0062 J0.0108
G2 X23.2607 Y14.168 Z-1.8 I0.0063 J-0.0108
G2 X23.2419 Y14.1571 Z-1.8333 I-0.0125 J0.0
G2 Y14.1788 Z-1.8667 I0.0062 J0.0108
G2 X23.2607 Y14.168 Z-1.9 I0.0063 J-0.0108
G2 X23.2419 Y14.1571 Z-1.9333 I-0.0125 J0.0
G2 Y14.1788 Z-1.9667 I0.0062 J0.0108
G2 X23.2607 Y14.168 Z-2.0 I0.0063 J-0.0108
G2 X23.2419 Y14.1571 Z-2.0333 I-0.0125 J0.0
G2 Y14.1788 Z-2.0667 I0.0062 J0.0108
G2 X23.2607 Y14.168 Z-2.1 I0.0063 J-0.0108
G2 X23.2419 Y14.1571 Z-2.1333 I-0.0125 J0.0
G2 Y14.1788 Z-2.1667 I0.0062 J0.0108
G2 X23.2607 Y14.168 Z-2.2 I0.0063 J-0.0108
G2 X23.2419 Y14.1571 Z-2.2333 I-0.0125 J0.0
G2 Y14.1788 Z-2.2667 I0.0063 J0.0108
G2 X23.2607 Y14.168 Z-2.3 I0.0063 J-0.0108
G2 X23.2419 Y14.1571 Z-2.3333 I-0.0125 J0.0
G2 Y14.1788 Z-2.3667 I0.0063 J0.0108
G2 X23.2607 Y14.168 Z-2.4 I0.0063 J-0.0108
G2 X23.2419 Y14.1571 Z-2.4333 I-0.0125 J0.0
G2 Y14.1788 Z-2.4667 I0.0063 J0.0108
G2 X23.2607 Y14.168 Z-2.5 I0.0062 J-0.0108
G2 X23.2419 Y14.1571 Z-2.5333 I-0.0125 J0.0
G2 Y14.1788 Z-2.5667 I0.0063 J0.0108
G2 X23.2607 Y14.168 Z-2.6 I0.0062 J-0.0108
G2 X23.2419 Y14.1571 Z-2.6333 I-0.0125 J0.0
G2 Y14.1788 Z-2.6667 I0.0063 J0.0108
G2 X23.2607 Y14.168 Z-2.7 I0.0062 J-0.0108
G2 X23.2419 Y14.1571 Z-2.7333 I-0.0125 J0.0
G2 Y14.1788 Z-2.7667 I0.0063 J0.0108
G2 X23.2607 Y14.168 Z-2.8 I0.0062 J-0.0108
G2 X23.2419 Y14.1571 Z-2.8333 I-0.0125 J0.0
G2 Y14.1788 Z-2.8667 I0.0063 J0.0108
G2 X23.2607 Y14.168 Z-2.9 I0.0062 J-0.0108
G2 X23.2419 Y14.1571 Z-2.9333 I-0.0125 J0.0
G2 Y14.1788 Z-2.9667 I0.0063 J0.0108
G2 X23.2607 Y14.168 Z-3.0 I0.0062 J-0.0108
G2 X23.2419 Y14.1571 Z-3.0333 I-0.0125 J0.0
G2 Y14.1788 Z-3.0667 I0.0063 J0.0108
G2 X23.2607 Y14.168 Z-3.1 I0.0062 J-0.0108
G2 X23.2419 Y14.1571 Z-3.1333 I-0.0125 J0.0
G2 Y14.1788 Z-3.1667 I0.0063 J0.0108
G2 X23.2607 Y14.168 Z-3.2 I0.0062 J-0.0108
G2 X23.2419 Y14.1571 I-0.0125 J0.0
G2 Y14.1788 I0.0063 J0.0108
G2 X23.2607 Y14.168 I0.0062 J-0.0108
G0 Z3.0
G0 X19.822 Y37.7163
G0 Z0.5
G1 F1000.0 Z0.0
G2 F2000.0 X19.8032 Y37.7055 Z-0.0333 I-0.0125 J0.0
G2 Y37.7271 Z-0.0667 I0.0063 J0.0108
G2 X19.822 Y37.7163 Z-0.1 I0.0062 J-0.0108
G2 X19.8032 Y37.7055 Z-0.1333 I-0.0125 J0.0
G2 Y37.7271 Z-0.1667 I0.0063 J0.0108
G2 X19.822 Y37.7163 Z-0.2 I0.0062 J-0.0108
G2 X19.8032 Y37.7055 Z-0.2333 I-0.0125 J0.0
G2 Y37.7271 Z-0.2667 I0.0063 J0.0108
G2 X19.822 Y37.7163 Z-0.3 I0.0062 J-0.0108
G2 X19.8032 Y37.7055 Z-0.3333 I-0.0125 J0.0
G2 Y37.7271 Z-0.3667 I0.0063 J0.0108
G2 X19.822 Y37.7163 Z-0.4 I0.0062 J-0.0108
G2 X19.8032 Y37.7055 Z-0.4333 I-0.0125 J0.0
G2 Y37.7271 Z-0.4667 I0.0063 J0.0108
G2 X19.822 Y37.7163 Z-0.5 I0.0062 J-0.0108
G2 X19.8032 Y37.7055 Z-0.5333 I-0.0125 J0.0
G2 Y37.7271 Z-0.5667 I0.0063 J0.0108
G2 X19.822 Y37.7163 Z-0.6 I0.0062 J-0.0108
G2 X19.8032 Y37.7055 Z-0.6333 I-0.0125 J0.0
G2 Y37.7271 Z-0.6667 I0.0063 J0.0108
G2 X19.822 Y37.7163 Z-0.7 I0.0062 J-0.0108
G2 X19.8032 Y37.7055 Z-0.7333 I-0.0125 J0.0
G2 Y37.7271 Z-0.7667 I0.0063 J0.0108
G2 X19.822 Y37.7163 Z-0.8 I0.0062 J-0.0108
G2 X19.8032 Y37.7055 Z-0.8333 I-0.0125 J0.0
G2 Y37.7271 Z-0.8667 I0.0063 J0.0108
G2 X19.822 Y37.7163 Z-0.9 I0.0062 J-0.0108
G2 X19.8032 Y37.7055 Z-0.9333 I-0.0125 J0.0
G2 Y37.7271 Z-0.9667 I0.0063 J0.0108
G2 X19.822 Y37.7163 Z-1.0 I0.0062 J-0.0108
G2 X19.8032 Y37.7055 Z-1.0333 I-0.0125 J0.0
G2 Y37.7271 Z-1.0667 I0.0063 J0.0108
G2 X19.822 Y37.7163 Z-1.1 I0.0062 J-0.0108
G2 X19.8032 Y37.7055 Z-1.1333 I-0.0125 J0.0
G2 Y37.7271 Z-1.1667 I0.0063 J0.0108
G2 X19.822 Y37.7163 Z-1.2 I0.0062 J-0.0108
G2 X19.8032 Y37.7055 Z-1.2333 I-0.0125 J0.0
G2 Y37.7271 Z-1.2667 I0.0063 J0.0108
G2 X19.822 Y37.7163 Z-1.3 I0.0062 J-0.0108
G2 X19.8032 Y37.7055 Z-1.3333 I-0.0125 J0.0
G2 Y37.7271 Z-1.3667 I0.0063 J0.0108
G2 X19.822 Y37.7163 Z-1.4 I0.0062 J-0.0108
G2 X19.8032 Y37.7055 Z-1.4333 I-0.0125 J0.0
G2 Y37.7271 Z-1.4667 I0.0063 J0.0108
G2 X19.822 Y37.7163 Z-1.5 I0.0062 J-0.0108
G2 X19.8032 Y37.7055 Z-1.5333 I-0.0125 J0.0
G2 Y37.7271 Z-1.5667 I0.0063 J0.0108
G2 X19.822 Y37.7163 Z-1.6 I0.0062 J-0.0108
G2 X19.8032 Y37.7055 Z-1.6333 I-0.0125 J0.0
G2 Y37.7271 Z-1.6667 I0.0063 J0.0108
G2 X19.822 Y37.7163 Z-1.7 I0.0062 J-0.0108
G2 X19.8032 Y37.7055 Z-1.7333 I-0.0125 J0.0
G2 Y37.7271 Z-1.7667 I0.0063 J0.0108
G2 X19.822 Y37.7163 Z-1.8 I0.0062 J-0.0108
G2 X19.8032 Y37.7055 Z-1.8333 I-0.0125 J0.0
G2 Y37.7271 Z-1.8667 I0.0063 J0.0108
G2 X19.822 Y37.7163 Z-1.9 I0.0062 J-0.0108
G2 X19.8032 Y37.7055 Z-1.9333 I-0.0125 J0.0
G2 Y37.7271 Z-1.9667 I0.0063 J0.0108
G2 X19.822 Y37.7163 Z-2.0 I0.0062 J-0.0108
G2 X19.8032 Y37.7055 Z-2.0333 I-0.0125 J0.0
G2 Y37.7271 Z-2.0667 I0.0063 J0.0108
G2 X19.822 Y37.7163 Z-2.1 I0.0062 J-0.0108
G2 X19.8032 Y37.7055 Z-2.1333 I-0.0125 J0.0
G2 Y37.7271 Z-2.1667 I0.0063 J0.0108
G2 X19.822 Y37.7163 Z-2.2 I0.0062 J-0.0108
G2 X19.8032 Y37.7055 Z-2.2333 I-0.0125 J0.0
G2 Y37.7271 Z-2.2667 I0.0063 J0.0108
G2 X19.822 Y37.7163 Z-2.3 I0.0062 J-0.0108
G2 X19.8032 Y37.7055 Z-2.3333 I-0.0125 J0.0
G2 Y37.7271 Z-2.3667 I0.0063 J0.0108
G2 X19.822 Y37.7163 Z-2.4 I0.0062 J-0.0108
G2 X19.8032 Y37.7055 Z-2.4333 I-0.0125 J0.0
G2 Y37.7271 Z-2.4667 I0.0063 J0.0108
G2 X19.822 Y37.7163 Z-2.5 I0.0062 J-0.0108
G2 X19.8032 Y37.7055 Z-2.5333 I-0.0125 J0.0
G2 Y37.7271 Z-2.5667 I0.0063 J0.0108
G2 X19.822 Y37.7163 Z-2.6 I0.0062 J-0.0108
G2 X19.8032 Y37.7055 Z-2.6333 I-0.0125 J0.0
G2 Y37.7271 Z-2.6667 I0.0063 J0.0108
G2 X19.822 Y37.7163 Z-2.7 I0.0062 J-0.0108
G2 X19.8032 Y37.7055 Z-2.7333 I-0.0125 J0.0
G2 Y37.7271 Z-2.7667 I0.0063 J0.0108
G2 X19.822 Y37.7163 Z-2.8 I0.0062 J-0.0108
G2 X19.8032 Y37.7055 Z-2.8333 I-0.0125 J0.0
G2 Y37.7271 Z-2.8667 I0.0063 J0.0108
G2 X19.822 Y37.7163 Z-2.9 I0.0062 J-0.0108
G2 X19.8032 Y37.7055 Z-2.9333 I-0.0125 J0.0
G2 Y37.7271 Z-2.9667 I0.0063 J0.0108
G2 X19.822 Y37.7163 Z-3.0 I0.0062 J-0.0108
G2 X19.8032 Y37.7055 Z-3.0333 I-0.0125 J0.0
G2 Y37.7271 Z-3.0667 I0.0063 J0.0108
G2 X19.822 Y37.7163 Z-3.1 I0.0062 J-0.0108
G2 X19.8032 Y37.7055 Z-3.1333 I-0.0125 J0.0
G2 Y37.7271 Z-3.1667 I0.0063 J0.0108
G2 X19.822 Y37.7163 Z-3.2 I0.0062 J-0.0108
G2 X19.8032 Y37.7055 I-0.0125 J0.0
G2 Y37.7271 I0.0063 J0.0108
G2 X19.822 Y37.7163 I0.0062 J-0.0108
G0 Z3.0
G0 Y55.7785
G0 Z0.5
G1 F1000.0 Z0.0
G2 F2000.0 X19.8032 Y55.7677 Z-0.0333 I-0.0125 J0.0
G2 Y55.7893 Z-0.0667 I0.0063 J0.0108
G2 X19.822 Y55.7785 Z-0.1 I0.0062 J-0.0108
G2 X19.8032 Y55.7677 Z-0.1333 I-0.0125 J0.0
G2 Y55.7893 Z-0.1667 I0.0063 J0.0108
G2 X19.822 Y55.7785 Z-0.2 I0.0062 J-0.0108
G2 X19.8032 Y55.7677 Z-0.2333 I-0.0125 J0.0
G2 Y55.7893 Z-0.2667 I0.0063 J0.0108
G2 X19.822 Y55.7785 Z-0.3 I0.0062 J-0.0108
G2 X19.8032 Y55.7677 Z-0.3333 I-0.0125 J0.0
G2 Y55.7893 Z-0.3667 I0.0063 J0.0108
G2 X19.822 Y55.7785 Z-0.4 I0.0062 J-0.0108
G2 X19.8032 Y55.7677 Z-0.4333 I-0.0125 J0.0
G2 Y55.7893 Z-0.4667 I0.0063 J0.0108
G2 X19.822 Y55.7785 Z-0.5 I0.0062 J-0.0108
G2 X19.8032 Y55.7677 Z-0.5333 I-0.0125 J0.0
G2 Y55.7893 Z-0.5667 I0.0063 J0.0108
G2 X19.822 Y55.7785 Z-0.6 I0.0062 J-0.0108
G2 X19.8032 Y55.7677 Z-0.6333 I-0.0125 J0.0
G2 Y55.7893 Z-0.6667 I0.0063 J0.0108
G2 X19.822 Y55.7785 Z-0.7 I0.0062 J-0.0108
G2 X19.8032 Y55.7677 Z-0.7333 I-0.0125 J0.0
G2 Y55.7893 Z-0.7667 I0.0063 J0.0108
G2 X19.822 Y55.7785 Z-0.8 I0.0062 J-0.0108
G2 X19.8032 Y55.7677 Z-0.8333 I-0.0125 J0.0
G2 Y55.7893 Z-0.8667 I0.0063 J0.0108
G2 X19.822 Y55.7785 Z-0.9 I0.0062 J-0.0108
G2 X19.8032 Y55.7677 Z-0.9333 I-0.0125 J0.0
G2 Y55.7893 Z-0.9667 I0.0063 J0.0108
G2 X19.822 Y55.7785 Z-1.0 I0.0062 J-0.0108
G2 X19.8032 Y55.7677 Z-1.0333 I-0.0125 J0.0
G2 Y55.7893 Z-1.0667 I0.0063 J0.0108
G2 X19.822 Y55.7785 Z-1.1 I0.0062 J-0.0108
G2 X19.8032 Y55.7677 Z-1.1333 I-0.0125 J0.0
G2 Y55.7893 Z-1.1667 I0.0063 J0.0108
G2 X19.822 Y55.7785 Z-1.2 I0.0062 J-0.0108
G2 X19.8032 Y55.7677 Z-1.2333 I-0.0125 J0.0
G2 Y55.7893 Z-1.2667 I0.0063 J0.0108
G2 X19.822 Y55.7785 Z-1.3 I0.0062 J-0.0108
G2 X19.8032 Y55.7677 Z-1.3333 I-0.0125 J0.0
G2 Y55.7893 Z-1.3667 I0.0063 J0.0108
G2 X19.822 Y55.7785 Z-1.4 I0.0062 J-0.0108
G2 X19.8032 Y55.7677 Z-1.4333 I-0.0125 J0.0
G2 Y55.7893 Z-1.4667 I0.0063 J0.0108
G2 X19.822 Y55.7785 Z-1.5 I0.0062 J-0.0108
G2 X19.8032 Y55.7677 Z-1.5333 I-0.0125 J0.0
G2 Y55.7893 Z-1.5667 I0.0063 J0.0108
G2 X19.822 Y55.7785 Z-1.6 I0.0062 J-0.0108
G2 X19.8032 Y55.7677 Z-1.6333 I-0.0125 J0.0
G2 Y55.7893 Z-1.6667 I0.0063 J0.0108
G2 X19.822 Y55.7785 Z-1.7 I0.0062 J-0.0108
G2 X19.8032 Y55.7677 Z-1.7333 I-0.0125 J0.0
G2 Y55.7893 Z-1.7667 I0.0063 J0.0108
G2 X19.822 Y55.7785 Z-1.8 I0.0062 J-0.0108
G2 X19.8032 Y55.7677 Z-1.8333 I-0.0125 J0.0
G2 Y55.7893 Z-1.8667 I0.0063 J0.0108
G2 X19.822 Y55.7785 Z-1.9 I0.0062 J-0.0108
G2 X19.8032 Y55.7677 Z-1.9333 I-0.0125 J0.0
G2 Y55.7893 Z-1.9667 I0.0063 J0.0108
G2 X19.822 Y55.7785 Z-2.0 I0.0062 J-0.0108
G2 X19.8032 Y55.7677 Z-2.0333 I-0.0125 J0.0
G2 Y55.7893 Z-2.0667 I0.0063 J0.0108
G2 X19.822 Y55.7785 Z-2.1 I0.0062 J-0.0108
G2 X19.8032 Y55.7677 Z-2.1333 I-0.0125 J0.0
G2 Y55.7893 Z-2.1667 I0.0063 J0.0108
G2 X19.822 Y55.7785 Z-2.2 I0.0062 J-0.0108
G2 X19.8032 Y55.7677 Z-2.2333 I-0.0125 J0.0
G2 Y55.7893 Z-2.2667 I0.0063 J0.0108
G2 X19.822 Y55.7785 Z-2.3 I0.0062 J-0.0108
G2 X19.8032 Y55.7677 Z-2.3333 I-0.0125 J0.0
G2 Y55.7893 Z-2.3667 I0.0063 J0.0108
G2 X19.822 Y55.7785 Z-2.4 I0.0062 J-0.0108
G2 X19.8032 Y55.7677 Z-2.4333 I-0.0125 J0.0
G2 Y55.7893 Z-2.4667 I0.0063 J0.0108
G2 X19.822 Y55.7785 Z-2.5 I0.0062 J-0.0108
G2 X19.8032 Y55.7677 Z-2.5333 I-0.0125 J0.0
G2 Y55.7893 Z-2.5667 I0.0063 J0.0108
G2 X19.822 Y55.7785 Z-2.6 I0.0062 J-0.0108
G2 X19.8032 Y55.7677 Z-2.6333 I-0.0125 J0.0
G2 Y55.7893 Z-2.6667 I0.0063 J0.0108
G2 X19.822 Y55.7785 Z-2.7 I0.0062 J-0.0108
G2 X19.8032 Y55.7677 Z-2.7333 I-0.0125 J0.0
G2 Y55.7893 Z-2.7667 I0.0063 J0.0108
G2 X19.822 Y55.7785 Z-2.8 I0.0062 J-0.0108
G2 X19.8032 Y55.7677 Z-2.8333 I-0.0125 J0.0
G2 Y55.7893 Z-2.8667 I0.0063 J0.0108
G2 X19.822 Y55.7785 Z-2.9 I0.0062 J-0.0108
G2 X19.8032 Y55.7677 Z-2.9333 I-0.0125 J0.0
G2 Y55.7893 Z-2.9667 I0.0063 J0.0108
G2 X19.822 Y55.7785 Z-3.0 I0.0062 J-0.0108
G2 X19.8032 Y55.7677 Z-3.0333 I-0.0125 J0.0
G2 Y55.7893 Z-3.0667 I0.0063 J0.0108
G2 X19.822 Y55.7785 Z-3.1 I0.0062 J-0.0108
G2 X19.8032 Y55.7677 Z-3.1333 I-0.0125 J0.0
G2 Y55.7893 Z-3.1667 I0.0063 J0.0108
G2 X19.822 Y55.7785 Z-3.2 I0.0062 J-0.0108
G2 X19.8032 Y55.7677 I-0.0125 J0.0
G2 Y55.7893 I0.0063 J0.0108
G2 X19.822 Y55.7785 I0.0062 J-0.0108
G0 Z3.0
G0 Y73.2763
G0 Z0.5
G1 F1000.0 Z0.0
G2 F2000.0 X19.8032 Y73.2655 Z-0.0333 I-0.0125 J0.0
G2 Y73.2871 Z-0.0667 I0.0062 J0.0108
G2 X19.822 Y73.2763 Z-0.1 I0.0063 J-0.0108
G2 X19.8032 Y73.2655 Z-0.1333 I-0.0125 J0.0
G2 Y73.2871 Z-0.1667 I0.0062 J0.0108
G2 X19.822 Y73.2763 Z-0.2 I0.0063 J-0.0108
G2 X19.8032 Y73.2655 Z-0.2333 I-0.0125 J0.0
G2 Y73.2871 Z-0.2667 I0.0062 J0.0108
G2 X19.822 Y73.2763 Z-0.3 I0.0063 J-0.0108
G2 X19.8032 Y73.2655 Z-0.3333 I-0.0125 J0.0
G2 Y73.2871 Z-0.3667 I0.0062 J0.0108
G2 X19.822 Y73.2763 Z-0.4 I0.0063 J-0.0108
G2 X19.8032 Y73.2655 Z-0.4333 I-0.0125 J0.0
G2 Y73.2871 Z-0.4667 I0.0062 J0.0108
G2 X19.822 Y73.2763 Z-0.5 I0.0063 J-0.0108
G2 X19.8032 Y73.2655 Z-0.5333 I-0.0125 J0.0
G2 Y73.2871 Z-0.5667 I0.0062 J0.0108
G2 X19.822 Y73.2763 Z-0.6 I0.0063 J-0.0108
G2 X19.8032 Y73.2655 Z-0.6333 I-0.0125 J0.0
G2 Y73.2871 Z-0.6667 I0.0062 J0.0108
G2 X19.822 Y73.2763 Z-0.7 I0.0063 J-0.0108
G2 X19.8032 Y73.2655 Z-0.7333 I-0.0125 J0.0
G2 Y73.2871 Z-0.7667 I0.0062 J0.0108
G2 X19.822 Y73.2763 Z-0.8 I0.0063 J-0.0108
G2 X19.8032 Y73.2655 Z-0.8333 I-0.0125 J0.0
G2 Y73.2871 Z-0.8667 I0.0062 J0.0108
G2 X19.822 Y73.2763 Z-0.9 I0.0063 J-0.0108
G2 X19.8032 Y73.2655 Z-0.9333 I-0.0125 J0.0
G2 Y73.2871 Z-0.9667 I0.0062 J0.0108
G2 X19.822 Y73.2763 Z-1.0 I0.0063 J-0.0108
G2 X19.8032 Y73.2655 Z-1.0333 I-0.0125 J0.0
G2 Y73.2871 Z-1.0667 I0.0062 J0.0108
G2 X19.822 Y73.2763 Z-1.1 I0.0063 J-0.0108
G2 X19.8032 Y73.2655 Z-1.1333 I-0.0125 J0.0
G2 Y73.2871 Z-1.1667 I0.0062 J0.0108
G2 X19.822 Y73.2763 Z-1.2 I0.0063 J-0.0108
G2 X19.8032 Y73.2655 Z-1.2333 I-0.0125 J0.0
G2 Y73.2871 Z-1.2667 I0.0062 J0.0108
G2 X19.822 Y73.2763 Z-1.3 I0.0063 J-0.0108
G2 X19.8032 Y73.2655 Z-1.3333 I-0.0125 J0.0
G2 Y73.2871 Z-1.3667 I0.0062 J0.0108
G2 X19.822 Y73.2763 Z-1.4 I0.0063 J-0.0108
G2 X19.8032 Y73.2655 Z-1.4333 I-0.0125 J0.0
G2 Y73.2871 Z-1.4667 I0.0062 J0.0108
G2 X19.822 Y73.2763 Z-1.5 I0.0063 J-0.0108
G2 X19.8032 Y73.2655 Z-1.5333 I-0.0125 J0.0
G2 Y73.2871 Z-1.5667 I0.0062 J0.0108
G2 X19.822 Y73.2763 Z-1.6 I0.0063 J-0.0108
G2 X19.8032 Y73.2655 Z-1.6333 I-0.0125 J0.0
G2 Y73.2871 Z-1.6667 I0.0062 J0.0108
G2 X19.822 Y73.2763 Z-1.7 I0.0063 J-0.0108
G2 X19.8032 Y73.2655 Z-1.7333 I-0.0125 J0.0
G2 Y73.2871 Z-1.7667 I0.0062 J0.0108
G2 X19.822 Y73.2763 Z-1.8 I0.0063 J-0.0108
G2 X19.8032 Y73.2655 Z-1.8333 I-0.0125 J0.0
G2 Y73.2871 Z-1.8667 I0.0062 J0.0108
G2 X19.822 Y73.2763 Z-1.9 I0.0063 J-0.0108
G2 X19.8032 Y73.2655 Z-1.9333 I-0.0125 J0.0
G2 Y73.2871 Z-1.9667 I0.0062 J0.0108
G2 X19.822 Y73.2763 Z-2.0 I0.0063 J-0.0108
G2 X19.8032 Y73.2655 Z-2.0333 I-0.0125 J0.0
G2 Y73.2871 Z-2.0667 I0.0062 J0.0108
G2 X19.822 Y73.2763 Z-2.1 I0.0063 J-0.0108
G2 X19.8032 Y73.2655 Z-2.1333 I-0.0125 J0.0
G2 Y73.2871 Z-2.1667 I0.0062 J0.0108
G2 X19.822 Y73.2763 Z-2.2 I0.0063 J-0.0108
G2 X19.8032 Y73.2655 Z-2.2333 I-0.0125 J0.0
G2 Y73.2871 Z-2.2667 I0.0062 J0.0108
G2 X19.822 Y73.2763 Z-2.3 I0.0063 J-0.0108
G2 X19.8032 Y73.2655 Z-2.3333 I-0.0125 J0.0
G2 Y73.2871 Z-2.3667 I0.0062 J0.0108
G2 X19.822 Y73.2763 Z-2.4 I0.0063 J-0.0108
G2 X19.8032 Y73.2655 Z-2.4333 I-0.0125 J0.0
G2 Y73.2871 Z-2.4667 I0.0062 J0.0108
G2 X19.822 Y73.2763 Z-2.5 I0.0063 J-0.0108
G2 X19.8032 Y73.2655 Z-2.5333 I-0.0125 J0.0
G2 Y73.2871 Z-2.5667 I0.0062 J0.0108
G2 X19.822 Y73.2763 Z-2.6 I0.0063 J-0.0108
G2 X19.8032 Y73.2655 Z-2.6333 I-0.0125 J0.0
G2 Y73.2871 Z-2.6667 I0.0062 J0.0108
G2 X19.822 Y73.2763 Z-2.7 I0.0063 J-0.0108
G2 X19.8032 Y73.2655 Z-2.7333 I-0.0125 J0.0
G2 Y73.2871 Z-2.7667 I0.0062 J0.0108
G2 X19.822 Y73.2763 Z-2.8 I0.0063 J-0.0108
G2 X19.8032 Y73.2655 Z-2.8333 I-0.0125 J0.0
G2 Y73.2871 Z-2.8667 I0.0062 J0.0108
G2 X19.822 Y73.2763 Z-2.9 I0.0063 J-0.0108
G2 X19.8032 Y73.2655 Z-2.9333 I-0.0125 J0.0
G2 Y73.2871 Z-2.9667 I0.0062 J0.0108
G2 X19.822 Y73.2763 Z-3.0 I0.0063 J-0.0108
G2 X19.8032 Y73.2655 Z-3.0333 I-0.0125 J0.0
G2 Y73.2871 Z-3.0667 I0.0062 J0.0108
G2 X19.822 Y73.2763 Z-3.1 I0.0063 J-0.0108
G2 X19.8032 Y73.2655 Z-3.1333 I-0.0125 J0.0
G2 Y73.2871 Z-3.1667 I0.0062 J0.0108
G2 X19.822 Y73.2763 Z-3.2 I0.0063 J-0.0108
G2 X19.8032 Y73.2655 I-0.0125 J0.0
G2 Y73.2871 I0.0063 J0.0108
G2 X19.822 Y73.2763 I0.0062 J-0.0108
G0 Z3.0
G0 Y90.7741
G0 Z0.5
G1 F1000.0 Z0.0
G2 F2000.0 X19.8032 Y90.7632 Z-0.0333 I-0.0125 J0.0
G2 Y90.7849 Z-0.0667 I0.0062 J0.0108
G2 X19.822 Y90.7741 Z-0.1 I0.0063 J-0.0108
G2 X19.8032 Y90.7632 Z-0.1333 I-0.0125 J0.0
G2 Y90.7849 Z-0.1667 I0.0062 J0.0108
G2 X19.822 Y90.7741 Z-0.2 I0.0063 J-0.0108
G2 X19.8032 Y90.7632 Z-0.2333 I-0.0125 J0.0
G2 Y90.7849 Z-0.2667 I0.0062 J0.0108
G2 X19.822 Y90.7741 Z-0.3 I0.0063 J-0.0108
G2 X19.8032 Y90.7632 Z-0.3333 I-0.0125 J0.0
G2 Y90.7849 Z-0.3667 I0.0062 J0.0108
G2 X19.822 Y90.7741 Z-0.4 I0.0063 J-0.0108
G2 X19.8032 Y90.7632 Z-0.4333 I-0.0125 J0.0
G2 Y90.7849 Z-0.4667 I0.0062 J0.0108
G2 X19.822 Y90.7741 Z-0.5 I0.0063 J-0.0108
G2 X19.8032 Y90.7632 Z-0.5333 I-0.0125 J0.0
G2 Y90.7849 Z-0.5667 I0.0062 J0.0108
G2 X19.822 Y90.7741 Z-0.6 I0.0063 J-0.0108
G2 X19.8032 Y90.7632 Z-0.6333 I-0.0125 J0.0
G2 Y90.7849 Z-0.6667 I0.0062 J0.0108
G2 X19.822 Y90.7741 Z-0.7 I0.0063 J-0.0108
G2 X19.8032 Y90.7632 Z-0.7333 I-0.0125 J0.0
G2 Y90.7849 Z-0.7667 I0.0062 J0.0108
G2 X19.822 Y90.7741 Z-0.8 I0.0063 J-0.0108
G2 X19.8032 Y90.7632 Z-0.8333 I-0.0125 J0.0
G2 Y90.7849 Z-0.8667 I0.0062 J0.0108
G2 X19.822 Y90.7741 Z-0.9 I0.0063 J-0.0108
G2 X19.8032 Y90.7632 Z-0.9333 I-0.0125 J0.0
G2 Y90.7849 Z-0.9667 I0.0062 J0.0108
G2 X19.822 Y90.7741 Z-1.0 I0.0063 J-0.0108
G2 X19.8032 Y90.7632 Z-1.0333 I-0.0125 J0.0
G2 Y90.7849 Z-1.0667 I0.0062 J0.0108
G2 X19.822 Y90.7741 Z-1.1 I0.0063 J-0.0108
G2 X19.8032 Y90.7632 Z-1.1333 I-0.0125 J0.0
G2 Y90.7849 Z-1.1667 I0.0062 J0.0108
G2 X19.822 Y90.7741 Z-1.2 I0.0063 J-0.0108
G2 X19.8032 Y90.7632 Z-1.2333 I-0.0125 J0.0
G2 Y90.7849 Z-1.2667 I0.0062 J0.0108
G2 X19.822 Y90.7741 Z-1.3 I0.0063 J-0.0108
G2 X19.8032 Y90.7632 Z-1.3333 I-0.0125 J0.0
G2 Y90.7849 Z-1.3667 I0.0062 J0.0108
G2 X19.822 Y90.7741 Z-1.4 I0.0063 J-0.0108
G2 X19.8032 Y90.7632 Z-1.4333 I-0.0125 J0.0
G2 Y90.7849 Z-1.4667 I0.0062 J0.0108
G2 X19.822 Y90.7741 Z-1.5 I0.0063 J-0.0108
G2 X19.8032 Y90.7632 Z-1.5333 I-0.0125 J0.0
G2 Y90.7849 Z-1.5667 I0.0062 J0.0108
G2 X19.822 Y90.7741 Z-1.6 I0.0063 J-0.0108
G2 X19.8032 Y90.7632 Z-1.6333 I-0.0125 J0.0
G2 Y90.7849 Z-1.6667 I0.0062 J0.0108
G2 X19.822 Y90.7741 Z-1.7 I0.0063 J-0.0108
G2 X19.8032 Y90.7632 Z-1.7333 I-0.0125 J0.0
G2 Y90.7849 Z-1.7667 I0.0062 J0.0108
G2 X19.822 Y90.7741 Z-1.8 I0.0063 J-0.0108
G2 X19.8032 Y90.7632 Z-1.8333 I-0.0125 J0.0
G2 Y90.7849 Z-1.8667 I0.0062 J0.0108
G2 X19.822 Y90.7741 Z-1.9 I0.0063 J-0.0108
G2 X19.8032 Y90.7632 Z-1.9333 I-0.0125 J0.0
G2 Y90.7849 Z-1.9667 I0.0062 J0.0108
G2 X19.822 Y90.7741 Z-2.0 I0.0063 J-0.0108
G2 X19.8032 Y90.7632 Z-2.0333 I-0.0125 J0.0
G2 Y90.7849 Z-2.0667 I0.0062 J0.0108
G2 X19.822 Y90.7741 Z-2.1 I0.0063 J-0.0108
G2 X19.8032 Y90.7632 Z-2.1333 I-0.0125 J0.0
G2 Y90.7849 Z-2.1667 I0.0062 J0.0108
G2 X19.822 Y90.7741 Z-2.2 I0.0063 J-0.0108
G2 X19.8032 Y90.7632 Z-2.2333 I-0.0125 J0.0
G2 Y90.7849 Z-2.2667 I0.0062 J0.0108
G2 X19.822 Y90.7741 Z-2.3 I0.0063 J-0.0108
G2 X19.8032 Y90.7632 Z-2.3333 I-0.0125 J0.0
G2 Y90.7849 Z-2.3667 I0.0062 J0.0108
G2 X19.822 Y90.7741 Z-2.4 I0.0063 J-0.0108
G2 X19.8032 Y90.7632 Z-2.4333 I-0.0125 J0.0
G2 Y90.7849 Z-2.4667 I0.0062 J0.0108
G2 X19.822 Y90.7741 Z-2.5 I0.0063 J-0.0108
G2 X19.8032 Y90.7632 Z-2.5333 I-0.0125 J0.0
G2 Y90.7849 Z-2.5667 I0.0062 J0.0108
G2 X19.822 Y90.7741 Z-2.6 I0.0063 J-0.0108
G2 X19.8032 Y90.7632 Z-2.6333 I-0.0125 J0.0
G2 Y90.7849 Z-2.6667 I0.0062 J0.0108
G2 X19.822 Y90.7741 Z-2.7 I0.0063 J-0.0108
G2 X19.8032 Y90.7632 Z-2.7333 I-0.0125 J0.0
G2 Y90.7849 Z-2.7667 I0.0062 J0.0108
G2 X19.822 Y90.7741 Z-2.8 I0.0063 J-0.0108
G2 X19.8032 Y90.7632 Z-2.8333 I-0.0125 J0.0
G2 Y90.7849 Z-2.8667 I0.0062 J0.0108
G2 X19.822 Y90.7741 Z-2.9 I0.0063 J-0.0108
G2 X19.8032 Y90.7632 Z-2.9333 I-0.0125 J0.0
G2 Y90.7849 Z-2.9667 I0.0062 J0.0108
G2 X19.822 Y90.7741 Z-3.0 I0.0063 J-0.0108
G2 X19.8032 Y90.7632 Z-3.0333 I-0.0125 J0.0
G2 Y90.7849 Z-3.0667 I0.0062 J0.0108
G2 X19.822 Y90.7741 Z-3.1 I0.0063 J-0.0108
G2 X19.8032 Y90.7632 Z-3.1333 I-0.0125 J0.0
G2 Y90.7849 Z-3.1667 I0.0062 J0.0108
G2 X19.822 Y90.7741 Z-3.2 I0.0063 J-0.0108
G2 X19.8032 Y90.7632 I-0.0125 J0.0
G2 Y90.7849 I0.0063 J0.0108
G2 X19.822 Y90.7741 I0.0062 J-0.0108
G0 Z3.0
G0 X23.2445 Y114.0746
G0 Z0.5
G1 F1000.0 Z0.0
G2 F2000.0 X23.2257 Y114.0638 Z-0.0333 I-0.0125 J0.0
G2 Y114.0855 Z-0.0667 I0.0062 J0.0108
G2 X23.2445 Y114.0746 Z-0.1 I0.0063 J-0.0108
G2 X23.2257 Y114.0638 Z-0.1333 I-0.0125 J0.0
G2 Y114.0855 Z-0.1667 I0.0062 J0.0108
G2 X23.2445 Y114.0746 Z-0.2 I0.0063 J-0.0108
G2 X23.2257 Y114.0638 Z-0.2333 I-0.0125 J0.0
G2 Y114.0855 Z-0.2667 I0.0062 J0.0108
G2 X23.2445 Y114.0746 Z-0.3 I0.0063 J-0.0108
G2 X23.2257 Y114.0638 Z-0.3333 I-0.0125 J0.0
G2 Y114.0855 Z-0.3667 I0.0062 J0.0108
G2 X23.2445 Y114.0746 Z-0.4 I0.0063 J-0.0108
G2 X23.2257 Y114.0638 Z-0.4333 I-0.0125 J0.0
G2 Y114.0855 Z-0.4667 I0.0062 J0.0108
G2 X23.2445 Y114.0746 Z-0.5 I0.0063 J-0.0108
G2 X23.2257 Y114.0638 Z-0.5333 I-0.0125 J0.0
G2 Y114.0855 Z-0.5667 I0.0062 J0.0108
G2 X23.2445 Y114.0746 Z-0.6 I0.0063 J-0.0108
G2 X23.2257 Y114.0638 Z-0.6333 I-0.0125 J0.0
G2 Y114.0855 Z-0.6667 I0.0062 J0.0108
G2 X23.2445 Y114.0746 Z-0.7 I0.0063 J-0.0108
G2 X23.2257 Y114.0638 Z-0.7333 I-0.0125 J0.0
G2 Y114.0855 Z-0.7667 I0.0062 J0.0108
G2 X23.2445 Y114.0746 Z-0.8 I0.0063 J-0.0108
G2 X23.2257 Y114.0638 Z-0.8333 I-0.0125 J0.0
G2 Y114.0855 Z-0.8667 I0.0062 J0.0108
G2 X23.2445 Y114.0746 Z-0.9 I0.0063 J-0.0108
G2 X23.2257 Y114.0638 Z-0.9333 I-0.0125 J0.0
G2 Y114.0855 Z-0.9667 I0.0062 J0.0108
G2 X23.2445 Y114.0746 Z-1.0 I0.0063 J-0.0108
G2 X23.2257 Y114.0638 Z-1.0333 I-0.0125 J0.0
G2 Y114.0855 Z-1.0667 I0.0062 J0.0108
G2 X23.2445 Y114.0746 Z-1.1 I0.0063 J-0.0108
G2 X23.2257 Y114.0638 Z-1.1333 I-0.0125 J0.0
G2 Y114.0855 Z-1.1667 I0.0062 J0.0108
G2 X23.2445 Y114.0746 Z-1.2 I0.0063 J-0.0108
G2 X23.2257 Y114.0638 Z-1.2333 I-0.0125 J0.0
G2 Y114.0855 Z-1.2667 I0.0062 J0.0108
G2 X23.2445 Y114.0746 Z-1.3 I0.0063 J-0.0108
G2 X23.2257 Y114.0638 Z-1.3333 I-0.0125 J0.0
G2 Y114.0855 Z-1.3667 I0.0062 J0.0108
G2 X23.2445 Y114.0746 Z-1.4 I0.0063 J-0.0108
G2 X23.2257 Y114.0638 Z-1.4333 I-0.0125 J0.0
G2 Y114.0855 Z-1.4667 I0.0062 J0.0108
G2 X23.2445 Y114.0746 Z-1.5 I0.0063 J-0.0108
G2 X23.2257 Y114.0638 Z-1.5333 I-0.0125 J0.0
G2 Y114.0855 Z-1.5667 I0.0062 J0.0108
G2 X23.2445 Y114.0746 Z-1.6 I0.0063 J-0.0108
G2 X23.2257 Y114.0638 Z-1.6333 I-0.0125 J0.0
G2 Y114.0855 Z-1.6667 I0.0062 J0.0108
G2 X23.2445 Y114.0746 Z-1.7 I0.0063 J-0.0108
G2 X23.2257 Y114.0638 Z-1.7333 I-0.0125 J0.0
G2 Y114.0855 Z-1.7667 I0.0062 J0.0108
G2 X23.2445 Y114.0746 Z-1.8 I0.0063 J-0.0108
G2 X23.2257 Y114.0638 Z-1.8333 I-0.0125 J0.0
G2 Y114.0855 Z-1.8667 I0.0062 J0.0108
G2 X23.2445 Y114.0746 Z-1.9 I0.0063 J-0.0108
G2 X23.2257 Y114.0638 Z-1.9333 I-0.0125 J0.0
G2 Y114.0855 Z-1.9667 I0.0062 J0.0108
G2 X23.2445 Y114.0746 Z-2.0 I0.0063 J-0.0108
G2 X23.2257 Y114.0638 Z-2.0333 I-0.0125 J0.0
G2 Y114.0855 Z-2.0667 I0.0062 J0.0108
G2 X23.2445 Y114.0746 Z-2.1 I0.0063 J-0.0108
G2 X23.2257 Y114.0638 Z-2.1333 I-0.0125 J0.0
G2 Y114.0855 Z-2.1667 I0.0062 J0.0108
G2 X23.2445 Y114.0746 Z-2.2 I0.0063 J-0.0108
G2 X23.2257 Y114.0638 Z-2.2333 I-0.0125 J0.0
G2 Y114.0855 Z-2.2667 I0.0062 J0.0108
G2 X23.2445 Y114.0746 Z-2.3 I0.0063 J-0.0108
G2 X23.2257 Y114.0638 Z-2.3333 I-0.0125 J0.0
G2 Y114.0855 Z-2.3667 I0.0062 J0.0108
G2 X23.2445 Y114.0746 Z-2.4 I0.0063 J-0.0108
G2 X23.2257 Y114.0638 Z-2.4333 I-0.0125 J0.0
G2 Y114.0855 Z-2.4667 I0.0062 J0.0108
G2 X23.2445 Y114.0746 Z-2.5 I0.0063 J-0.0108
G2 X23.2257 Y114.0638 Z-2.5333 I-0.0125 J0.0
G2 Y114.0855 Z-2.5667 I0.0062 J0.0108
G2 X23.2445 Y114.0746 Z-2.6 I0.0063 J-0.0108
G2 X23.2257 Y114.0638 Z-2.6333 I-0.0125 J0.0
G2 Y114.0855 Z-2.6667 I0.0062 J0.0108
G2 X23.2445 Y114.0746 Z-2.7 I0.0063 J-0.0108
G2 X23.2257 Y114.0638 Z-2.7333 I-0.0125 J0.0
G2 Y114.0855 Z-2.7667 I0.0062 J0.0108
G2 X23.2445 Y114.0746 Z-2.8 I0.0063 J-0.0108
G2 X23.2257 Y114.0638 Z-2.8333 I-0.0125 J0.0
G2 Y114.0855 Z-2.8667 I0.0062 J0.0108
G2 X23.2445 Y114.0746 Z-2.9 I0.0063 J-0.0108
G2 X23.2257 Y114.0638 Z-2.9333 I-0.0125 J0.0
G2 Y114.0855 Z-2.9667 I0.0062 J0.0108
G2 X23.2445 Y114.0746 Z-3.0 I0.0063 J-0.0108
G2 X23.2257 Y114.0638 Z-3.0333 I-0.0125 J0.0
G2 Y114.0855 Z-3.0667 I0.0062 J0.0108
G2 X23.2445 Y114.0746 Z-3.1 I0.0063 J-0.0108
G2 X23.2257 Y114.0638 Z-3.1333 I-0.0125 J0.0
G2 Y114.0855 Z-3.1667 I0.0062 J0.0108
G2 X23.2445 Y114.0746 Z-3.2 I0.0063 J-0.0108
G2 X23.2257 Y114.0638 I-0.0125 J0.0
G2 Y114.0855 I0.0063 J0.0108
G2 X23.2445 Y114.0746 I0.0062 J-0.0108
G0 Z3.0
G0 X27.1911 Y125.4568
G0 Z0.5
G1 F1000.0 Z0.0
G2 F2000.0 X27.1724 Y125.446 Z-0.0333 I-0.0125 J0.0
G2 Y125.4676 Z-0.0667 I0.0062 J0.0108
G2 X27.1911 Y125.4568 Z-0.1 I0.0063 J-0.0108
G2 X27.1724 Y125.446 Z-0.1333 I-0.0125 J0.0
G2 Y125.4676 Z-0.1667 I0.0062 J0.0108
G2 X27.1911 Y125.4568 Z-0.2 I0.0063 J-0.0108
G2 X27.1724 Y125.446 Z-0.2333 I-0.0125 J0.0
G2 Y125.4676 Z-0.2667 I0.0062 J0.0108
G2 X27.1911 Y125.4568 Z-0.3 I0.0063 J-0.0108
G2 X27.1724 Y125.446 Z-0.3333 I-0.0125 J0.0
G2 Y125.4676 Z-0.3667 I0.0062 J0.0108
G2 X27.1911 Y125.4568 Z-0.4 I0.0063 J-0.0108
G2 X27.1724 Y125.446 Z-0.4333 I-0.0125 J0.0
G2 Y125.4676 Z-0.4667 I0.0062 J0.0108
G2 X27.1911 Y125.4568 Z-0.5 I0.0063 J-0.0108
G2 X27.1724 Y125.446 Z-0.5333 I-0.0125 J0.0
G2 Y125.4676 Z-0.5667 I0.0062 J0.0108
G2 X27.1911 Y125.4568 Z-0.6 I0.0063 J-0.0108
G2 X27.1724 Y125.446 Z-0.6333 I-0.0125 J0.0
G2 Y125.4676 Z-0.6667 I0.0062 J0.0108
G2 X27.1911 Y125.4568 Z-0.7 I0.0063 J-0.0108
G2 X27.1724 Y125.446 Z-0.7333 I-0.0125 J0.0
G2 Y125.4676 Z-0.7667 I0.0062 J0.0108
G2 X27.1911 Y125.4568 Z-0.8 I0.0063 J-0.0108
G2 X27.1724 Y125.446 Z-0.8333 I-0.0125 J0.0
G2 Y125.4676 Z-0.8667 I0.0062 J0.0108
G2 X27.1911 Y125.4568 Z-0.9 I0.0063 J-0.0108
G2 X27.1724 Y125.446 Z-0.9333 I-0.0125 J0.0
G2 Y125.4676 Z-0.9667 I0.0062 J0.0108
G2 X27.1911 Y125.4568 Z-1.0 I0.0063 J-0.0108
G2 X27.1724 Y125.446 Z-1.0333 I-0.0125 J0.0
G2 Y125.4676 Z-1.0667 I0.0062 J0.0108
G2 X27.1911 Y125.4568 Z-1.1 I0.0063 J-0.0108
G2 X27.1724 Y125.446 Z-1.1333 I-0.0125 J0.0
G2 Y125.4676 Z-1.1667 I0.0062 J0.0108
G2 X27.1911 Y125.4568 Z-1.2 I0.0063 J-0.0108
G2 X27.1724 Y125.446 Z-1.2333 I-0.0125 J0.0
G2 Y125.4676 Z-1.2667 I0.0062 J0.0108
G2 X27.1911 Y125.4568 Z-1.3 I0.0063 J-0.0108
G2 X27.1724 Y125.446 Z-1.3333 I-0.0125 J0.0
G2 Y125.4676 Z-1.3667 I0.0062 J0.0108
G2 X27.1911 Y125.4568 Z-1.4 I0.0063 J-0.0108
G2 X27.1724 Y125.446 Z-1.4333 I-0.0125 J0.0
G2 Y125.4676 Z-1.4667 I0.0062 J0.0108
G2 X27.1911 Y125.4568 Z-1.5 I0.0063 J-0.0108
G2 X27.1724 Y125.446 Z-1.5333 I-0.0125 J0.0
G2 Y125.4676 Z-1.5667 I0.0062 J0.0108
G2 X27.1911 Y125.4568 Z-1.6 I0.0063 J-0.0108
G2 X27.1724 Y125.446 Z-1.6333 I-0.0125 J0.0
G2 Y125.4676 Z-1.6667 I0.0062 J0.0108
G2 X27.1911 Y125.4568 Z-1.7 I0.0063 J-0.0108
G2 X27.1724 Y125.446 Z-1.7333 I-0.0125 J0.0
G2 Y125.4676 Z-1.7667 I0.0062 J0.0108
G2 X27.1911 Y125.4568 Z-1.8 I0.0063 J-0.0108
G2 X27.1724 Y125.446 Z-1.8333 I-0.0125 J0.0
G2 Y125.4676 Z-1.8667 I0.0062 J0.0108
G2 X27.1911 Y125.4568 Z-1.9 I0.0063 J-0.0108
G2 X27.1724 Y125.446 Z-1.9333 I-0.0125 J0.0
G2 Y125.4676 Z-1.9667 I0.0062 J0.0108
G2 X27.1911 Y125.4568 Z-2.0 I0.0063 J-0.0108
G2 X27.1724 Y125.446 Z-2.0333 I-0.0125 J0.0
G2 Y125.4676 Z-2.0667 I0.0062 J0.0108
G2 X27.1911 Y125.4568 Z-2.1 I0.0063 J-0.0108
G2 X27.1724 Y125.446 Z-2.1333 I-0.0125 J0.0
G2 Y125.4676 Z-2.1667 I0.0062 J0.0108
G2 X27.1911 Y125.4568 Z-2.2 I0.0063 J-0.0108
G2 X27.1724 Y125.446 Z-2.2333 I-0.0125 J0.0
G2 Y125.4676 Z-2.2667 I0.0062 J0.0108
G2 X27.1911 Y125.4568 Z-2.3 I0.0063 J-0.0108
G2 X27.1724 Y125.446 Z-2.3333 I-0.0125 J0.0
G2 Y125.4676 Z-2.3667 I0.0062 J0.0108
G2 X27.1911 Y125.4568 Z-2.4 I0.0063 J-0.0108
G2 X27.1724 Y125.446 Z-2.4333 I-0.0125 J0.0
G2 Y125.4676 Z-2.4667 I0.0062 J0.0108
G2 X27.1911 Y125.4568 Z-2.5 I0.0063 J-0.0108
G2 X27.1724 Y125.446 Z-2.5333 I-0.0125 J0.0
G2 Y125.4676 Z-2.5667 I0.0062 J0.0108
G2 X27.1911 Y125.4568 Z-2.6 I0.0063 J-0.0108
G2 X27.1724 Y125.446 Z-2.6333 I-0.0125 J0.0
G2 Y125.4676 Z-2.6667 I0.0062 J0.0108
G2 X27.1911 Y125.4568 Z-2.7 I0.0063 J-0.0108
G2 X27.1724 Y125.446 Z-2.7333 I-0.0125 J0.0
G2 Y125.4676 Z-2.7667 I0.0062 J0.0108
G2 X27.1911 Y125.4568 Z-2.8 I0.0063 J-0.0108
G2 X27.1724 Y125.446 Z-2.8333 I-0.0125 J0.0
G2 Y125.4676 Z-2.8667 I0.0062 J0.0108
G2 X27.1911 Y125.4568 Z-2.9 I0.0063 J-0.0108
G2 X27.1724 Y125.446 Z-2.9333 I-0.0125 J0.0
G2 Y125.4676 Z-2.9667 I0.0062 J0.0108
G2 X27.1911 Y125.4568 Z-3.0 I0.0063 J-0.0108
G2 X27.1724 Y125.446 Z-3.0333 I-0.0125 J0.0
G2 Y125.4676 Z-3.0667 I0.0062 J0.0108
G2 X27.1911 Y125.4568 Z-3.1 I0.0063 J-0.0108
G2 X27.1724 Y125.446 Z-3.1333 I-0.0125 J0.0
G2 Y125.4676 Z-3.1667 I0.0062 J0.0108
G2 X27.1911 Y125.4568 Z-3.2 I0.0063 J-0.0108
G2 X27.1724 Y125.446 I-0.0125 J0.0
G2 Y125.4676 I0.0063 J0.0108
G2 X27.1911 Y125.4568 I0.0062 J-0.0108
G0 Z3.0
G0 X8.8925 Y114.0746
G0 Z0.5
G1 F1000.0 Z0.0
G2 F2000.0 X8.8738 Y114.0638 Z-0.0333 I-0.0125 J0.0
G2 Y114.0855 Z-0.0667 I0.0062 J0.0108
G2 X8.8925 Y114.0746 Z-0.1 I0.0063 J-0.0108
G2 X8.8738 Y114.0638 Z-0.1333 I-0.0125 J0.0
G2 Y114.0855 Z-0.1667 I0.0062 J0.0108
G2 X8.8925 Y114.0746 Z-0.2 I0.0063 J-0.0108
G2 X8.8738 Y114.0638 Z-0.2333 I-0.0125 J0.0
G2 Y114.0855 Z-0.2667 I0.0062 J0.0108
G2 X8.8925 Y114.0746 Z-0.3 I0.0063 J-0.0108
G2 X8.8738 Y114.0638 Z-0.3333 I-0.0125 J0.0
G2 Y114.0855 Z-0.3667 I0.0062 J0.0108
G2 X8.8925 Y114.0746 Z-0.4 I0.0063 J-0.0108
G2 X8.8738 Y114.0638 Z-0.4333 I-0.0125 J0.0
G2 Y114.0855 Z-0.4667 I0.0062 J0.0108
G2 X8.8925 Y114.0746 Z-0.5 I0.0063 J-0.0108
G2 X8.8738 Y114.0638 Z-0.5333 I-0.0125 J0.0
G2 Y114.0855 Z-0.5667 I0.0062 J0.0108
G2 X8.8925 Y114.0746 Z-0.6 I0.0063 J-0.0108
G2 X8.8738 Y114.0638 Z-0.6333 I-0.0125 J0.0
G2 Y114.0855 Z-0.6667 I0.0062 J0.0108
G2 X8.8925 Y114.0746 Z-0.7 I0.0063 J-0.0108
G2 X8.8738 Y114.0638 Z-0.7333 I-0.0125 J0.0
G2 Y114.0855 Z-0.7667 I0.0062 J0.0108
G2 X8.8925 Y114.0746 Z-0.8 I0.0063 J-0.0108
G2 X8.8738 Y114.0638 Z-0.8333 I-0.0125 J0.0
G2 Y114.0855 Z-0.8667 I0.0062 J0.0108
G2 X8.8925 Y114.0746 Z-0.9 I0.0063 J-0.0108
G2 X8.8738 Y114.0638 Z-0.9333 I-0.0125 J0.0
G2 Y114.0855 Z-0.9667 I0.0062 J0.0108
G2 X8.8925 Y114.0746 Z-1.0 I0.0063 J-0.0108
G2 X8.8738 Y114.0638 Z-1.0333 I-0.0125 J0.0
G2 Y114.0855 Z-1.0667 I0.0062 J0.0108
G2 X8.8925 Y114.0746 Z-1.1 I0.0063 J-0.0108
G2 X8.8738 Y114.0638 Z-1.1333 I-0.0125 J0.0
G2 Y114.0855 Z-1.1667 I0.0062 J0.0108
G2 X8.8925 Y114.0746 Z-1.2 I0.0063 J-0.0108
G2 X8.8738 Y114.0638 Z-1.2333 I-0.0125 J0.0
G2 Y114.0855 Z-1.2667 I0.0062 J0.0108
G2 X8.8925 Y114.0746 Z-1.3 I0.0063 J-0.0108
G2 X8.8738 Y114.0638 Z-1.3333 I-0.0125 J0.0
G2 Y114.0855 Z-1.3667 I0.0062 J0.0108
G2 X8.8925 Y114.0746 Z-1.4 I0.0063 J-0.0108
G2 X8.8738 Y114.0638 Z-1.4333 I-0.0125 J0.0
G2 Y114.0855 Z-1.4667 I0.0062 J0.0108
G2 X8.8925 Y114.0746 Z-1.5 I0.0063 J-0.0108
G2 X8.8738 Y114.0638 Z-1.5333 I-0.0125 J0.0
G2 Y114.0855 Z-1.5667 I0.0062 J0.0108
G2 X8.8925 Y114.0746 Z-1.6 I0.0063 J-0.0108
G2 X8.8738 Y114.0638 Z-1.6333 I-0.0125 J0.0
G2 Y114.0855 Z-1.6667 I0.0062 J0.0108
G2 X8.8925 Y114.0746 Z-1.7 I0.0063 J-0.0108
G2 X8.8738 Y114.0638 Z-1.7333 I-0.0125 J0.0
G2 Y114.0855 Z-1.7667 I0.0062 J0.0108
G2 X8.8925 Y114.0746 Z-1.8 I0.0063 J-0.0108
G2 X8.8738 Y114.0638 Z-1.8333 I-0.0125 J0.0
G2 Y114.0855 Z-1.8667 I0.0062 J0.0108
G2 X8.8925 Y114.0746 Z-1.9 I0.0063 J-0.0108
G2 X8.8738 Y114.0638 Z-1.9333 I-0.0125 J0.0
G2 Y114.0855 Z-1.9667 I0.0062 J0.0108
G2 X8.8925 Y114.0746 Z-2.0 I0.0063 J-0.0108
G2 X8.8738 Y114.0638 Z-2.0333 I-0.0125 J0.0
G2 Y114.0855 Z-2.0667 I0.0062 J0.0108
G2 X8.8925 Y114.0746 Z-2.1 I0.0063 J-0.0108
G2 X8.8738 Y114.0638 Z-2.1333 I-0.0125 J0.0
G2 Y114.0855 Z-2.1667 I0.0062 J0.0108
G2 X8.8925 Y114.0746 Z-2.2 I0.0063 J-0.0108
G2 X8.8738 Y114.0638 Z-2.2333 I-0.0125 J0.0
G2 Y114.0855 Z-2.2667 I0.0062 J0.0108
G2 X8.8925 Y114.0746 Z-2.3 I0.0063 J-0.0108
G2 X8.8738 Y114.0638 Z-2.3333 I-0.0125 J0.0
G2 Y114.0855 Z-2.3667 I0.0062 J0.0108
G2 X8.8925 Y114.0746 Z-2.4 I0.0063 J-0.0108
G2 X8.8738 Y114.0638 Z-2.4333 I-0.0125 J0.0
G2 Y114.0855 Z-2.4667 I0.0062 J0.0108
G2 X8.8925 Y114.0746 Z-2.5 I0.0063 J-0.0108
G2 X8.8738 Y114.0638 Z-2.5333 I-0.0125 J0.0
G2 Y114.0855 Z-2.5667 I0.0062 J0.0108
G2 X8.8925 Y114.0746 Z-2.6 I0.0063 J-0.0108
G2 X8.8738 Y114.0638 Z-2.6333 I-0.0125 J0.0
G2 Y114.0855 Z-2.6667 I0.0062 J0.0108
G2 X8.8925 Y114.0746 Z-2.7 I0.0063 J-0.0108
G2 X8.8738 Y114.0638 Z-2.7333 I-0.0125 J0.0
G2 Y114.0855 Z-2.7667 I0.0062 J0.0108
G2 X8.8925 Y114.0746 Z-2.8 I0.0062 J-0.0108
G2 X8.8738 Y114.0638 Z-2.8333 I-0.0125 J0.0
G2 Y114.0855 Z-2.8667 I0.0062 J0.0108
G2 X8.8925 Y114.0746 Z-2.9 I0.0062 J-0.0108
G2 X8.8738 Y114.0638 Z-2.9333 I-0.0125 J0.0
G2 Y114.0855 Z-2.9667 I0.0062 J0.0108
G2 X8.8925 Y114.0746 Z-3.0 I0.0062 J-0.0108
G2 X8.8738 Y114.0638 Z-3.0333 I-0.0125 J0.0
G2 Y114.0855 Z-3.0667 I0.0062 J0.0108
G2 X8.8925 Y114.0746 Z-3.1 I0.0062 J-0.0108
G2 X8.8738 Y114.0638 Z-3.1333 I-0.0125 J0.0
G2 Y114.0855 Z-3.1667 I0.0063 J0.0108
G2 X8.8925 Y114.0746 Z-3.2 I0.0062 J-0.0108
G2 X8.8738 Y114.0638 I-0.0125 J0.0
G2 Y114.0855 I0.0063 J0.0108
G2 X8.8925 Y114.0746 I0.0062 J-0.0108
( Profile1 )
S1000
G0 Z3.0
G0 X33.7793 Y0.0222
G0 Z0.5
G1 F1000.0 Z-0.1
G1 F2000.0 Y128.4342
G3 X32.1918 Y130.0217 I-1.5875 J0.0
G1 X0.108
G3 X-1.4795 Y128.4342 I0.0 J-1.5875
G1 Y0.0222
G3 X0.108 Y-1.5653 I1.5875 J0.0
G1 X32.1918
G3 X33.7793 Y0.0222 I0.0 J1.5875
G1 F1000.0 Z-0.2
G1 F2000.0 Y128.4342
G3 X32.1918 Y130.0217 I-1.5875 J0.0
G1 X0.108
G3 X-1.4795 Y128.4342 I0.0 J-1.5875
G1 Y0.0222
G3 X0.108 Y-1.5653 I1.5875 J0.0
G1 X32.1918
G3 X33.7793 Y0.0222 I0.0 J1.5875
G1 F1000.0 Z-0.3
G1 F2000.0 Y128.4342
G3 X32.1918 Y130.0217 I-1.5875 J0.0
G1 X0.108
G3 X-1.4795 Y128.4342 I0.0 J-1.5875
G1 Y0.0222
G3 X0.108 Y-1.5653 I1.5875 J0.0
G1 X32.1918
G3 X33.7793 Y0.0222 I0.0 J1.5875
G1 F1000.0 Z-0.4
G1 F2000.0 Y128.4342
G3 X32.1918 Y130.0217 I-1.5875 J0.0
G1 X0.108
G3 X-1.4795 Y128.4342 I0.0 J-1.5875
G1 Y0.0222
G3 X0.108 Y-1.5653 I1.5875 J0.0
G1 X32.1918
G3 X33.7793 Y0.0222 I0.0 J1.5875
G1 F1000.0 Z-0.5
G1 F2000.0 Y128.4342
G3 X32.1918 Y130.0217 I-1.5875 J0.0
G1 X0.108
G3 X-1.4795 Y128.4342 I0.0 J-1.5875
G1 Y0.0222
G3 X0.108 Y-1.5653 I1.5875 J0.0
G1 X32.1918
G3 X33.7793 Y0.0222 I0.0 J1.5875
G1 F1000.0 Z-0.6
G1 F2000.0 Y128.4342
G3 X32.1918 Y130.0217 I-1.5875 J0.0
G1 X0.108
G3 X-1.4795 Y128.4342 I0.0 J-1.5875
G1 Y0.0222
G3 X0.108 Y-1.5653 I1.5875 J0.0
G1 X32.1918
G3 X33.7793 Y0.0222 I0.0 J1.5875
G1 F1000.0 Z-0.7
G1 F2000.0 Y128.4342
G3 X32.1918 Y130.0217 I-1.5875 J0.0
G1 X0.108
G3 X-1.4795 Y128.4342 I0.0 J-1.5875
G1 Y0.0222
G3 X0.108 Y-1.5653 I1.5875 J0.0
G1 X32.1918
G3 X33.7793 Y0.0222 I0.0 J1.5875
G1 F1000.0 Z-0.8
G1 F2000.0 Y128.4342
G3 X32.1918 Y130.0217 I-1.5875 J0.0
G1 X0.108
G3 X-1.4795 Y128.4342 I0.0 J-1.5875
G1 Y0.0222
G3 X0.108 Y-1.5653 I1.5875 J0.0
G1 X32.1918
G3 X33.7793 Y0.0222 I0.0 J1.5875
G1 F1000.0 Z-0.9
G1 F2000.0 Y128.4342
G3 X32.1918 Y130.0217 I-1.5875 J0.0
G1 X0.108
G3 X-1.4795 Y128.4342 I0.0 J-1.5875
G1 Y0.0222
G3 X0.108 Y-1.5653 I1.5875 J0.0
G1 X32.1918
G3 X33.7793 Y0.0222 I0.0 J1.5875
G1 F1000.0 Z-1.0
G1 F2000.0 Y128.4342
G3 X32.1918 Y130.0217 I-1.5875 J0.0
G1 X0.108
G3 X-1.4795 Y128.4342 I0.0 J-1.5875
G1 Y0.0222
G3 X0.108 Y-1.5653 I1.5875 J0.0
G1 X32.1918
G3 X33.7793 Y0.0222 I0.0 J1.5875
G1 F1000.0 Z-1.1
G1 F2000.0 Y128.4342
G3 X32.1918 Y130.0217 I-1.5875 J0.0
G1 X0.108
G3 X-1.4795 Y128.4342 I0.0 J-1.5875
G1 Y0.0222
G3 X0.108 Y-1.5653 I1.5875 J0.0
G1 X32.1918
G3 X33.7793 Y0.0222 I0.0 J1.5875
G1 F1000.0 Z-1.2
G1 F2000.0 Y128.4342
G3 X32.1918 Y130.0217 I-1.5875 J0.0
G1 X0.108
G3 X-1.4795 Y128.4342 I0.0 J-1.5875
G1 Y0.0222
G3 X0.108 Y-1.5653 I1.5875 J0.0
G1 X32.1918
G3 X33.7793 Y0.0222 I0.0 J1.5875
G1 F1000.0 Z-1.3
G1 F2000.0 Y37.5586
G1 Y38.5586 Z-1.2
G1 Y41.7336
G1 Y42.7336 Z-1.3
G1 Y117.8065
G1 Y118.8065 Z-1.2
G1 Y121.9815
G1 Y122.9815 Z-1.3
G1 Y128.4342
G3 X32.1918 Y130.0217 I-1.5875 J0.0
G1 X0.108
G3 X-1.4795 Y128.4342 I0.0 J-1.5875
G1 Y90.8978
G1 Y89.8978 Z-1.2
G1 Y86.7228
G1 Y85.7228 Z-1.3
G1 Y10.6498
G1 Y9.6498 Z-1.2
G1 Y6.4748
G1 Y5.4748 Z-1.3
G1 Y0.0222
G3 X0.108 Y-1.5653 I1.5875 J0.0
G1 X32.1918
G3 X33.7793 Y0.0222 I0.0 J1.5875
G1 F1000.0 Z-1.4
G1 F2000.0 Y37.5586
G1 Y38.5586 Z-1.2
G1 Y41.7336
G1 Y42.7336 Z-1.4
G1 Y117.8065
G1 Y118.8065 Z-1.2
G1 Y121.9815
G1 Y122.9815 Z-1.4
G1 Y128.4342
G3 X32.1918 Y130.0217 I-1.5875 J0.0
G1 X0.108
G3 X-1.4795 Y128.4342 I0.0 J-1.5875
G1 Y90.8978
G1 Y89.8978 Z-1.2
G1 Y86.7228
G1 Y85.7228 Z-1.4
G1 Y10.6498
G1 Y9.6498 Z-1.2
G1 Y6.4748
G1 Y5.4748 Z-1.4
G1 Y0.0222
G3 X0.108 Y-1.5653 I1.5875 J0.0
G1 X32.1918
G3 X33.7793 Y0.0222 I0.0 J1.5875
G1 F1000.0 Z-1.5
G1 F2000.0 Y37.5586
G1 Y38.5586 Z-1.2
G1 Y41.7336
G1 Y42.7336 Z-1.5
G1 Y117.8065
G1 Y118.8065 Z-1.2
G1 Y121.9815
G1 Y122.9815 Z-1.5
G1 Y128.4342
G3 X32.1918 Y130.0217 I-1.5875 J0.0
G1 X0.108
G3 X-1.4795 Y128.4342 I0.0 J-1.5875
G1 Y90.8978
G1 Y89.8978 Z-1.2
G1 Y86.7228
G1 Y85.7228 Z-1.5
G1 Y10.6498
G1 Y9.6498 Z-1.2
G1 Y6.4748
G1 Y5.4748 Z-1.5
G1 Y0.0222
G3 X0.108 Y-1.5653 I1.5875 J0.0
G1 X32.1918
G3 X33.7793 Y0.0222 I0.0 J1.5875
G1 F1000.0 Z-1.6
G1 F2000.0 Y37.5586
G1 Y38.5586 Z-1.2
G1 Y41.7336
G1 Y42.7336 Z-1.6
G1 Y117.8065
G1 Y118.8065 Z-1.2
G1 Y121.9815
G1 Y122.9815 Z-1.6
G1 Y128.4342
G3 X32.1918 Y130.0217 I-1.5875 J0.0
G1 X0.108
G3 X-1.4795 Y128.4342 I0.0 J-1.5875
G1 Y90.8978
G1 Y89.8978 Z-1.2
G1 Y86.7228
G1 Y85.7228 Z-1.6
G1 Y10.6498
G1 Y9.6498 Z-1.2
G1 Y6.4748
G1 Y5.4748 Z-1.6
G1 Y0.0222
G3 X0.108 Y-1.5653 I1.5875 J0.0
G1 X32.1918
G3 X33.7793 Y0.0222 I0.0 J1.5875
G1 F1000.0 Z-1.7
G1 F2000.0 Y37.5586
G1 Y38.5586 Z-1.2
G1 Y41.7336
G1 Y42.7336 Z-1.7
G1 Y117.8065
G1 Y118.8065 Z-1.2
G1 Y121.9815
G1 Y122.9815 Z-1.7
G1 Y128.4342
G3 X32.1918 Y130.0217 I-1.5875 J0.0
G1 X0.108
G3 X-1.4795 Y128.4342 I0.0 J-1.5875
G1 Y90.8978
G1 Y89.8978 Z-1.2
G1 Y86.7228
G1 Y85.7228 Z-1.7
G1 Y10.6498
G1 Y9.6498 Z-1.2
G1 Y6.4748
G1 Y5.4748 Z-1.7
G1 Y0.0222
G3 X0.108 Y-1.5653 I1.5875 J0.0
G1 X32.1918
G3 X33.7793 Y0.0222 I0.0 J1.5875
G1 F1000.0 Z-1.8
G1 F2000.0 Y37.5586
G1 Y38.5586 Z-1.2
G1 Y41.7336
G1 Y42.7336 Z-1.8
G1 Y117.8065
G1 Y118.8065 Z-1.2
G1 Y121.9815
G1 Y122.9815 Z-1.8
G1 Y128.4342
G3 X32.1918 Y130.0217 I-1.5875 J0.0
G1 X0.108
G3 X-1.4795 Y128.4342 I0.0 J-1.5875
G1 Y90.8978
G1 Y89.8978 Z-1.2
G1 Y86.7228
G1 Y85.7228 Z-1.8
G1 Y10.6498
G1 Y9.6498 Z-1.2
G1 Y6.4748
G1 Y5.4748 Z-1.8
G1 Y0.0222
G3 X0.108 Y-1.5653 I1.5875 J0.0
G1 X32.1918
G3 X33.7793 Y0.0222 I0.0 J1.5875
G1 F1000.0 Z-1.9
G1 F2000.0 Y37.5586
G1 Y38.5586 Z-1.2
G1 Y41.7336
G1 Y42.7336 Z-1.9
G1 Y117.8065
G1 Y118.8065 Z-1.2
G1 Y121.9815
G1 Y122.9815 Z-1.9
G1 Y128.4342
G3 X32.1918 Y130.0217 I-1.5875 J0.0
G1 X0.108
G3 X-1.4795 Y128.4342 I0.0 J-1.5875
G1 Y90.8978
G1 Y89.8978 Z-1.2
G1 Y86.7228
G1 Y85.7228 Z-1.9
G1 Y10.6498
G1 Y9.6498 Z-1.2
G1 Y6.4748
G1 Y5.4748 Z-1.9
G1 Y0.0222
G3 X0.108 Y-1.5653 I1.5875 J0.0
G1 X32.1918
G3 X33.7793 Y0.0222 I0.0 J1.5875
G1 F1000.0 Z-2.0
G1 F2000.0 Y37.5586
G1 Y38.5586 Z-1.2
G1 Y41.7336
G1 Y42.7336 Z-2.0
G1 Y117.8065
G1 Y118.8065 Z-1.2
G1 Y121.9815
G1 Y122.9815 Z-2.0
G1 Y128.4342
G3 X32.1918 Y130.0217 I-1.5875 J0.0
G1 X0.108
G3 X-1.4795 Y128.4342 I0.0 J-1.5875
G1 Y90.8978
G1 Y89.8978 Z-1.2
G1 Y86.7228
G1 Y85.7228 Z-2.0
G1 Y10.6498
G1 Y9.6498 Z-1.2
G1 Y6.4748
G1 Y5.4748 Z-2.0
G1 Y0.0222
G3 X0.108 Y-1.5653 I1.5875 J0.0
G1 X32.1918
G3 X33.7793 Y0.0222 I0.0 J1.5875
G1 F1000.0 Z-2.1
G1 F2000.0 Y37.5586
G1 Y38.5586 Z-1.2
G1 Y41.7336
G1 Y42.7336 Z-2.1
G1 Y117.8065
G1 Y118.8065 Z-1.2
G1 Y121.9815
G1 Y122.9815 Z-2.1
G1 Y128.4342
G3 X32.1918 Y130.0217 I-1.5875 J0.0
G1 X0.108
G3 X-1.4795 Y128.4342 I0.0 J-1.5875
G1 Y90.8978
G1 Y89.8978 Z-1.2
G1 Y86.7228
G1 Y85.7228 Z-2.1
G1 Y10.6498
G1 Y9.6498 Z-1.2
G1 Y6.4748
G1 Y5.4748 Z-2.1
G1 Y0.0222
G3 X0.108 Y-1.5653 I1.5875 J0.0
G1 X32.1918
G3 X33.7793 Y0.0222 I0.0 J1.5875
G1 F1000.0 Z-2.2
G1 F2000.0 Y37.5586
G1 Y38.5586 Z-1.2
G1 Y41.7336
G1 Y42.7336 Z-2.2
G1 Y117.8065
G1 Y118.8065 Z-1.2
G1 Y121.9815
G1 Y122.9815 Z-2.2
G1 Y128.4342
G3 X32.1918 Y130.0217 I-1.5875 J0.0
G1 X0.108
G3 X-1.4795 Y128.4342 I0.0 J-1.5875
G1 Y90.8978
G1 Y89.8978 Z-1.2
G1 Y86.7228
G1 Y85.7228 Z-2.2
G1 Y10.6498
G1 Y9.6498 Z-1.2
G1 Y6.4748
G1 Y5.4748 Z-2.2
G1 Y0.0222
G3 X0.108 Y-1.5653 I1.5875 J0.0
G1 X32.1918
G3 X33.7793 Y0.0222 I0.0 J1.5875
G1 F1000.0 Z-2.3
G1 F2000.0 Y37.5586
G1 Y38.5586 Z-1.2
G1 Y41.7336
G1 Y42.7336 Z-2.3
G1 Y117.8065
G1 Y118.8065 Z-1.2
G1 Y121.9815
G1 Y122.9815 Z-2.3
G1 Y128.4342
G3 X32.1918 Y130.0217 I-1.5875 J0.0
G1 X0.108
G3 X-1.4795 Y128.4342 I0.0 J-1.5875
G1 Y90.8978
G1 Y89.8978 Z-1.2
G1 Y86.7228
G1 Y85.7228 Z-2.3
G1 Y10.6498
G1 Y9.6498 Z-1.2
G1 Y6.4748
G1 Y5.4748 Z-2.3
G1 Y0.0222
G3 X0.108 Y-1.5653 I1.5875 J0.0
G1 X32.1918
G3 X33.7793 Y0.0222 I0.0 J1.5875
G1 F1000.0 Z-2.4
G1 F2000.0 Y37.5586
G1 Y38.5586 Z-1.2
G1 Y41.7336
G1 Y42.7336 Z-2.4
G1 Y117.8065
G1 Y118.8065 Z-1.2
G1 Y121.9815
G1 Y122.9815 Z-2.4
G1 Y128.4342
G3 X32.1918 Y130.0217 I-1.5875 J0.0
G1 X0.108
G3 X-1.4795 Y128.4342 I0.0 J-1.5875
G1 Y90.8978
G1 Y89.8978 Z-1.2
G1 Y86.7228
G1 Y85.7228 Z-2.4
G1 Y10.6498
G1 Y9.6498 Z-1.2
G1 Y6.4748
G1 Y5.4748 Z-2.4
G1 Y0.0222
G3 X0.108 Y-1.5653 I1.5875 J0.0
G1 X32.1918
G3 X33.7793 Y0.0222 I0.0 J1.5875
G1 F1000.0 Z-2.5
G1 F2000.0 Y37.5586
G1 Y38.5586 Z-1.2
G1 Y41.7336
G1 Y42.7336 Z-2.5
G1 Y117.8065
G1 Y118.8065 Z-1.2
G1 Y121.9815
G1 Y122.9815 Z-2.5
G1 Y128.4342
G3 X32.1918 Y130.0217 I-1.5875 J0.0
G1 X0.108
G3 X-1.4795 Y128.4342 I0.0 J-1.5875
G1 Y90.8978
G1 Y89.8978 Z-1.2
G1 Y86.7228
G1 Y85.7228 Z-2.5
G1 Y10.6498
G1 Y9.6498 Z-1.2
G1 Y6.4748
G1 Y5.4748 Z-2.5
G1 Y0.0222
G3 X0.108 Y-1.5653 I1.5875 J0.0
G1 X32.1918
G3 X33.7793 Y0.0222 I0.0 J1.5875
G1 F1000.0 Z-2.6
G1 F2000.0 Y37.5586
G1 Y38.5586 Z-1.2
G1 Y41.7336
G1 Y42.7336 Z-2.6
G1 Y117.8065
G1 Y118.8065 Z-1.2
G1 Y121.9815
G1 Y122.9815 Z-2.6
G1 Y128.4342
G3 X32.1918 Y130.0217 I-1.5875 J0.0
G1 X0.108
G3 X-1.4795 Y128.4342 I0.0 J-1.5875
G1 Y90.8978
G1 Y89.8978 Z-1.2
G1 Y86.7228
G1 Y85.7228 Z-2.6
G1 Y10.6498
G1 Y9.6498 Z-1.2
G1 Y6.4748
G1 Y5.4748 Z-2.6
G1 Y0.0222
G3 X0.108 Y-1.5653 I1.5875 J0.0
G1 X32.1918
G3 X33.7793 Y0.0222 I0.0 J1.5875
G1 F1000.0 Z-2.7
G1 F2000.0 Y37.5586
G1 Y38.5586 Z-1.2
G1 Y41.7336
G1 Y42.7336 Z-2.7
G1 Y117.8065
G1 Y118.8065 Z-1.2
G1 Y121.9815
G1 Y122.9815 Z-2.7
G1 Y128.4342
G3 X32.1918 Y130.0217 I-1.5875 J0.0
G1 X0.108
G3 X-1.4795 Y128.4342 I0.0 J-1.5875
G1 Y90.8978
G1 Y89.8978 Z-1.2
G1 Y86.7228
G1 Y85.7228 Z-2.7
G1 Y10.6498
G1 Y9.6498 Z-1.2
G1 Y6.4748
G1 Y5.4748 Z-2.7
G1 Y0.0222
G3 X0.108 Y-1.5653 I1.5875 J0.0
G1 X32.1918
G3 X33.7793 Y0.0222 I0.0 J1.5875
G1 F1000.0 Z-2.8
G1 F2000.0 Y37.5586
G1 Y38.5586 Z-1.2
G1 Y41.7336
G1 Y42.7336 Z-2.8
G1 Y117.8065
G1 Y118.8065 Z-1.2
G1 Y121.9815
G1 Y122.9815 Z-2.8
G1 Y128.4342
G3 X32.1918 Y130.0217 I-1.5875 J0.0
G1 X0.108
G3 X-1.4795 Y128.4342 I0.0 J-1.5875
G1 Y90.8978
G1 Y89.8978 Z-1.2
G1 Y86.7228
G1 Y85.7228 Z-2.8
G1 Y10.6498
G1 Y9.6498 Z-1.2
G1 Y6.4748
G1 Y5.4748 Z-2.8
G1 Y0.0222
G3 X0.108 Y-1.5653 I1.5875 J0.0
G1 X32.1918
G3 X33.7793 Y0.0222 I0.0 J1.5875
G1 F1000.0 Z-2.9
G1 F2000.0 Y37.5586
G1 Y38.5586 Z-1.2
G1 Y41.7336
G1 Y42.7336 Z-2.9
G1 Y117.8065
G1 Y118.8065 Z-1.2
G1 Y121.9815
G1 Y122.9815 Z-2.9
G1 Y128.4342
G3 X32.1918 Y130.0217 I-1.5875 J0.0
G1 X0.108
G3 X-1.4795 Y128.4342 I0.0 J-1.5875
G1 Y90.8978
G1 Y89.8978 Z-1.2
G1 Y86.7228
G1 Y85.7228 Z-2.9
G1 Y10.6498
G1 Y9.6498 Z-1.2
G1 Y6.4748
G1 Y5.4748 Z-2.9
G1 Y0.0222
G3 X0.108 Y-1.5653 I1.5875 J0.0
G1 X32.1918
G3 X33.7793 Y0.0222 I0.0 J1.5875
G1 F1000.0 Z-3.0
G1 F2000.0 Y37.5586
G1 Y38.5586 Z-1.2
G1 Y41.7336
G1 Y42.7336 Z-3.0
G1 Y117.8065
G1 Y118.8065 Z-1.2
G1 Y121.9815
G1 Y122.9815 Z-3.0
G1 Y128.4342
G3 X32.1918 Y130.0217 I-1.5875 J0.0
G1 X0.108
G3 X-1.4795 Y128.4342 I0.0 J-1.5875
G1 Y90.8978
G1 Y89.8978 Z-1.2
G1 Y86.7228
G1 Y85.7228 Z-3.0
G1 Y10.6498
G1 Y9.6498 Z-1.2
G1 Y6.4748
G1 Y5.4748 Z-3.0
G1 Y0.0222
G3 X0.108 Y-1.5653 I1.5875 J0.0
G1 X32.1918
G3 X33.7793 Y0.0222 I0.0 J1.5875
G1 F1000.0 Z-3.1
G1 F2000.0 Y37.5586
G1 Y38.5586 Z-1.2
G1 Y41.7336
G1 Y42.7336 Z-3.1
G1 Y117.8065
G1 Y118.8065 Z-1.2
G1 Y121.9815
G1 Y122.9815 Z-3.1
G1 Y128.4342
G3 X32.1918 Y130.0217 I-1.5875 J0.0
G1 X0.108
G3 X-1.4795 Y128.4342 I0.0 J-1.5875
G1 Y90.8978
G1 Y89.8978 Z-1.2
G1 Y86.7228
G1 Y85.7228 Z-3.1
G1 Y10.6498
G1 Y9.6498 Z-1.2
G1 Y6.4748
G1 Y5.4748 Z-3.1
G1 Y0.0222
G3 X0.108 Y-1.5653 I1.5875 J0.0
G1 X32.1918
G3 X33.7793 Y0.0222 I0.0 J1.5875
G1 F1000.0 Z-3.2
G1 F2000.0 Y37.5586
G1 Y38.5586 Z-1.2
G1 Y41.7336
G1 Y42.7336 Z-3.2
G1 Y117.8065
G1 Y118.8065 Z-1.2
G1 Y121.9815
G1 Y122.9815 Z-3.2
G1 Y128.4342
G3 X32.1918 Y130.0217 I-1.5875 J0.0
G1 X0.108
G3 X-1.4795 Y128.4342 I0.0 J-1.5875
G1 Y90.8978
G1 Y89.8978 Z-1.2
G1 Y86.7228
G1 Y85.7228 Z-3.2
G1 Y10.6498
G1 Y9.6498 Z-1.2
G1 Y6.4748
G1 Y5.4748 Z-3.2
G1 Y0.0222
G3 X0.108 Y-1.5653 I1.5875 J0.0
G1 X32.1918
G3 X33.7793 Y0.0222 I0.0 J1.5875
G0 Z3.0
M5
M30
